(** This GCode was generated by ReplicatorG 0040 **)
(*  using Skeinforge (35) - Legacy  *)
(*  for a Single headed Cupcake  *)
(*  on 2013/04/21 01:59:28 (+0100) *)
(**** beginning of start.gcode ****)
(This file is for a MakerBot Cupcake CNC)
M104 S220 T0 (Temperature to 220 celsius) (temp updated by printOMatic)
G21 (Metric FTW)
G90 (Absolute Positioning)
(G92 X0 Y0 Z0 (You are now at 0,0,0))
(You have failed me for the last time, MakerBot)
G1 Z8 F60 (Move up for test extrusion)
M108 S255 (Extruder speed = max)
M104 S180 T0
M6 T0 (Wait for tool to heat up)
G04 P5000 (Wait 5 seconds)
M101 (Extruder on, forward)
G04 P8000 (Wait 5 seconds)
M103 (Extruder off)
M01 (The heater is warming up and will do a test extrusion.  Click yes after you have cleared the nozzle of the extrusion.)
G1 Z0 F60	(Go back to zero.)
(**** end of start.gcode ****)
(<creation> skeinforge </creation>)
(<version> 10.11.05 </version>)
(<extruderInitialization>)
G90
G21
M103
(<craftTypeName> extrusion </craftTypeName>)
M105
(<bridgeWidthMultiplier> 1.0 </bridgeWidthMultiplier>)
(<decimalPlacesCarried> 3 </decimalPlacesCarried>)
(<layerThickness> 0.39 </layerThickness>)
(<threadSequenceString> loops perimeter infill </threadSequenceString>)
(<operatingFeedRatePerSecond> 16.0 </operatingFeedRatePerSecond>)
(<operatingFlowRate> 240.0 </operatingFlowRate>)
(<orbitalFeedRatePerSecond> 8.0 </orbitalFeedRatePerSecond>)
(<travelFeedRatePerSecond> 16.0 </travelFeedRatePerSecond>)
(<coolingRate> 0.5 </coolingRate>)
(<heatingRate> 1.0 </heatingRate>)
(<baseTemperature> 180.0 </baseTemperature>)
(<interfaceTemperature> 180.0 </interfaceTemperature>)
(<objectFirstLayerInfillTemperature> 175.0 </objectFirstLayerInfillTemperature>)
(<objectFirstLayerPerimeterTemperature> 175.0 </objectFirstLayerPerimeterTemperature>)
(<objectNextLayersTemperature> 175.0 </objectNextLayersTemperature>)
(<supportLayersTemperature> 185.0 </supportLayersTemperature>)
(<supportedLayersTemperature> 195.0 </supportedLayersTemperature>)
(<maximumZTravelFeedRatePerSecond> 1.0 </maximumZTravelFeedRatePerSecond>)
(<perimeterWidth> 0.702 </perimeterWidth>)
(<profileName> PLA </profileName>)
(<procedureDone> carve,bottom </procedureDone>)
(<procedureDone> preface </procedureDone>)
(<procedureDone> inset </procedureDone>)
(<procedureDone> fill </procedureDone>)
(<procedureDone> speed </procedureDone>)
(<procedureDone> temperature </procedureDone>)
(<procedureDone> raft </procedureDone>)
(<procedureDone> jitter </procedureDone>)
(<procedureDone> comb </procedureDone>)
(<procedureDone> oozebane </procedureDone>)
(<procedureDone> limit </procedureDone>)
(<procedureDone> export </procedureDone>)
(</extruderInitialization>)
(<extrusion>)
;M113 S1.0
M108 S240.0
M104 S180.0
(<layer> 0.597 )
M108 S240.0
G1 X-17.05 Y-15.86 Z0.6 F300.0
M101
G1 X-17.05 Y-15.72 Z0.6 F480.0
G1 X-17.05 Y-15.58 Z0.6 F800.0
G1 X-17.05 Y-15.44 Z0.6 F960.0
G1 X-17.05 Y15.86 Z0.6 F960.0
G1 X-15.34 Y15.86 Z0.6 F332.18
G1 X-15.34 Y-15.86 Z0.6 F332.18
G1 X-13.64 Y-15.86 Z0.6 F332.18
G1 X-13.64 Y15.86 Z0.6 F332.18
G1 X-11.93 Y15.86 Z0.6 F332.18
G1 X-11.93 Y-15.86 Z0.6 F332.18
G1 X-10.23 Y-15.86 Z0.6 F332.18
G1 X-10.23 Y15.86 Z0.6 F332.18
G1 X-8.52 Y15.86 Z0.6 F332.18
G1 X-8.52 Y-15.86 Z0.6 F332.18
G1 X-6.82 Y-15.86 Z0.6 F332.18
G1 X-6.82 Y15.86 Z0.6 F332.18
G1 X-5.12 Y15.86 Z0.6 F332.18
G1 X-5.12 Y-15.86 Z0.6 F332.18
G1 X-3.41 Y-15.86 Z0.6 F332.18
G1 X-3.41 Y15.86 Z0.6 F332.18
G1 X-1.71 Y15.86 Z0.6 F332.18
G1 X-1.71 Y-15.86 Z0.6 F332.18
G1 X0.0 Y-15.86 Z0.6 F332.18
G1 X0.0 Y15.86 Z0.6 F332.18
G1 X1.71 Y15.86 Z0.6 F332.18
G1 X1.71 Y-15.86 Z0.6 F332.18
G1 X3.41 Y-15.86 Z0.6 F332.18
G1 X3.41 Y15.86 Z0.6 F332.18
G1 X5.12 Y15.86 Z0.6 F332.18
G1 X5.12 Y-15.86 Z0.6 F332.18
G1 X6.82 Y-15.86 Z0.6 F332.18
G1 X6.82 Y15.86 Z0.6 F332.18
G1 X8.52 Y15.86 Z0.6 F332.18
G1 X8.52 Y-15.86 Z0.6 F332.18
G1 X10.23 Y-15.86 Z0.6 F332.18
G1 X10.23 Y15.86 Z0.6 F332.18
G1 X11.93 Y15.86 Z0.6 F332.18
G1 X11.93 Y-15.86 Z0.6 F332.18
G1 X13.64 Y-15.86 Z0.6 F332.18
G1 X13.64 Y15.86 Z0.6 F332.18
G1 X15.34 Y15.86 Z0.6 F332.18
G1 X15.34 Y-15.86 Z0.6 F332.18
G1 X17.05 Y-15.86 Z0.6 F332.18
G1 X17.05 Y15.44 Z0.6 F332.18
M103
G1 X17.05 Y15.65 Z0.6 F166.09
G1 X17.05 Y15.86 Z0.6 F55.363
(</layer>)
(<layer> 1.034 )
G1 X-16.16 Y0.43 Z1.02 F960.0
M101
G1 X-17.08 Y0.0 Z1.03 F960.0
G1 X-16.68 Y0.0 Z1.03 F480.0
G1 X-16.28 Y0.0 Z1.03 F800.0
G1 X-15.88 Y0.0 Z1.03 F960.0
G1 X17.08 Y0.0 Z1.03 F960.0
G1 X17.08 Y-1.75 Z1.03 F960.0
G1 X-17.08 Y-1.75 Z1.03 F960.0
G1 X-17.08 Y-3.51 Z1.03 F960.0
G1 X17.08 Y-3.51 Z1.03 F960.0
G1 X17.08 Y-5.26 Z1.03 F960.0
G1 X-17.08 Y-5.26 Z1.03 F960.0
G1 X-17.08 Y-7.02 Z1.03 F960.0
G1 X17.08 Y-7.02 Z1.03 F960.0
G1 X17.08 Y-8.78 Z1.03 F960.0
G1 X-17.08 Y-8.78 Z1.03 F960.0
G1 X-17.08 Y-10.53 Z1.03 F960.0
G1 X17.08 Y-10.53 Z1.03 F960.0
G1 X17.08 Y-12.29 Z1.03 F960.0
G1 X-17.08 Y-12.29 Z1.03 F960.0
G1 X-17.08 Y-14.04 Z1.03 F960.0
G1 X17.08 Y-14.04 Z1.03 F960.0
G1 X17.08 Y-15.79 Z1.03 F960.0
G1 X-15.88 Y-15.79 Z1.03 F960.0
M103
G1 X-16.48 Y-15.79 Z1.03 F480.0
G1 X-17.08 Y-15.79 Z1.03 F160.0
G1 X-17.08 Y1.05 Z1.03 F960.0
M101
G1 X-17.08 Y1.75 Z1.03 F960.0
G1 X-16.68 Y1.75 Z1.03 F480.0
G1 X-16.28 Y1.75 Z1.03 F800.0
G1 X-15.88 Y1.75 Z1.03 F960.0
G1 X17.08 Y1.75 Z1.03 F960.0
G1 X17.08 Y3.51 Z1.03 F960.0
G1 X-17.08 Y3.51 Z1.03 F960.0
G1 X-17.08 Y5.26 Z1.03 F960.0
G1 X17.08 Y5.26 Z1.03 F960.0
G1 X17.08 Y7.02 Z1.03 F960.0
G1 X-17.08 Y7.02 Z1.03 F960.0
G1 X-17.08 Y8.78 Z1.03 F960.0
G1 X17.08 Y8.78 Z1.03 F960.0
G1 X17.08 Y10.53 Z1.03 F960.0
G1 X-17.08 Y10.53 Z1.03 F960.0
G1 X-17.08 Y12.29 Z1.03 F960.0
G1 X17.08 Y12.29 Z1.03 F960.0
G1 X17.08 Y14.04 Z1.03 F960.0
G1 X-17.08 Y14.04 Z1.03 F960.0
G1 X-17.08 Y15.79 Z1.03 F960.0
G1 X15.88 Y15.79 Z1.03 F960.0
M103
G1 X16.48 Y15.79 Z1.03 F480.0
G1 X17.08 Y15.79 Z1.03 F160.0
(</layer>)
(<raftLayerEnd> </raftLayerEnd>)
(<layer> 1.443 )
M104 S175.0
G1 X23.2 Y23.2 Z1.44 F480.0
G1 X-23.2 Y23.2 Z1.44 F480.0
G1 X-23.2 Y-23.2 Z1.44 F480.0
G1 X23.2 Y-23.2 Z1.44 F480.0
(<surroundingLoop>)
(<boundaryPerimeter>)
(<boundaryPoint> X-10.0 Y-10.0 Z1.443 </boundaryPoint>)
(<boundaryPoint> X10.0 Y-10.0 Z1.443 </boundaryPoint>)
(<boundaryPoint> X10.0 Y10.0 Z1.443 </boundaryPoint>)
(<boundaryPoint> X-10.0 Y10.0 Z1.443 </boundaryPoint>)
(<loop> outer )
G1 X9.84 Y-9.37 Z1.44 F960.0
M101
G1 X9.01 Y-8.51 Z1.44 F960.0
G1 X9.01 Y-8.11 Z1.44 F480.0
G1 X9.01 Y-7.71 Z1.44 F800.0
G1 X9.01 Y-7.31 Z1.44 F960.0
G1 X9.01 Y9.01 Z1.44 F960.0
G1 X-9.01 Y9.01 Z1.44 F960.0
G1 X-9.01 Y-9.01 Z1.44 F960.0
G1 X0.0 Y-9.01 Z1.44 F960.0
G1 X8.3 Y-9.01 Z1.44 F960.0
M103
G1 X8.9 Y-9.01 Z1.44 F480.0
G1 X9.01 Y-9.01 Z1.44 F425.067
G1 X9.01 Y-8.51 Z1.44 F160.0
(</loop>)
(<perimeter> outer )
G1 X9.65 Y-8.51 Z1.44 F960.0
M101
G1 X9.65 Y-8.11 Z1.44 F480.0
G1 X9.65 Y-7.71 Z1.44 F800.0
G1 X9.65 Y-7.31 Z1.44 F960.0
G1 X9.65 Y9.65 Z1.44 F960.0
G1 X-9.65 Y9.65 Z1.44 F960.0
G1 X-9.65 Y-9.65 Z1.44 F960.0
G1 X0.0 Y-9.65 Z1.44 F960.0
G1 X9.65 Y-9.65 Z1.44 F960.0
M103
G1 X9.65 Y-9.11 Z1.44 F480.0
G1 X9.65 Y-8.51 Z1.44 F160.0
(</perimeter>)
(</boundaryPerimeter>)
G1 X8.13 Y-8.51 Z1.44 F960.0
M101
G1 X8.04 Y-8.51 Z1.44 F960.0
G1 X8.32 Y-8.22 Z1.44 F480.0
G1 X8.51 Y-8.04 Z1.44 F691.744
G1 X8.51 Y-7.9 Z1.44 F800.0
G1 X8.51 Y-7.5 Z1.44 F960.0
G1 X8.51 Y-7.21 Z1.44 F960.0
G1 X7.21 Y-8.51 Z1.44 F960.0
G1 X6.38 Y-8.51 Z1.44 F960.0
G1 X8.51 Y-6.38 Z1.44 F960.0
G1 X8.51 Y-5.56 Z1.44 F960.0
G1 X5.56 Y-8.51 Z1.44 F960.0
G1 X4.73 Y-8.51 Z1.44 F960.0
G1 X8.51 Y-4.73 Z1.44 F960.0
G1 X8.51 Y-3.9 Z1.44 F960.0
G1 X3.9 Y-8.51 Z1.44 F960.0
G1 X3.07 Y-8.51 Z1.44 F960.0
G1 X8.51 Y-3.07 Z1.44 F960.0
G1 X8.51 Y-2.25 Z1.44 F960.0
G1 X2.25 Y-8.51 Z1.44 F960.0
G1 X1.42 Y-8.51 Z1.44 F960.0
G1 X8.51 Y-1.42 Z1.44 F960.0
G1 X8.51 Y-0.59 Z1.44 F960.0
G1 X0.59 Y-8.51 Z1.44 F960.0
G1 X-0.23 Y-8.51 Z1.44 F960.0
G1 X8.51 Y0.23 Z1.44 F960.0
G1 X8.51 Y1.06 Z1.44 F960.0
G1 X-1.06 Y-8.51 Z1.44 F960.0
G1 X-1.89 Y-8.51 Z1.44 F960.0
G1 X8.51 Y1.89 Z1.44 F960.0
G1 X8.51 Y2.72 Z1.44 F960.0
G1 X-2.72 Y-8.51 Z1.44 F960.0
G1 X-3.54 Y-8.51 Z1.44 F960.0
G1 X8.51 Y3.54 Z1.44 F960.0
G1 X8.51 Y4.37 Z1.44 F960.0
G1 X-4.37 Y-8.51 Z1.44 F960.0
G1 X-5.2 Y-8.51 Z1.44 F960.0
G1 X8.51 Y5.2 Z1.44 F960.0
G1 X8.51 Y6.03 Z1.44 F960.0
G1 X-6.03 Y-8.51 Z1.44 F960.0
G1 X-6.85 Y-8.51 Z1.44 F960.0
G1 X8.51 Y6.85 Z1.44 F960.0
G1 X8.51 Y7.68 Z1.44 F960.0
G1 X-7.68 Y-8.51 Z1.44 F960.0
G1 X-8.51 Y-8.51 Z1.44 F960.0
G1 X8.51 Y8.51 Z1.44 F960.0
G1 X7.68 Y8.51 Z1.44 F960.0
G1 X-8.51 Y-7.68 Z1.44 F960.0
G1 X-8.51 Y-6.85 Z1.44 F960.0
G1 X6.85 Y8.51 Z1.44 F960.0
G1 X6.03 Y8.51 Z1.44 F960.0
G1 X-8.51 Y-6.03 Z1.44 F960.0
G1 X-8.51 Y-5.2 Z1.44 F960.0
G1 X5.2 Y8.51 Z1.44 F960.0
G1 X4.37 Y8.51 Z1.44 F960.0
G1 X-8.51 Y-4.37 Z1.44 F960.0
G1 X-8.51 Y-3.54 Z1.44 F960.0
G1 X3.54 Y8.51 Z1.44 F960.0
G1 X2.72 Y8.51 Z1.44 F960.0
G1 X-8.51 Y-2.72 Z1.44 F960.0
G1 X-8.51 Y-1.89 Z1.44 F960.0
G1 X1.89 Y8.51 Z1.44 F960.0
G1 X1.06 Y8.51 Z1.44 F960.0
G1 X-8.51 Y-1.06 Z1.44 F960.0
G1 X-8.51 Y-0.23 Z1.44 F960.0
G1 X0.23 Y8.51 Z1.44 F960.0
G1 X-0.59 Y8.51 Z1.44 F960.0
G1 X-8.51 Y0.59 Z1.44 F960.0
G1 X-8.51 Y1.42 Z1.44 F960.0
G1 X-1.42 Y8.51 Z1.44 F960.0
G1 X-2.25 Y8.51 Z1.44 F960.0
G1 X-8.51 Y2.25 Z1.44 F960.0
G1 X-8.51 Y3.07 Z1.44 F960.0
G1 X-3.07 Y8.51 Z1.44 F960.0
G1 X-3.9 Y8.51 Z1.44 F960.0
G1 X-8.51 Y3.9 Z1.44 F960.0
G1 X-8.51 Y4.73 Z1.44 F960.0
G1 X-4.73 Y8.51 Z1.44 F960.0
G1 X-5.56 Y8.51 Z1.44 F960.0
G1 X-8.51 Y5.56 Z1.44 F960.0
G1 X-8.51 Y6.38 Z1.44 F960.0
G1 X-6.38 Y8.51 Z1.44 F960.0
G1 X-7.21 Y8.51 Z1.44 F960.0
G1 X-8.51 Y7.21 Z1.44 F960.0
G1 X-8.51 Y7.5 Z1.44 F960.0
M103
G1 X-8.51 Y8.04 Z1.44 F514.496
G1 X-8.04 Y8.51 Z1.44 F160.0
(</surroundingLoop>)
(</layer>)
(<layer> 1.833 )
(<surroundingLoop>)
(<boundaryPerimeter>)
(<boundaryPoint> X-10.0 Y-10.0 Z1.833 </boundaryPoint>)
(<boundaryPoint> X10.0 Y-10.0 Z1.833 </boundaryPoint>)
(<boundaryPoint> X10.0 Y10.0 Z1.833 </boundaryPoint>)
(<boundaryPoint> X-10.0 Y10.0 Z1.833 </boundaryPoint>)
(<loop> outer )
G1 X-8.0 Y8.43 Z1.81 F61.776
M101
G1 X-8.04 Y8.42 Z1.83 F114.397
G1 X-8.42 Y8.42 Z1.83 F497.6
G1 X-8.42 Y8.04 Z1.83 F800.0
G1 X-8.42 Y7.64 Z1.83 F960.0
G1 X-8.42 Y-8.42 Z1.83 F960.0
G1 X8.42 Y-8.42 Z1.83 F960.0
G1 X8.42 Y8.42 Z1.83 F960.0
G1 X-6.8 Y8.42 Z1.83 F960.0
M103
G1 X-7.4 Y8.42 Z1.83 F480.0
G1 X-8.0 Y8.42 Z1.83 F160.0
(</loop>)
(<loop> outer )
G1 X-8.04 Y8.97 Z1.83 F960.0
M101
G1 X-8.44 Y9.01 Z1.83 F480.0
G1 X-8.84 Y9.01 Z1.83 F800.0
G1 X-9.01 Y9.01 Z1.83 F934.4
G1 X-9.01 Y8.77 Z1.83 F960.0
G1 X-9.01 Y-9.01 Z1.83 F960.0
G1 X9.01 Y-9.01 Z1.83 F960.0
G1 X9.01 Y9.01 Z1.83 F960.0
G1 X-6.84 Y9.01 Z1.83 F960.0
M103
G1 X-7.44 Y9.01 Z1.83 F480.0
G1 X-8.04 Y9.01 Z1.83 F160.0
(</loop>)
(<perimeter> outer )
G1 X-8.04 Y9.61 Z1.83 F960.0
M101
G1 X-8.44 Y9.65 Z1.83 F480.0
G1 X-8.84 Y9.65 Z1.83 F800.0
G1 X-9.24 Y9.65 Z1.83 F960.0
G1 X-9.65 Y9.65 Z1.83 F960.0
G1 X-9.65 Y-9.65 Z1.83 F960.0
G1 X9.65 Y-9.65 Z1.83 F960.0
G1 X9.65 Y9.65 Z1.83 F960.0
G1 X-6.84 Y9.65 Z1.83 F960.0
M103
G1 X-7.44 Y9.65 Z1.83 F480.0
G1 X-8.04 Y9.65 Z1.83 F160.0
(</perimeter>)
(</boundaryPerimeter>)
G1 X7.26 Y7.87 Z1.83 F960.0
M101
G1 X7.92 Y7.8 Z1.83 F960.0
G1 X7.8 Y7.92 Z1.83 F303.684
G1 X7.58 Y7.92 Z1.83 F480.0
G1 X7.18 Y7.92 Z1.83 F800.0
G1 X6.97 Y7.92 Z1.83 F960.0
G1 X7.1 Y7.79 Z1.83 F960.0
G1 X7.92 Y6.97 Z1.83 F960.0
G1 X7.92 Y6.14 Z1.83 F960.0
G1 X6.14 Y7.92 Z1.83 F960.0
G1 X5.31 Y7.92 Z1.83 F960.0
G1 X7.92 Y5.31 Z1.83 F960.0
G1 X7.92 Y4.49 Z1.83 F960.0
G1 X4.49 Y7.92 Z1.83 F960.0
G1 X3.66 Y7.92 Z1.83 F960.0
G1 X7.92 Y3.66 Z1.83 F960.0
G1 X7.92 Y2.83 Z1.83 F960.0
G1 X2.83 Y7.92 Z1.83 F960.0
G1 X2.0 Y7.92 Z1.83 F960.0
G1 X7.92 Y2.0 Z1.83 F960.0
G1 X7.92 Y1.18 Z1.83 F960.0
G1 X1.18 Y7.92 Z1.83 F960.0
G1 X0.35 Y7.92 Z1.83 F960.0
G1 X7.92 Y0.35 Z1.83 F960.0
G1 X7.92 Y-0.48 Z1.83 F960.0
G1 X-0.48 Y7.92 Z1.83 F960.0
G1 X-1.3 Y7.92 Z1.83 F960.0
G1 X7.92 Y-1.3 Z1.83 F960.0
G1 X7.92 Y-2.13 Z1.83 F960.0
G1 X-2.13 Y7.92 Z1.83 F960.0
G1 X-2.96 Y7.92 Z1.83 F960.0
G1 X7.92 Y-2.96 Z1.83 F960.0
G1 X7.92 Y-3.79 Z1.83 F960.0
G1 X-3.79 Y7.92 Z1.83 F960.0
G1 X-4.61 Y7.92 Z1.83 F960.0
G1 X7.92 Y-4.61 Z1.83 F960.0
G1 X7.92 Y-5.44 Z1.83 F960.0
G1 X-5.44 Y7.92 Z1.83 F960.0
G1 X-6.27 Y7.92 Z1.83 F960.0
G1 X7.92 Y-6.27 Z1.83 F960.0
G1 X7.92 Y-7.1 Z1.83 F960.0
G1 X-7.1 Y7.92 Z1.83 F960.0
G1 X-7.92 Y7.92 Z1.83 F960.0
G1 X7.92 Y-7.92 Z1.83 F960.0
G1 X7.1 Y-7.92 Z1.83 F960.0
G1 X-7.92 Y7.1 Z1.83 F960.0
G1 X-7.92 Y6.27 Z1.83 F960.0
G1 X6.27 Y-7.92 Z1.83 F960.0
G1 X5.44 Y-7.92 Z1.83 F960.0
G1 X-7.92 Y5.44 Z1.83 F960.0
G1 X-7.92 Y4.61 Z1.83 F960.0
G1 X4.61 Y-7.92 Z1.83 F960.0
G1 X3.79 Y-7.92 Z1.83 F960.0
G1 X-7.92 Y3.79 Z1.83 F960.0
G1 X-7.92 Y2.96 Z1.83 F960.0
G1 X2.96 Y-7.92 Z1.83 F960.0
G1 X2.13 Y-7.92 Z1.83 F960.0
G1 X-7.92 Y2.13 Z1.83 F960.0
G1 X-7.92 Y1.3 Z1.83 F960.0
G1 X1.3 Y-7.92 Z1.83 F960.0
G1 X0.48 Y-7.92 Z1.83 F960.0
G1 X-7.92 Y0.48 Z1.83 F960.0
G1 X-7.92 Y-0.35 Z1.83 F960.0
G1 X-0.35 Y-7.92 Z1.83 F960.0
G1 X-1.18 Y-7.92 Z1.83 F960.0
G1 X-7.92 Y-1.18 Z1.83 F960.0
G1 X-7.92 Y-2.0 Z1.83 F960.0
G1 X-2.0 Y-7.92 Z1.83 F960.0
G1 X-2.83 Y-7.92 Z1.83 F960.0
G1 X-7.92 Y-2.83 Z1.83 F960.0
G1 X-7.92 Y-3.66 Z1.83 F960.0
G1 X-3.66 Y-7.92 Z1.83 F960.0
G1 X-4.49 Y-7.92 Z1.83 F960.0
G1 X-7.92 Y-4.49 Z1.83 F960.0
G1 X-7.92 Y-5.31 Z1.83 F960.0
G1 X-5.31 Y-7.92 Z1.83 F960.0
G1 X-6.14 Y-7.92 Z1.83 F960.0
G1 X-7.92 Y-6.14 Z1.83 F960.0
G1 X-7.92 Y-6.97 Z1.83 F960.0
G1 X-7.1 Y-7.79 Z1.83 F960.0
M103
G1 X-6.97 Y-7.92 Z1.83 F697.389
G1 X-7.38 Y-7.92 Z1.83 F480.0
G1 X-7.8 Y-7.92 Z1.83 F255.789
G1 X-7.92 Y-7.8 Z1.83 F160.0
(</surroundingLoop>)
(</layer>)
(<operatingLayerEnd> </operatingLayerEnd>)
(<layer> 2.223 )
(<surroundingLoop>)
(<boundaryPerimeter>)
(<boundaryPoint> X-10.0 Y-10.0 Z2.223 </boundaryPoint>)
(<boundaryPoint> X10.0 Y-10.0 Z2.223 </boundaryPoint>)
(<boundaryPoint> X10.0 Y10.0 Z2.223 </boundaryPoint>)
(<boundaryPoint> X-10.0 Y10.0 Z2.223 </boundaryPoint>)
(<loop> outer )
G1 X-8.94 Y-7.25 Z2.2 F198.141
M101
G1 X-9.01 Y-7.22 Z2.22 F194.99
G1 X-9.01 Y-7.62 Z2.22 F480.0
G1 X-9.01 Y-7.8 Z2.22 F620.0
G1 X-9.01 Y-8.02 Z2.22 F800.0
G1 X-9.01 Y-8.42 Z2.22 F960.0
G1 X-9.01 Y-9.01 Z2.22 F960.0
G1 X9.01 Y-9.01 Z2.22 F960.0
G1 X9.01 Y9.01 Z2.22 F960.0
G1 X-9.01 Y9.01 Z2.22 F960.0
G1 X-9.01 Y-6.02 Z2.22 F960.0
M103
G1 X-9.01 Y-6.62 Z2.22 F480.0
G1 X-9.01 Y-7.22 Z2.22 F160.0
(</loop>)
(<perimeter> outer )
G1 X-9.61 Y-7.22 Z2.22 F960.0
M101
G1 X-9.65 Y-7.62 Z2.22 F480.0
G1 X-9.65 Y-7.8 Z2.22 F620.0
G1 X-9.65 Y-8.02 Z2.22 F800.0
G1 X-9.65 Y-8.42 Z2.22 F960.0
G1 X-9.65 Y-9.65 Z2.22 F960.0
G1 X9.65 Y-9.65 Z2.22 F960.0
G1 X9.65 Y9.65 Z2.22 F960.0
G1 X-9.65 Y9.65 Z2.22 F960.0
G1 X-9.65 Y-6.02 Z2.22 F960.0
M103
G1 X-9.65 Y-6.62 Z2.22 F480.0
G1 X-9.65 Y-7.22 Z2.22 F160.0
(</perimeter>)
(</boundaryPerimeter>)
G1 X7.33 Y-8.46 Z2.22 F960.0
M101
G1 X8.04 Y-8.51 Z2.22 F960.0
G1 X8.32 Y-8.22 Z2.22 F480.0
G1 X8.51 Y-8.04 Z2.22 F691.744
G1 X8.51 Y-7.9 Z2.22 F800.0
G1 X8.51 Y-7.5 Z2.22 F960.0
G1 X8.51 Y-7.21 Z2.22 F960.0
G1 X7.21 Y-8.51 Z2.22 F960.0
G1 X6.38 Y-8.51 Z2.22 F960.0
G1 X8.51 Y-6.38 Z2.22 F960.0
G1 X8.51 Y-5.56 Z2.22 F960.0
G1 X5.56 Y-8.51 Z2.22 F960.0
G1 X4.73 Y-8.51 Z2.22 F960.0
G1 X8.51 Y-4.73 Z2.22 F960.0
G1 X8.51 Y-3.9 Z2.22 F960.0
G1 X3.9 Y-8.51 Z2.22 F960.0
G1 X3.07 Y-8.51 Z2.22 F960.0
G1 X8.51 Y-3.07 Z2.22 F960.0
G1 X8.51 Y-2.25 Z2.22 F960.0
G1 X2.25 Y-8.51 Z2.22 F960.0
G1 X1.42 Y-8.51 Z2.22 F960.0
G1 X8.51 Y-1.42 Z2.22 F960.0
G1 X8.51 Y-0.59 Z2.22 F960.0
G1 X0.59 Y-8.51 Z2.22 F960.0
G1 X-0.23 Y-8.51 Z2.22 F960.0
G1 X8.51 Y0.23 Z2.22 F960.0
G1 X8.51 Y1.06 Z2.22 F960.0
G1 X-1.06 Y-8.51 Z2.22 F960.0
G1 X-1.89 Y-8.51 Z2.22 F960.0
G1 X8.51 Y1.89 Z2.22 F960.0
G1 X8.51 Y2.72 Z2.22 F960.0
G1 X-2.72 Y-8.51 Z2.22 F960.0
G1 X-3.54 Y-8.51 Z2.22 F960.0
G1 X8.51 Y3.54 Z2.22 F960.0
G1 X8.51 Y4.37 Z2.22 F960.0
G1 X-4.37 Y-8.51 Z2.22 F960.0
G1 X-5.2 Y-8.51 Z2.22 F960.0
G1 X8.51 Y5.2 Z2.22 F960.0
G1 X8.51 Y6.03 Z2.22 F960.0
G1 X-6.03 Y-8.51 Z2.22 F960.0
G1 X-6.85 Y-8.51 Z2.22 F960.0
G1 X8.51 Y6.85 Z2.22 F960.0
G1 X8.51 Y7.68 Z2.22 F960.0
G1 X-7.68 Y-8.51 Z2.22 F960.0
G1 X-8.51 Y-8.51 Z2.22 F960.0
G1 X8.51 Y8.51 Z2.22 F960.0
G1 X7.68 Y8.51 Z2.22 F960.0
G1 X-8.51 Y-7.68 Z2.22 F960.0
G1 X-8.51 Y-6.85 Z2.22 F960.0
G1 X6.85 Y8.51 Z2.22 F960.0
G1 X6.03 Y8.51 Z2.22 F960.0
G1 X-8.51 Y-6.03 Z2.22 F960.0
G1 X-8.51 Y-5.2 Z2.22 F960.0
G1 X5.2 Y8.51 Z2.22 F960.0
G1 X4.37 Y8.51 Z2.22 F960.0
G1 X-8.51 Y-4.37 Z2.22 F960.0
G1 X-8.51 Y-3.54 Z2.22 F960.0
G1 X3.54 Y8.51 Z2.22 F960.0
G1 X2.72 Y8.51 Z2.22 F960.0
G1 X-8.51 Y-2.72 Z2.22 F960.0
G1 X-8.51 Y-1.89 Z2.22 F960.0
G1 X1.89 Y8.51 Z2.22 F960.0
G1 X1.06 Y8.51 Z2.22 F960.0
G1 X-8.51 Y-1.06 Z2.22 F960.0
G1 X-8.51 Y-0.23 Z2.22 F960.0
G1 X0.23 Y8.51 Z2.22 F960.0
G1 X-0.59 Y8.51 Z2.22 F960.0
G1 X-8.51 Y0.59 Z2.22 F960.0
G1 X-8.51 Y1.42 Z2.22 F960.0
G1 X-1.42 Y8.51 Z2.22 F960.0
G1 X-2.25 Y8.51 Z2.22 F960.0
G1 X-8.51 Y2.25 Z2.22 F960.0
G1 X-8.51 Y3.07 Z2.22 F960.0
G1 X-3.07 Y8.51 Z2.22 F960.0
G1 X-3.9 Y8.51 Z2.22 F960.0
G1 X-8.51 Y3.9 Z2.22 F960.0
G1 X-8.51 Y4.73 Z2.22 F960.0
G1 X-4.73 Y8.51 Z2.22 F960.0
G1 X-5.56 Y8.51 Z2.22 F960.0
G1 X-8.51 Y5.56 Z2.22 F960.0
G1 X-8.51 Y6.38 Z2.22 F960.0
G1 X-6.38 Y8.51 Z2.22 F960.0
G1 X-7.21 Y8.51 Z2.22 F960.0
G1 X-8.51 Y7.21 Z2.22 F960.0
G1 X-8.51 Y7.5 Z2.22 F960.0
M103
G1 X-8.51 Y8.04 Z2.22 F514.496
G1 X-8.04 Y8.51 Z2.22 F160.0
(</surroundingLoop>)
(</layer>)
(<layer> 2.613 )
(<surroundingLoop>)
(<boundaryPerimeter>)
(<boundaryPoint> X-10.0 Y-10.0 Z2.613 </boundaryPoint>)
(<boundaryPoint> X10.0 Y-10.0 Z2.613 </boundaryPoint>)
(<boundaryPoint> X10.0 Y10.0 Z2.613 </boundaryPoint>)
(<boundaryPoint> X-10.0 Y10.0 Z2.613 </boundaryPoint>)
(<loop> outer )
G1 X-8.33 Y9.01 Z2.61 F107.182
M101
G1 X-8.73 Y9.01 Z2.61 F480.0
G1 X-9.01 Y9.01 Z2.61 F700.8
G1 X-9.01 Y8.88 Z2.61 F800.0
G1 X-9.01 Y8.48 Z2.61 F960.0
G1 X-9.01 Y-9.01 Z2.61 F960.0
G1 X9.01 Y-9.01 Z2.61 F960.0
G1 X9.01 Y9.01 Z2.61 F960.0
G1 X-7.13 Y9.01 Z2.61 F960.0
M103
G1 X-7.73 Y9.01 Z2.61 F480.0
G1 X-8.04 Y9.01 Z2.61 F315.733
G1 X-8.33 Y9.01 Z2.61 F160.0
(</loop>)
(<perimeter> outer )
G1 X-8.05 Y9.61 Z2.61 F960.0
M101
G1 X-8.44 Y9.65 Z2.61 F480.0
G1 X-8.84 Y9.65 Z2.61 F800.0
G1 X-9.24 Y9.65 Z2.61 F960.0
G1 X-9.65 Y9.65 Z2.61 F960.0
G1 X-9.65 Y-9.65 Z2.61 F960.0
G1 X9.65 Y-9.65 Z2.61 F960.0
G1 X9.65 Y9.65 Z2.61 F960.0
G1 X-6.84 Y9.65 Z2.61 F960.0
M103
G1 X-7.44 Y9.65 Z2.61 F480.0
G1 X-8.04 Y9.65 Z2.61 F160.0
(</perimeter>)
(</boundaryPerimeter>)
G1 X7.83 Y8.1 Z2.61 F960.0
M101
G1 X8.51 Y8.04 Z2.61 F960.0
G1 X8.22 Y8.32 Z2.61 F480.0
G1 X8.04 Y8.51 Z2.61 F691.744
G1 X7.9 Y8.51 Z2.61 F800.0
G1 X7.5 Y8.51 Z2.61 F960.0
G1 X4.36 Y8.51 Z2.61 F960.0
G1 X8.51 Y7.12 Z2.61 F960.0
G1 X8.51 Y-0.23 Z2.61 F960.0
G1 X3.44 Y8.51 Z2.61 F960.0
G1 X-4.83 Y8.51 Z2.61 F960.0
G1 X8.51 Y-1.15 Z2.61 F960.0
G1 X8.51 Y-8.51 Z2.61 F960.0
G1 X3.91 Y-8.51 Z2.61 F960.0
G1 X-5.75 Y8.51 Z2.61 F960.0
G1 X-8.51 Y8.51 Z2.61 F960.0
G1 X-8.51 Y-0.68 Z2.61 F960.0
G1 X2.99 Y-8.51 Z2.61 F960.0
G1 X-5.28 Y-8.51 Z2.61 F960.0
G1 X-8.51 Y-1.6 Z2.61 F960.0
G1 X-8.51 Y-7.12 Z2.61 F960.0
G1 X-6.2 Y-8.51 Z2.61 F960.0
G1 X-7.5 Y-8.51 Z2.61 F960.0
M103
G1 X-8.04 Y-8.51 Z2.61 F514.496
G1 X-8.51 Y-8.04 Z2.61 F160.0
(</surroundingLoop>)
(</layer>)
(<layer> 3.003 )
(<surroundingLoop>)
(<boundaryPerimeter>)
(<boundaryPoint> X-10.0 Y-10.0 Z3.003 </boundaryPoint>)
(<boundaryPoint> X10.0 Y-10.0 Z3.003 </boundaryPoint>)
(<boundaryPoint> X10.0 Y10.0 Z3.003 </boundaryPoint>)
(<boundaryPoint> X-10.0 Y10.0 Z3.003 </boundaryPoint>)
(<loop> outer )
G1 X-8.98 Y-7.81 Z2.98 F104.37
M101
G1 X-9.01 Y-8.04 Z3.0 F355.2
G1 X-9.01 Y-8.19 Z3.0 F480.0
G1 X-9.01 Y-8.59 Z3.0 F800.0
G1 X-9.01 Y-9.01 Z3.0 F960.0
G1 X9.01 Y-9.01 Z3.0 F960.0
G1 X9.01 Y9.01 Z3.0 F960.0
G1 X-9.01 Y9.01 Z3.0 F960.0
G1 X-9.01 Y-6.59 Z3.0 F960.0
M103
G1 X-9.01 Y-7.19 Z3.0 F480.0
G1 X-9.01 Y-7.79 Z3.0 F160.0
(</loop>)
(<perimeter> outer )
G1 X-9.61 Y-8.02 Z3.0 F960.0
M101
G1 X-9.65 Y-8.44 Z3.0 F480.0
G1 X-9.65 Y-8.84 Z3.0 F800.0
G1 X-9.65 Y-9.24 Z3.0 F960.0
G1 X-9.65 Y-9.65 Z3.0 F960.0
G1 X9.65 Y-9.65 Z3.0 F960.0
G1 X9.65 Y9.65 Z3.0 F960.0
G1 X-9.65 Y9.65 Z3.0 F960.0
G1 X-9.65 Y-6.84 Z3.0 F960.0
M103
G1 X-9.65 Y-7.44 Z3.0 F480.0
G1 X-9.65 Y-8.04 Z3.0 F160.0
(</perimeter>)
(</boundaryPerimeter>)
G1 X7.33 Y-8.49 Z3.0 F960.0
M101
G1 X8.04 Y-8.51 Z3.0 F960.0
G1 X8.32 Y-8.22 Z3.0 F480.0
G1 X8.51 Y-8.04 Z3.0 F691.744
G1 X8.51 Y-7.9 Z3.0 F800.0
G1 X8.51 Y-7.5 Z3.0 F960.0
G1 X8.51 Y-4.36 Z3.0 F960.0
G1 X7.12 Y-8.51 Z3.0 F960.0
G1 X-0.23 Y-8.51 Z3.0 F960.0
G1 X8.51 Y-3.44 Z3.0 F960.0
G1 X8.51 Y4.83 Z3.0 F960.0
G1 X-1.15 Y-8.51 Z3.0 F960.0
G1 X-8.51 Y-8.51 Z3.0 F960.0
G1 X-8.51 Y-3.91 Z3.0 F960.0
G1 X8.51 Y5.75 Z3.0 F960.0
G1 X8.51 Y8.51 Z3.0 F960.0
G1 X-0.68 Y8.51 Z3.0 F960.0
G1 X-8.51 Y-2.99 Z3.0 F960.0
G1 X-8.51 Y5.28 Z3.0 F960.0
G1 X-1.6 Y8.51 Z3.0 F960.0
G1 X-7.12 Y8.51 Z3.0 F960.0
G1 X-8.51 Y6.2 Z3.0 F960.0
G1 X-8.51 Y7.5 Z3.0 F960.0
M103
G1 X-8.51 Y8.04 Z3.0 F514.496
G1 X-8.04 Y8.51 Z3.0 F160.0
(</surroundingLoop>)
(</layer>)
(<layer> 3.393 )
(<surroundingLoop>)
(<boundaryPerimeter>)
(<boundaryPoint> X-10.0 Y-10.0 Z3.393 </boundaryPoint>)
(<boundaryPoint> X10.0 Y-10.0 Z3.393 </boundaryPoint>)
(<boundaryPoint> X10.0 Y10.0 Z3.393 </boundaryPoint>)
(<boundaryPoint> X-10.0 Y10.0 Z3.393 </boundaryPoint>)
(<loop> outer )
G1 X-8.63 Y8.98 Z3.37 F136.707
M101
G1 X-9.01 Y9.01 Z3.39 F435.2
G1 X-9.01 Y8.55 Z3.39 F800.0
G1 X-9.01 Y8.15 Z3.39 F960.0
G1 X-9.01 Y-9.01 Z3.39 F960.0
G1 X9.01 Y-9.01 Z3.39 F960.0
G1 X9.01 Y9.01 Z3.39 F960.0
G1 X-7.46 Y9.01 Z3.39 F960.0
M103
G1 X-8.04 Y9.01 Z3.39 F492.8
G1 X-8.66 Y9.01 Z3.39 F160.0
(</loop>)
(<perimeter> outer )
G1 X-8.66 Y9.61 Z3.39 F960.0
M101
G1 X-9.06 Y9.65 Z3.39 F480.0
G1 X-9.46 Y9.65 Z3.39 F800.0
G1 X-9.65 Y9.65 Z3.39 F949.6
G1 X-9.65 Y9.44 Z3.39 F960.0
G1 X-9.65 Y-9.65 Z3.39 F960.0
G1 X9.65 Y-9.65 Z3.39 F960.0
G1 X9.65 Y9.65 Z3.39 F960.0
G1 X-7.46 Y9.65 Z3.39 F960.0
M103
G1 X-8.04 Y9.65 Z3.39 F492.8
G1 X-8.66 Y9.65 Z3.39 F160.0
(</perimeter>)
(</boundaryPerimeter>)
G1 X7.82 Y8.1 Z3.39 F960.0
M101
G1 X8.51 Y8.04 Z3.39 F960.0
G1 X8.22 Y8.32 Z3.39 F480.0
G1 X8.04 Y8.51 Z3.39 F691.744
G1 X7.9 Y8.51 Z3.39 F800.0
G1 X7.5 Y8.51 Z3.39 F960.0
G1 X4.36 Y8.51 Z3.39 F960.0
G1 X8.51 Y7.12 Z3.39 F960.0
G1 X8.51 Y-0.23 Z3.39 F960.0
G1 X3.44 Y8.51 Z3.39 F960.0
G1 X-4.83 Y8.51 Z3.39 F960.0
G1 X8.51 Y-1.15 Z3.39 F960.0
G1 X8.51 Y-8.51 Z3.39 F960.0
G1 X3.91 Y-8.51 Z3.39 F960.0
G1 X-5.75 Y8.51 Z3.39 F960.0
G1 X-8.51 Y8.51 Z3.39 F960.0
G1 X-8.51 Y-0.68 Z3.39 F960.0
G1 X2.99 Y-8.51 Z3.39 F960.0
G1 X-5.28 Y-8.51 Z3.39 F960.0
G1 X-8.51 Y-1.6 Z3.39 F960.0
G1 X-8.51 Y-7.12 Z3.39 F960.0
G1 X-6.2 Y-8.51 Z3.39 F960.0
G1 X-7.5 Y-8.51 Z3.39 F960.0
M103
G1 X-8.04 Y-8.51 Z3.39 F514.496
G1 X-8.51 Y-8.04 Z3.39 F160.0
(</surroundingLoop>)
(</layer>)
(<layer> 3.783 )
(<surroundingLoop>)
(<boundaryPerimeter>)
(<boundaryPoint> X-10.0 Y-10.0 Z3.783 </boundaryPoint>)
(<boundaryPoint> X10.0 Y-10.0 Z3.783 </boundaryPoint>)
(<boundaryPoint> X10.0 Y10.0 Z3.783 </boundaryPoint>)
(<boundaryPoint> X-10.0 Y10.0 Z3.783 </boundaryPoint>)
(<loop> outer )
G1 X-9.01 Y-8.13 Z3.78 F98.23
M101
G1 X-9.01 Y-8.53 Z3.78 F480.0
G1 X-9.01 Y-8.93 Z3.78 F800.0
G1 X-9.01 Y-9.01 Z3.78 F864.8
G1 X-8.69 Y-9.01 Z3.78 F960.0
G1 X9.01 Y-9.01 Z3.78 F960.0
G1 X9.01 Y9.01 Z3.78 F960.0
G1 X-9.01 Y9.01 Z3.78 F960.0
G1 X-9.01 Y-6.92 Z3.78 F960.0
M103
G1 X-9.01 Y-7.53 Z3.78 F480.0
G1 X-9.01 Y-8.04 Z3.78 F206.4
G1 X-9.01 Y-8.13 Z3.78 F160.0
(</loop>)
(<perimeter> outer )
G1 X-9.61 Y-8.04 Z3.78 F960.0
M101
G1 X-9.65 Y-8.44 Z3.78 F480.0
G1 X-9.65 Y-8.84 Z3.78 F800.0
G1 X-9.65 Y-9.24 Z3.78 F960.0
G1 X-9.65 Y-9.65 Z3.78 F960.0
G1 X9.65 Y-9.65 Z3.78 F960.0
G1 X9.65 Y9.65 Z3.78 F960.0
G1 X-9.65 Y9.65 Z3.78 F960.0
G1 X-9.65 Y-6.84 Z3.78 F960.0
M103
G1 X-9.65 Y-7.44 Z3.78 F480.0
G1 X-9.65 Y-8.04 Z3.78 F160.0
(</perimeter>)
(</boundaryPerimeter>)
G1 X7.33 Y-8.49 Z3.78 F960.0
M101
G1 X8.04 Y-8.51 Z3.78 F960.0
G1 X8.32 Y-8.22 Z3.78 F480.0
G1 X8.51 Y-8.04 Z3.78 F691.744
G1 X8.51 Y-7.9 Z3.78 F800.0
G1 X8.51 Y-7.5 Z3.78 F960.0
G1 X8.51 Y-4.36 Z3.78 F960.0
G1 X7.12 Y-8.51 Z3.78 F960.0
G1 X-0.23 Y-8.51 Z3.78 F960.0
G1 X8.51 Y-3.44 Z3.78 F960.0
G1 X8.51 Y4.83 Z3.78 F960.0
G1 X-1.15 Y-8.51 Z3.78 F960.0
G1 X-8.51 Y-8.51 Z3.78 F960.0
G1 X-8.51 Y-3.91 Z3.78 F960.0
G1 X8.51 Y5.75 Z3.78 F960.0
G1 X8.51 Y8.51 Z3.78 F960.0
G1 X-0.68 Y8.51 Z3.78 F960.0
G1 X-8.51 Y-2.99 Z3.78 F960.0
G1 X-8.51 Y5.28 Z3.78 F960.0
G1 X-1.6 Y8.51 Z3.78 F960.0
G1 X-7.12 Y8.51 Z3.78 F960.0
G1 X-8.51 Y6.2 Z3.78 F960.0
G1 X-8.51 Y7.5 Z3.78 F960.0
M103
G1 X-8.51 Y8.04 Z3.78 F514.496
G1 X-8.04 Y8.51 Z3.78 F160.0
(</surroundingLoop>)
(</layer>)
(<layer> 4.173 )
(<surroundingLoop>)
(<boundaryPerimeter>)
(<boundaryPoint> X-10.0 Y-10.0 Z4.173 </boundaryPoint>)
(<boundaryPoint> X10.0 Y-10.0 Z4.173 </boundaryPoint>)
(<boundaryPoint> X10.0 Y10.0 Z4.173 </boundaryPoint>)
(<boundaryPoint> X-10.0 Y10.0 Z4.173 </boundaryPoint>)
(<loop> outer )
G1 X-7.62 Y8.98 Z4.15 F119.422
M101
G1 X-8.04 Y9.01 Z4.17 F519.2
G1 X-8.39 Y9.01 Z4.17 F800.0
G1 X-8.79 Y9.01 Z4.17 F960.0
G1 X-9.01 Y9.01 Z4.17 F960.0
G1 X-9.01 Y-9.01 Z4.17 F960.0
G1 X9.01 Y-9.01 Z4.17 F960.0
G1 X9.01 Y9.01 Z4.17 F960.0
G1 X-6.39 Y9.01 Z4.17 F960.0
M103
G1 X-6.99 Y9.01 Z4.17 F480.0
G1 X-7.59 Y9.01 Z4.17 F160.0
(</loop>)
(<perimeter> outer )
G1 X-7.59 Y9.61 Z4.17 F960.0
M101
G1 X-8.04 Y9.65 Z4.17 F519.2
G1 X-8.39 Y9.65 Z4.17 F800.0
G1 X-8.79 Y9.65 Z4.17 F960.0
G1 X-9.65 Y9.65 Z4.17 F960.0
G1 X-9.65 Y-9.65 Z4.17 F960.0
G1 X9.65 Y-9.65 Z4.17 F960.0
G1 X9.65 Y9.65 Z4.17 F960.0
G1 X-6.39 Y9.65 Z4.17 F960.0
M103
G1 X-6.99 Y9.65 Z4.17 F480.0
G1 X-7.59 Y9.65 Z4.17 F160.0
(</perimeter>)
(</boundaryPerimeter>)
G1 X7.85 Y8.1 Z4.17 F960.0
M101
G1 X8.51 Y8.04 Z4.17 F960.0
G1 X8.22 Y8.32 Z4.17 F480.0
G1 X8.04 Y8.51 Z4.17 F691.744
G1 X7.9 Y8.51 Z4.17 F800.0
G1 X7.5 Y8.51 Z4.17 F960.0
G1 X4.36 Y8.51 Z4.17 F960.0
G1 X8.51 Y7.12 Z4.17 F960.0
G1 X8.51 Y-0.23 Z4.17 F960.0
G1 X3.44 Y8.51 Z4.17 F960.0
G1 X-4.83 Y8.51 Z4.17 F960.0
G1 X8.51 Y-1.15 Z4.17 F960.0
G1 X8.51 Y-8.51 Z4.17 F960.0
G1 X3.91 Y-8.51 Z4.17 F960.0
G1 X-5.75 Y8.51 Z4.17 F960.0
G1 X-8.51 Y8.51 Z4.17 F960.0
G1 X-8.51 Y-0.68 Z4.17 F960.0
G1 X2.99 Y-8.51 Z4.17 F960.0
G1 X-5.28 Y-8.51 Z4.17 F960.0
G1 X-8.51 Y-1.6 Z4.17 F960.0
G1 X-8.51 Y-7.12 Z4.17 F960.0
G1 X-6.2 Y-8.51 Z4.17 F960.0
G1 X-7.5 Y-8.51 Z4.17 F960.0
M103
G1 X-8.04 Y-8.51 Z4.17 F514.496
G1 X-8.51 Y-8.04 Z4.17 F160.0
(</surroundingLoop>)
(</layer>)
(<layer> 4.563 )
(<surroundingLoop>)
(<boundaryPerimeter>)
(<boundaryPoint> X-10.0 Y-10.0 Z4.563 </boundaryPoint>)
(<boundaryPoint> X10.0 Y-10.0 Z4.563 </boundaryPoint>)
(<boundaryPoint> X10.0 Y10.0 Z4.563 </boundaryPoint>)
(<boundaryPoint> X-10.0 Y10.0 Z4.563 </boundaryPoint>)
(<loop> outer )
G1 X-8.98 Y-8.43 Z4.54 F116.741
M101
G1 X-9.01 Y-8.86 Z4.56 F480.0
G1 X-9.01 Y-9.01 Z4.56 F599.2
G1 X-8.76 Y-9.01 Z4.56 F800.0
G1 X-8.36 Y-9.01 Z4.56 F960.0
G1 X9.01 Y-9.01 Z4.56 F960.0
G1 X9.01 Y9.01 Z4.56 F960.0
G1 X-9.01 Y9.01 Z4.56 F960.0
G1 X-9.01 Y-7.26 Z4.56 F960.0
M103
G1 X-9.01 Y-7.86 Z4.56 F480.0
G1 X-9.01 Y-8.04 Z4.56 F383.467
G1 X-9.01 Y-8.46 Z4.56 F160.0
(</loop>)
(<perimeter> outer )
G1 X-9.61 Y-8.46 Z4.56 F960.0
M101
G1 X-9.65 Y-8.86 Z4.56 F480.0
G1 X-9.65 Y-9.26 Z4.56 F800.0
G1 X-9.65 Y-9.65 Z4.56 F960.0
G1 X9.65 Y-9.65 Z4.56 F960.0
G1 X9.65 Y9.65 Z4.56 F960.0
G1 X-9.65 Y9.65 Z4.56 F960.0
G1 X-9.65 Y-7.26 Z4.56 F960.0
M103
G1 X-9.65 Y-7.86 Z4.56 F480.0
G1 X-9.65 Y-8.04 Z4.56 F383.467
G1 X-9.65 Y-8.46 Z4.56 F160.0
(</perimeter>)
(</boundaryPerimeter>)
G1 X7.33 Y-8.51 Z4.56 F960.0
M101
G1 X8.04 Y-8.51 Z4.56 F960.0
G1 X8.32 Y-8.22 Z4.56 F480.0
G1 X8.51 Y-8.04 Z4.56 F691.744
G1 X8.51 Y-7.9 Z4.56 F800.0
G1 X8.51 Y-7.5 Z4.56 F960.0
G1 X8.51 Y-4.36 Z4.56 F960.0
G1 X7.12 Y-8.51 Z4.56 F960.0
G1 X-0.23 Y-8.51 Z4.56 F960.0
G1 X8.51 Y-3.44 Z4.56 F960.0
G1 X8.51 Y4.83 Z4.56 F960.0
G1 X-1.15 Y-8.51 Z4.56 F960.0
G1 X-8.51 Y-8.51 Z4.56 F960.0
G1 X-8.51 Y-3.91 Z4.56 F960.0
G1 X8.51 Y5.75 Z4.56 F960.0
G1 X8.51 Y8.51 Z4.56 F960.0
G1 X-0.68 Y8.51 Z4.56 F960.0
G1 X-8.51 Y-2.99 Z4.56 F960.0
G1 X-8.51 Y5.28 Z4.56 F960.0
G1 X-1.6 Y8.51 Z4.56 F960.0
G1 X-7.12 Y8.51 Z4.56 F960.0
G1 X-8.51 Y6.2 Z4.56 F960.0
G1 X-8.51 Y7.5 Z4.56 F960.0
M103
G1 X-8.51 Y8.04 Z4.56 F514.496
G1 X-8.04 Y8.51 Z4.56 F160.0
(</surroundingLoop>)
(</layer>)
(<layer> 4.953 )
(<surroundingLoop>)
(<boundaryPerimeter>)
(<boundaryPoint> X-10.0 Y-10.0 Z4.953 </boundaryPoint>)
(<boundaryPoint> X10.0 Y-10.0 Z4.953 </boundaryPoint>)
(<boundaryPoint> X10.0 Y10.0 Z4.953 </boundaryPoint>)
(<boundaryPoint> X-10.0 Y10.0 Z4.953 </boundaryPoint>)
(<loop> outer )
G1 X-7.92 Y9.01 Z4.95 F98.964
M101
G1 X-8.04 Y9.01 Z4.95 F253.6
G1 X-8.32 Y9.01 Z4.95 F480.0
G1 X-8.72 Y9.01 Z4.95 F800.0
G1 X-9.01 Y9.01 Z4.95 F960.0
G1 X-9.01 Y8.89 Z4.95 F960.0
G1 X-9.01 Y-9.01 Z4.95 F960.0
G1 X9.01 Y-9.01 Z4.95 F960.0
G1 X9.01 Y9.01 Z4.95 F960.0
G1 X-6.72 Y9.01 Z4.95 F960.0
M103
G1 X-7.32 Y9.01 Z4.95 F480.0
G1 X-7.92 Y9.01 Z4.95 F160.0
(</loop>)
(<perimeter> outer )
G1 X-8.03 Y9.61 Z4.95 F960.0
M101
G1 X-8.44 Y9.65 Z4.95 F480.0
G1 X-8.84 Y9.65 Z4.95 F800.0
G1 X-9.24 Y9.65 Z4.95 F960.0
G1 X-9.65 Y9.65 Z4.95 F960.0
G1 X-9.65 Y-9.65 Z4.95 F960.0
G1 X9.65 Y-9.65 Z4.95 F960.0
G1 X9.65 Y9.65 Z4.95 F960.0
G1 X-6.84 Y9.65 Z4.95 F960.0
M103
G1 X-7.44 Y9.65 Z4.95 F480.0
G1 X-8.04 Y9.65 Z4.95 F160.0
(</perimeter>)
(</boundaryPerimeter>)
G1 X7.83 Y8.1 Z4.95 F960.0
M101
G1 X8.51 Y8.04 Z4.95 F960.0
G1 X8.22 Y8.32 Z4.95 F480.0
G1 X8.04 Y8.51 Z4.95 F691.744
G1 X7.9 Y8.51 Z4.95 F800.0
G1 X7.5 Y8.51 Z4.95 F960.0
G1 X4.36 Y8.51 Z4.95 F960.0
G1 X8.51 Y7.12 Z4.95 F960.0
G1 X8.51 Y-0.23 Z4.95 F960.0
G1 X3.44 Y8.51 Z4.95 F960.0
G1 X-4.83 Y8.51 Z4.95 F960.0
G1 X8.51 Y-1.15 Z4.95 F960.0
G1 X8.51 Y-8.51 Z4.95 F960.0
G1 X3.91 Y-8.51 Z4.95 F960.0
G1 X-5.75 Y8.51 Z4.95 F960.0
G1 X-8.51 Y8.51 Z4.95 F960.0
G1 X-8.51 Y-0.68 Z4.95 F960.0
G1 X2.99 Y-8.51 Z4.95 F960.0
G1 X-5.28 Y-8.51 Z4.95 F960.0
G1 X-8.51 Y-1.6 Z4.95 F960.0
G1 X-8.51 Y-7.12 Z4.95 F960.0
G1 X-6.2 Y-8.51 Z4.95 F960.0
G1 X-7.5 Y-8.51 Z4.95 F960.0
M103
G1 X-8.04 Y-8.51 Z4.95 F514.496
G1 X-8.51 Y-8.04 Z4.95 F160.0
(</surroundingLoop>)
(</layer>)
(<layer> 5.343 )
(<surroundingLoop>)
(<boundaryPerimeter>)
(<boundaryPoint> X-10.0 Y-10.0 Z5.343 </boundaryPoint>)
(<boundaryPoint> X10.0 Y-10.0 Z5.343 </boundaryPoint>)
(<boundaryPoint> X10.0 Y10.0 Z5.343 </boundaryPoint>)
(<boundaryPoint> X-10.0 Y10.0 Z5.343 </boundaryPoint>)
(<loop> outer )
G1 X-8.98 Y-7.42 Z5.32 F140.076
M101
G1 X-9.01 Y-7.78 Z5.34 F480.0
G1 X-9.01 Y-8.04 Z5.34 F683.2
G1 X-9.01 Y-8.18 Z5.34 F800.0
G1 X-9.01 Y-8.58 Z5.34 F960.0
G1 X-9.01 Y-9.01 Z5.34 F960.0
G1 X9.01 Y-9.01 Z5.34 F960.0
G1 X9.01 Y9.01 Z5.34 F960.0
G1 X-9.01 Y9.01 Z5.34 F960.0
G1 X-9.01 Y-6.18 Z5.34 F960.0
M103
G1 X-9.01 Y-6.78 Z5.34 F480.0
G1 X-9.01 Y-7.38 Z5.34 F160.0
(</loop>)
(<perimeter> outer )
G1 X-9.61 Y-7.38 Z5.34 F960.0
M101
G1 X-9.65 Y-7.78 Z5.34 F480.0
G1 X-9.65 Y-8.04 Z5.34 F683.2
G1 X-9.65 Y-8.18 Z5.34 F800.0
G1 X-9.65 Y-8.58 Z5.34 F960.0
G1 X-9.65 Y-9.65 Z5.34 F960.0
G1 X9.65 Y-9.65 Z5.34 F960.0
G1 X9.65 Y9.65 Z5.34 F960.0
G1 X-9.65 Y9.65 Z5.34 F960.0
G1 X-9.65 Y-6.18 Z5.34 F960.0
M103
G1 X-9.65 Y-6.78 Z5.34 F480.0
G1 X-9.65 Y-7.38 Z5.34 F160.0
(</perimeter>)
(</boundaryPerimeter>)
G1 X7.33 Y-8.46 Z5.34 F960.0
M101
G1 X8.04 Y-8.51 Z5.34 F960.0
G1 X8.32 Y-8.22 Z5.34 F480.0
G1 X8.51 Y-8.04 Z5.34 F691.744
G1 X8.51 Y-7.9 Z5.34 F800.0
G1 X8.51 Y-7.5 Z5.34 F960.0
G1 X8.51 Y-4.36 Z5.34 F960.0
G1 X7.12 Y-8.51 Z5.34 F960.0
G1 X-0.23 Y-8.51 Z5.34 F960.0
G1 X8.51 Y-3.44 Z5.34 F960.0
G1 X8.51 Y4.83 Z5.34 F960.0
G1 X-1.15 Y-8.51 Z5.34 F960.0
G1 X-8.51 Y-8.51 Z5.34 F960.0
G1 X-8.51 Y-3.91 Z5.34 F960.0
G1 X8.51 Y5.75 Z5.34 F960.0
G1 X8.51 Y8.51 Z5.34 F960.0
G1 X-0.68 Y8.51 Z5.34 F960.0
G1 X-8.51 Y-2.99 Z5.34 F960.0
G1 X-8.51 Y5.28 Z5.34 F960.0
G1 X-1.6 Y8.51 Z5.34 F960.0
G1 X-7.12 Y8.51 Z5.34 F960.0
G1 X-8.51 Y6.2 Z5.34 F960.0
G1 X-8.51 Y7.5 Z5.34 F960.0
M103
G1 X-8.51 Y8.04 Z5.34 F514.496
G1 X-8.04 Y8.51 Z5.34 F160.0
(</surroundingLoop>)
(</layer>)
(<layer> 5.733 )
(<surroundingLoop>)
(<boundaryPerimeter>)
(<boundaryPoint> X-10.0 Y-10.0 Z5.733 </boundaryPoint>)
(<boundaryPoint> X10.0 Y-10.0 Z5.733 </boundaryPoint>)
(<boundaryPoint> X10.0 Y10.0 Z5.733 </boundaryPoint>)
(<boundaryPoint> X-10.0 Y10.0 Z5.733 </boundaryPoint>)
(<loop> outer )
G1 X-8.25 Y9.01 Z5.73 F102.732
M101
G1 X-8.65 Y9.01 Z5.73 F480.0
G1 X-9.01 Y9.01 Z5.73 F763.2
G1 X-9.01 Y8.56 Z5.73 F960.0
G1 X-9.01 Y-9.01 Z5.73 F960.0
G1 X9.01 Y-9.01 Z5.73 F960.0
G1 X9.01 Y9.01 Z5.73 F960.0
G1 X-7.05 Y9.01 Z5.73 F960.0
M103
G1 X-7.65 Y9.01 Z5.73 F480.0
G1 X-8.04 Y9.01 Z5.73 F274.133
G1 X-8.25 Y9.01 Z5.73 F160.0
(</loop>)
(<perimeter> outer )
G1 X-8.05 Y9.61 Z5.73 F960.0
M101
G1 X-8.44 Y9.65 Z5.73 F480.0
G1 X-8.84 Y9.65 Z5.73 F800.0
G1 X-9.24 Y9.65 Z5.73 F960.0
G1 X-9.65 Y9.65 Z5.73 F960.0
G1 X-9.65 Y-9.65 Z5.73 F960.0
G1 X9.65 Y-9.65 Z5.73 F960.0
G1 X9.65 Y9.65 Z5.73 F960.0
G1 X-6.84 Y9.65 Z5.73 F960.0
M103
G1 X-7.44 Y9.65 Z5.73 F480.0
G1 X-8.04 Y9.65 Z5.73 F160.0
(</perimeter>)
(</boundaryPerimeter>)
G1 X7.83 Y8.1 Z5.73 F960.0
M101
G1 X8.51 Y8.04 Z5.73 F960.0
G1 X8.22 Y8.32 Z5.73 F480.0
G1 X8.04 Y8.51 Z5.73 F691.744
G1 X7.9 Y8.51 Z5.73 F800.0
G1 X7.5 Y8.51 Z5.73 F960.0
G1 X4.36 Y8.51 Z5.73 F960.0
G1 X8.51 Y7.12 Z5.73 F960.0
G1 X8.51 Y-0.23 Z5.73 F960.0
G1 X3.44 Y8.51 Z5.73 F960.0
G1 X-4.83 Y8.51 Z5.73 F960.0
G1 X8.51 Y-1.15 Z5.73 F960.0
G1 X8.51 Y-8.51 Z5.73 F960.0
G1 X3.91 Y-8.51 Z5.73 F960.0
G1 X-5.75 Y8.51 Z5.73 F960.0
G1 X-8.51 Y8.51 Z5.73 F960.0
G1 X-8.51 Y-0.68 Z5.73 F960.0
G1 X2.99 Y-8.51 Z5.73 F960.0
G1 X-5.28 Y-8.51 Z5.73 F960.0
G1 X-8.51 Y-1.6 Z5.73 F960.0
G1 X-8.51 Y-7.12 Z5.73 F960.0
G1 X-6.2 Y-8.51 Z5.73 F960.0
G1 X-7.5 Y-8.51 Z5.73 F960.0
M103
G1 X-8.04 Y-8.51 Z5.73 F514.496
G1 X-8.51 Y-8.04 Z5.73 F160.0
(</surroundingLoop>)
(</layer>)
(<layer> 6.123 )
(<surroundingLoop>)
(<boundaryPerimeter>)
(<boundaryPoint> X-10.0 Y-10.0 Z6.123 </boundaryPoint>)
(<boundaryPoint> X10.0 Y-10.0 Z6.123 </boundaryPoint>)
(<boundaryPoint> X10.0 Y10.0 Z6.123 </boundaryPoint>)
(<boundaryPoint> X-10.0 Y10.0 Z6.123 </boundaryPoint>)
(<loop> outer )
G1 X-8.98 Y-7.74 Z6.1 F109.239
M101
G1 X-9.01 Y-8.04 Z6.12 F417.6
G1 X-9.01 Y-8.12 Z6.12 F480.0
G1 X-9.01 Y-8.52 Z6.12 F800.0
G1 X-9.01 Y-8.92 Z6.12 F960.0
G1 X-9.01 Y-9.01 Z6.12 F960.0
G1 X9.01 Y-9.01 Z6.12 F960.0
G1 X9.01 Y9.01 Z6.12 F960.0
G1 X-9.01 Y9.01 Z6.12 F960.0
G1 X-9.01 Y-6.52 Z6.12 F960.0
M103
G1 X-9.01 Y-7.12 Z6.12 F480.0
G1 X-9.01 Y-7.72 Z6.12 F160.0
(</loop>)
(<perimeter> outer )
G1 X-9.61 Y-8.02 Z6.12 F960.0
M101
G1 X-9.65 Y-8.44 Z6.12 F480.0
G1 X-9.65 Y-8.84 Z6.12 F800.0
G1 X-9.65 Y-9.24 Z6.12 F960.0
G1 X-9.65 Y-9.65 Z6.12 F960.0
G1 X9.65 Y-9.65 Z6.12 F960.0
G1 X9.65 Y9.65 Z6.12 F960.0
G1 X-9.65 Y9.65 Z6.12 F960.0
G1 X-9.65 Y-6.84 Z6.12 F960.0
M103
G1 X-9.65 Y-7.44 Z6.12 F480.0
G1 X-9.65 Y-8.04 Z6.12 F160.0
(</perimeter>)
(</boundaryPerimeter>)
G1 X7.33 Y-8.49 Z6.12 F960.0
M101
G1 X8.04 Y-8.51 Z6.12 F960.0
G1 X8.32 Y-8.22 Z6.12 F480.0
G1 X8.51 Y-8.04 Z6.12 F691.744
G1 X8.51 Y-7.9 Z6.12 F800.0
G1 X8.51 Y-7.5 Z6.12 F960.0
G1 X8.51 Y-4.36 Z6.12 F960.0
G1 X7.12 Y-8.51 Z6.12 F960.0
G1 X-0.23 Y-8.51 Z6.12 F960.0
G1 X8.51 Y-3.44 Z6.12 F960.0
G1 X8.51 Y4.83 Z6.12 F960.0
G1 X-1.15 Y-8.51 Z6.12 F960.0
G1 X-8.51 Y-8.51 Z6.12 F960.0
G1 X-8.51 Y-3.91 Z6.12 F960.0
G1 X8.51 Y5.75 Z6.12 F960.0
G1 X8.51 Y8.51 Z6.12 F960.0
G1 X-0.68 Y8.51 Z6.12 F960.0
G1 X-8.51 Y-2.99 Z6.12 F960.0
G1 X-8.51 Y5.28 Z6.12 F960.0
G1 X-1.6 Y8.51 Z6.12 F960.0
G1 X-7.12 Y8.51 Z6.12 F960.0
G1 X-8.51 Y6.2 Z6.12 F960.0
G1 X-8.51 Y7.5 Z6.12 F960.0
M103
G1 X-8.51 Y8.04 Z6.12 F514.496
G1 X-8.04 Y8.51 Z6.12 F160.0
(</surroundingLoop>)
(</layer>)
(<layer> 6.513 )
(<surroundingLoop>)
(<boundaryPerimeter>)
(<boundaryPoint> X-10.0 Y-10.0 Z6.513 </boundaryPoint>)
(<boundaryPoint> X10.0 Y-10.0 Z6.513 </boundaryPoint>)
(<boundaryPoint> X10.0 Y10.0 Z6.513 </boundaryPoint>)
(<boundaryPoint> X-10.0 Y10.0 Z6.513 </boundaryPoint>)
(<loop> outer )
G1 X-8.55 Y8.98 Z6.49 F128.611
M101
G1 X-9.01 Y9.01 Z6.51 F497.6
G1 X-9.01 Y8.63 Z6.51 F800.0
G1 X-9.01 Y8.23 Z6.51 F960.0
G1 X-9.01 Y-9.01 Z6.51 F960.0
G1 X9.01 Y-9.01 Z6.51 F960.0
G1 X9.01 Y9.01 Z6.51 F960.0
G1 X-7.38 Y9.01 Z6.51 F960.0
M103
G1 X-8.04 Y9.01 Z6.51 F480.0
G1 X-8.58 Y9.01 Z6.51 F160.0
(</loop>)
(<perimeter> outer )
G1 X-8.58 Y9.61 Z6.51 F960.0
M101
G1 X-8.98 Y9.65 Z6.51 F480.0
G1 X-9.38 Y9.65 Z6.51 F800.0
G1 X-9.65 Y9.65 Z6.51 F960.0
G1 X-9.65 Y9.51 Z6.51 F960.0
G1 X-9.65 Y-9.65 Z6.51 F960.0
G1 X9.65 Y-9.65 Z6.51 F960.0
G1 X9.65 Y9.65 Z6.51 F960.0
G1 X-7.38 Y9.65 Z6.51 F960.0
M103
G1 X-8.04 Y9.65 Z6.51 F480.0
G1 X-8.58 Y9.65 Z6.51 F160.0
(</perimeter>)
(</boundaryPerimeter>)
G1 X7.82 Y8.1 Z6.51 F960.0
M101
G1 X8.51 Y8.04 Z6.51 F960.0
G1 X8.22 Y8.32 Z6.51 F480.0
G1 X8.04 Y8.51 Z6.51 F691.744
G1 X7.9 Y8.51 Z6.51 F800.0
G1 X7.5 Y8.51 Z6.51 F960.0
G1 X4.36 Y8.51 Z6.51 F960.0
G1 X8.51 Y7.12 Z6.51 F960.0
G1 X8.51 Y-0.23 Z6.51 F960.0
G1 X3.44 Y8.51 Z6.51 F960.0
G1 X-4.83 Y8.51 Z6.51 F960.0
G1 X8.51 Y-1.15 Z6.51 F960.0
G1 X8.51 Y-8.51 Z6.51 F960.0
G1 X3.91 Y-8.51 Z6.51 F960.0
G1 X-5.75 Y8.51 Z6.51 F960.0
G1 X-8.51 Y8.51 Z6.51 F960.0
G1 X-8.51 Y-0.68 Z6.51 F960.0
G1 X2.99 Y-8.51 Z6.51 F960.0
G1 X-5.28 Y-8.51 Z6.51 F960.0
G1 X-8.51 Y-1.6 Z6.51 F960.0
G1 X-8.51 Y-7.12 Z6.51 F960.0
G1 X-6.2 Y-8.51 Z6.51 F960.0
G1 X-7.5 Y-8.51 Z6.51 F960.0
M103
G1 X-8.04 Y-8.51 Z6.51 F514.496
G1 X-8.51 Y-8.04 Z6.51 F160.0
(</surroundingLoop>)
(</layer>)
(<layer> 6.903 )
(<surroundingLoop>)
(<boundaryPerimeter>)
(<boundaryPoint> X-10.0 Y-10.0 Z6.903 </boundaryPoint>)
(<boundaryPoint> X10.0 Y-10.0 Z6.903 </boundaryPoint>)
(<boundaryPoint> X10.0 Y10.0 Z6.903 </boundaryPoint>)
(<boundaryPoint> X-10.0 Y10.0 Z6.903 </boundaryPoint>)
(<loop> outer )
G1 X-9.01 Y-8.05 Z6.9 F97.323
M101
G1 X-9.01 Y-8.45 Z6.9 F480.0
G1 X-9.01 Y-8.85 Z6.9 F800.0
G1 X-9.01 Y-9.01 Z6.9 F927.2
G1 X-8.77 Y-9.01 Z6.9 F960.0
G1 X9.01 Y-9.01 Z6.9 F960.0
G1 X9.01 Y9.01 Z6.9 F960.0
G1 X-9.01 Y9.01 Z6.9 F960.0
G1 X-9.01 Y-6.85 Z6.9 F960.0
M103
G1 X-9.01 Y-7.45 Z6.9 F480.0
G1 X-9.01 Y-8.04 Z6.9 F164.8
(</loop>)
(<perimeter> outer )
G1 X-9.61 Y-8.04 Z6.9 F960.0
M101
G1 X-9.65 Y-8.44 Z6.9 F480.0
G1 X-9.65 Y-8.84 Z6.9 F800.0
G1 X-9.65 Y-9.24 Z6.9 F960.0
G1 X-9.65 Y-9.65 Z6.9 F960.0
G1 X9.65 Y-9.65 Z6.9 F960.0
G1 X9.65 Y9.65 Z6.9 F960.0
G1 X-9.65 Y9.65 Z6.9 F960.0
G1 X-9.65 Y-6.84 Z6.9 F960.0
M103
G1 X-9.65 Y-7.44 Z6.9 F480.0
G1 X-9.65 Y-8.04 Z6.9 F160.0
(</perimeter>)
(</boundaryPerimeter>)
G1 X7.33 Y-8.49 Z6.9 F960.0
M101
G1 X8.04 Y-8.51 Z6.9 F960.0
G1 X8.32 Y-8.22 Z6.9 F480.0
G1 X8.51 Y-8.04 Z6.9 F691.744
G1 X8.51 Y-7.9 Z6.9 F800.0
G1 X8.51 Y-7.5 Z6.9 F960.0
G1 X8.51 Y-4.36 Z6.9 F960.0
G1 X7.12 Y-8.51 Z6.9 F960.0
G1 X-0.23 Y-8.51 Z6.9 F960.0
G1 X8.51 Y-3.44 Z6.9 F960.0
G1 X8.51 Y4.83 Z6.9 F960.0
G1 X-1.15 Y-8.51 Z6.9 F960.0
G1 X-8.51 Y-8.51 Z6.9 F960.0
G1 X-8.51 Y-3.91 Z6.9 F960.0
G1 X8.51 Y5.75 Z6.9 F960.0
G1 X8.51 Y8.51 Z6.9 F960.0
G1 X-0.68 Y8.51 Z6.9 F960.0
G1 X-8.51 Y-2.99 Z6.9 F960.0
G1 X-8.51 Y5.28 Z6.9 F960.0
G1 X-1.6 Y8.51 Z6.9 F960.0
G1 X-7.12 Y8.51 Z6.9 F960.0
G1 X-8.51 Y6.2 Z6.9 F960.0
G1 X-8.51 Y7.5 Z6.9 F960.0
M103
G1 X-8.51 Y8.04 Z6.9 F514.496
G1 X-8.04 Y8.51 Z6.9 F160.0
(</surroundingLoop>)
(</layer>)
(<layer> 7.293 )
(<surroundingLoop>)
(<boundaryPerimeter>)
(<boundaryPoint> X-10.0 Y-10.0 Z7.293 </boundaryPoint>)
(<boundaryPoint> X10.0 Y-10.0 Z7.293 </boundaryPoint>)
(<boundaryPoint> X10.0 Y10.0 Z7.293 </boundaryPoint>)
(<boundaryPoint> X-10.0 Y10.0 Z7.293 </boundaryPoint>)
(<loop> outer )
G1 X-7.54 Y8.98 Z7.27 F126.707
M101
G1 X-7.91 Y9.01 Z7.29 F480.0
G1 X-8.04 Y9.01 Z7.29 F581.6
G1 X-8.31 Y9.01 Z7.29 F800.0
G1 X-8.71 Y9.01 Z7.29 F960.0
G1 X-9.01 Y9.01 Z7.29 F960.0
G1 X-9.01 Y-9.01 Z7.29 F960.0
G1 X9.01 Y-9.01 Z7.29 F960.0
G1 X9.01 Y9.01 Z7.29 F960.0
G1 X-6.31 Y9.01 Z7.29 F960.0
M103
G1 X-6.91 Y9.01 Z7.29 F480.0
G1 X-7.51 Y9.01 Z7.29 F160.0
(</loop>)
(<perimeter> outer )
G1 X-7.51 Y9.61 Z7.29 F960.0
M101
G1 X-7.91 Y9.65 Z7.29 F480.0
G1 X-8.04 Y9.65 Z7.29 F581.6
G1 X-8.31 Y9.65 Z7.29 F800.0
G1 X-8.71 Y9.65 Z7.29 F960.0
G1 X-9.65 Y9.65 Z7.29 F960.0
G1 X-9.65 Y-9.65 Z7.29 F960.0
G1 X9.65 Y-9.65 Z7.29 F960.0
G1 X9.65 Y9.65 Z7.29 F960.0
G1 X-6.31 Y9.65 Z7.29 F960.0
M103
G1 X-6.91 Y9.65 Z7.29 F480.0
G1 X-7.51 Y9.65 Z7.29 F160.0
(</perimeter>)
(</boundaryPerimeter>)
G1 X7.85 Y8.1 Z7.29 F960.0
M101
G1 X8.51 Y8.04 Z7.29 F960.0
G1 X8.22 Y8.32 Z7.29 F480.0
G1 X8.04 Y8.51 Z7.29 F691.744
G1 X7.9 Y8.51 Z7.29 F800.0
G1 X7.5 Y8.51 Z7.29 F960.0
G1 X4.36 Y8.51 Z7.29 F960.0
G1 X8.51 Y7.12 Z7.29 F960.0
G1 X8.51 Y-0.23 Z7.29 F960.0
G1 X3.44 Y8.51 Z7.29 F960.0
G1 X-4.83 Y8.51 Z7.29 F960.0
G1 X8.51 Y-1.15 Z7.29 F960.0
G1 X8.51 Y-8.51 Z7.29 F960.0
G1 X3.91 Y-8.51 Z7.29 F960.0
G1 X-5.75 Y8.51 Z7.29 F960.0
G1 X-8.51 Y8.51 Z7.29 F960.0
G1 X-8.51 Y-0.68 Z7.29 F960.0
G1 X2.99 Y-8.51 Z7.29 F960.0
G1 X-5.28 Y-8.51 Z7.29 F960.0
G1 X-8.51 Y-1.6 Z7.29 F960.0
G1 X-8.51 Y-7.12 Z7.29 F960.0
G1 X-6.2 Y-8.51 Z7.29 F960.0
G1 X-7.5 Y-8.51 Z7.29 F960.0
M103
G1 X-8.04 Y-8.51 Z7.29 F514.496
G1 X-8.51 Y-8.04 Z7.29 F160.0
(</surroundingLoop>)
(</layer>)
(<layer> 7.683 )
(<surroundingLoop>)
(<boundaryPerimeter>)
(<boundaryPoint> X-10.0 Y-10.0 Z7.683 </boundaryPoint>)
(<boundaryPoint> X10.0 Y-10.0 Z7.683 </boundaryPoint>)
(<boundaryPoint> X10.0 Y10.0 Z7.683 </boundaryPoint>)
(<boundaryPoint> X-10.0 Y10.0 Z7.683 </boundaryPoint>)
(<loop> outer )
G1 X-8.98 Y-8.36 Z7.66 F110.604
M101
G1 X-9.01 Y-8.78 Z7.68 F480.0
G1 X-9.01 Y-9.01 Z7.68 F661.6
G1 X-8.83 Y-9.01 Z7.68 F800.0
G1 X-8.43 Y-9.01 Z7.68 F960.0
G1 X9.01 Y-9.01 Z7.68 F960.0
G1 X9.01 Y9.01 Z7.68 F960.0
G1 X-9.01 Y9.01 Z7.68 F960.0
G1 X-9.01 Y-7.18 Z7.68 F960.0
M103
G1 X-9.01 Y-7.78 Z7.68 F480.0
G1 X-9.01 Y-8.04 Z7.68 F341.867
G1 X-9.01 Y-8.38 Z7.68 F160.0
(</loop>)
(<perimeter> outer )
G1 X-9.61 Y-8.06 Z7.68 F960.0
M101
G1 X-9.65 Y-8.44 Z7.68 F480.0
G1 X-9.65 Y-8.84 Z7.68 F800.0
G1 X-9.65 Y-9.24 Z7.68 F960.0
G1 X-9.65 Y-9.65 Z7.68 F960.0
G1 X9.65 Y-9.65 Z7.68 F960.0
G1 X9.65 Y9.65 Z7.68 F960.0
G1 X-9.65 Y9.65 Z7.68 F960.0
G1 X-9.65 Y-6.84 Z7.68 F960.0
M103
G1 X-9.65 Y-7.44 Z7.68 F480.0
G1 X-9.65 Y-8.04 Z7.68 F160.0
(</perimeter>)
(</boundaryPerimeter>)
G1 X7.33 Y-8.49 Z7.68 F960.0
M101
G1 X8.04 Y-8.51 Z7.68 F960.0
G1 X8.32 Y-8.22 Z7.68 F480.0
G1 X8.51 Y-8.04 Z7.68 F691.744
G1 X8.51 Y-7.9 Z7.68 F800.0
G1 X8.51 Y-7.5 Z7.68 F960.0
G1 X8.51 Y-4.36 Z7.68 F960.0
G1 X7.12 Y-8.51 Z7.68 F960.0
G1 X-0.23 Y-8.51 Z7.68 F960.0
G1 X8.51 Y-3.44 Z7.68 F960.0
G1 X8.51 Y4.83 Z7.68 F960.0
G1 X-1.15 Y-8.51 Z7.68 F960.0
G1 X-8.51 Y-8.51 Z7.68 F960.0
G1 X-8.51 Y-3.91 Z7.68 F960.0
G1 X8.51 Y5.75 Z7.68 F960.0
G1 X8.51 Y8.51 Z7.68 F960.0
G1 X-0.68 Y8.51 Z7.68 F960.0
G1 X-8.51 Y-2.99 Z7.68 F960.0
G1 X-8.51 Y5.28 Z7.68 F960.0
G1 X-1.6 Y8.51 Z7.68 F960.0
G1 X-7.12 Y8.51 Z7.68 F960.0
G1 X-8.51 Y6.2 Z7.68 F960.0
G1 X-8.51 Y7.5 Z7.68 F960.0
M103
G1 X-8.51 Y8.04 Z7.68 F514.496
G1 X-8.04 Y8.51 Z7.68 F160.0
(</surroundingLoop>)
(</layer>)
(<layer> 8.073 )
(<surroundingLoop>)
(<boundaryPerimeter>)
(<boundaryPoint> X-10.0 Y-10.0 Z8.073 </boundaryPoint>)
(<boundaryPoint> X10.0 Y-10.0 Z8.073 </boundaryPoint>)
(<boundaryPoint> X10.0 Y10.0 Z8.073 </boundaryPoint>)
(<boundaryPoint> X-10.0 Y10.0 Z8.073 </boundaryPoint>)
(<loop> outer )
G1 X-7.84 Y9.01 Z8.07 F101.878
M101
G1 X-8.04 Y9.01 Z8.07 F316.8
G1 X-8.24 Y9.01 Z8.07 F480.0
G1 X-8.64 Y9.01 Z8.07 F800.0
G1 X-9.01 Y9.01 Z8.07 F960.0
G1 X-9.01 Y-9.01 Z8.07 F960.0
G1 X9.01 Y-9.01 Z8.07 F960.0
G1 X9.01 Y9.01 Z8.07 F960.0
G1 X-6.64 Y9.01 Z8.07 F960.0
M103
G1 X-7.24 Y9.01 Z8.07 F480.0
G1 X-7.84 Y9.01 Z8.07 F160.0
(</loop>)
(<perimeter> outer )
G1 X-8.03 Y9.61 Z8.07 F960.0
M101
G1 X-8.44 Y9.65 Z8.07 F480.0
G1 X-8.84 Y9.65 Z8.07 F800.0
G1 X-9.24 Y9.65 Z8.07 F960.0
G1 X-9.65 Y9.65 Z8.07 F960.0
G1 X-9.65 Y-9.65 Z8.07 F960.0
G1 X9.65 Y-9.65 Z8.07 F960.0
G1 X9.65 Y9.65 Z8.07 F960.0
G1 X-6.84 Y9.65 Z8.07 F960.0
M103
G1 X-7.44 Y9.65 Z8.07 F480.0
G1 X-8.04 Y9.65 Z8.07 F160.0
(</perimeter>)
(</boundaryPerimeter>)
G1 X7.83 Y8.1 Z8.07 F960.0
M101
G1 X8.51 Y8.04 Z8.07 F960.0
G1 X8.22 Y8.32 Z8.07 F480.0
G1 X8.04 Y8.51 Z8.07 F691.744
G1 X7.9 Y8.51 Z8.07 F800.0
G1 X7.5 Y8.51 Z8.07 F960.0
G1 X4.36 Y8.51 Z8.07 F960.0
G1 X8.51 Y7.12 Z8.07 F960.0
G1 X8.51 Y-0.23 Z8.07 F960.0
G1 X3.44 Y8.51 Z8.07 F960.0
G1 X-4.83 Y8.51 Z8.07 F960.0
G1 X8.51 Y-1.15 Z8.07 F960.0
G1 X8.51 Y-8.51 Z8.07 F960.0
G1 X3.91 Y-8.51 Z8.07 F960.0
G1 X-5.75 Y8.51 Z8.07 F960.0
G1 X-8.51 Y8.51 Z8.07 F960.0
G1 X-8.51 Y-0.68 Z8.07 F960.0
G1 X2.99 Y-8.51 Z8.07 F960.0
G1 X-5.28 Y-8.51 Z8.07 F960.0
G1 X-8.51 Y-1.6 Z8.07 F960.0
G1 X-8.51 Y-7.12 Z8.07 F960.0
G1 X-6.2 Y-8.51 Z8.07 F960.0
G1 X-7.5 Y-8.51 Z8.07 F960.0
M103
G1 X-8.04 Y-8.51 Z8.07 F514.496
G1 X-8.51 Y-8.04 Z8.07 F160.0
(</surroundingLoop>)
(</layer>)
(<layer> 8.463 )
(<surroundingLoop>)
(<boundaryPerimeter>)
(<boundaryPoint> X-10.0 Y-10.0 Z8.463 </boundaryPoint>)
(<boundaryPoint> X10.0 Y-10.0 Z8.463 </boundaryPoint>)
(<boundaryPoint> X10.0 Y10.0 Z8.463 </boundaryPoint>)
(<boundaryPoint> X-10.0 Y10.0 Z8.463 </boundaryPoint>)
(<loop> outer )
G1 X-8.98 Y-8.67 Z8.44 F142.088
M101
G1 X-9.01 Y-9.01 Z8.46 F396.8
G1 X-8.9 Y-9.01 Z8.46 F480.0
G1 X-8.5 Y-9.01 Z8.46 F800.0
G1 X-8.1 Y-9.01 Z8.46 F960.0
G1 X9.01 Y-9.01 Z8.46 F960.0
G1 X9.01 Y9.01 Z8.46 F960.0
G1 X-9.01 Y9.01 Z8.46 F960.0
G1 X-9.01 Y-7.51 Z8.46 F960.0
M103
G1 X-9.01 Y-8.04 Z8.46 F518.4
G1 X-9.01 Y-8.11 Z8.46 F480.0
G1 X-9.01 Y-8.71 Z8.46 F160.0
(</loop>)
(<perimeter> outer )
G1 X-9.61 Y-8.71 Z8.46 F960.0
M101
G1 X-9.65 Y-9.11 Z8.46 F480.0
G1 X-9.65 Y-9.51 Z8.46 F800.0
G1 X-9.65 Y-9.65 Z8.46 F911.2
G1 X-9.39 Y-9.65 Z8.46 F960.0
G1 X9.65 Y-9.65 Z8.46 F960.0
G1 X9.65 Y9.65 Z8.46 F960.0
G1 X-9.65 Y9.65 Z8.46 F960.0
G1 X-9.65 Y-7.51 Z8.46 F960.0
M103
G1 X-9.65 Y-8.04 Z8.46 F518.4
G1 X-9.65 Y-8.11 Z8.46 F480.0
G1 X-9.65 Y-8.71 Z8.46 F160.0
(</perimeter>)
(</boundaryPerimeter>)
G1 X7.33 Y-8.52 Z8.46 F960.0
M101
G1 X8.04 Y-8.51 Z8.46 F960.0
G1 X8.32 Y-8.22 Z8.46 F480.0
G1 X8.51 Y-8.04 Z8.46 F691.744
G1 X8.51 Y-7.9 Z8.46 F800.0
G1 X8.51 Y-7.5 Z8.46 F960.0
G1 X8.51 Y-4.36 Z8.46 F960.0
G1 X7.12 Y-8.51 Z8.46 F960.0
G1 X-0.23 Y-8.51 Z8.46 F960.0
G1 X8.51 Y-3.44 Z8.46 F960.0
G1 X8.51 Y4.83 Z8.46 F960.0
G1 X-1.15 Y-8.51 Z8.46 F960.0
G1 X-8.51 Y-8.51 Z8.46 F960.0
G1 X-8.51 Y-3.91 Z8.46 F960.0
G1 X8.51 Y5.75 Z8.46 F960.0
G1 X8.51 Y8.51 Z8.46 F960.0
G1 X-0.68 Y8.51 Z8.46 F960.0
G1 X-8.51 Y-2.99 Z8.46 F960.0
G1 X-8.51 Y5.28 Z8.46 F960.0
G1 X-1.6 Y8.51 Z8.46 F960.0
G1 X-7.12 Y8.51 Z8.46 F960.0
G1 X-8.51 Y6.2 Z8.46 F960.0
G1 X-8.51 Y7.5 Z8.46 F960.0
M103
G1 X-8.51 Y8.04 Z8.46 F514.496
G1 X-8.04 Y8.51 Z8.46 F160.0
(</surroundingLoop>)
(</layer>)
(<layer> 8.853 )
(<surroundingLoop>)
(<boundaryPerimeter>)
(<boundaryPoint> X-10.0 Y-10.0 Z8.853 </boundaryPoint>)
(<boundaryPoint> X10.0 Y-10.0 Z8.853 </boundaryPoint>)
(<boundaryPoint> X10.0 Y10.0 Z8.853 </boundaryPoint>)
(<boundaryPoint> X-10.0 Y10.0 Z8.853 </boundaryPoint>)
(<loop> outer )
G1 X-8.17 Y9.01 Z8.85 F99.537
M101
G1 X-8.57 Y9.01 Z8.85 F480.0
G1 X-9.01 Y9.01 Z8.85 F825.6
G1 X-9.01 Y8.64 Z8.85 F960.0
G1 X-9.01 Y-9.01 Z8.85 F960.0
G1 X9.01 Y-9.01 Z8.85 F960.0
G1 X9.01 Y9.01 Z8.85 F960.0
G1 X-6.97 Y9.01 Z8.85 F960.0
M103
G1 X-7.57 Y9.01 Z8.85 F480.0
G1 X-8.04 Y9.01 Z8.85 F232.533
G1 X-8.17 Y9.01 Z8.85 F160.0
(</loop>)
(<perimeter> outer )
G1 X-8.05 Y9.61 Z8.85 F960.0
M101
G1 X-8.44 Y9.65 Z8.85 F480.0
G1 X-8.84 Y9.65 Z8.85 F800.0
G1 X-9.24 Y9.65 Z8.85 F960.0
G1 X-9.65 Y9.65 Z8.85 F960.0
G1 X-9.65 Y-9.65 Z8.85 F960.0
G1 X9.65 Y-9.65 Z8.85 F960.0
G1 X9.65 Y9.65 Z8.85 F960.0
G1 X-6.84 Y9.65 Z8.85 F960.0
M103
G1 X-7.44 Y9.65 Z8.85 F480.0
G1 X-8.04 Y9.65 Z8.85 F160.0
(</perimeter>)
(</boundaryPerimeter>)
G1 X7.83 Y8.1 Z8.85 F960.0
M101
G1 X8.51 Y8.04 Z8.85 F960.0
G1 X8.22 Y8.32 Z8.85 F480.0
G1 X8.04 Y8.51 Z8.85 F691.744
G1 X7.9 Y8.51 Z8.85 F800.0
G1 X7.5 Y8.51 Z8.85 F960.0
G1 X4.36 Y8.51 Z8.85 F960.0
G1 X8.51 Y7.12 Z8.85 F960.0
G1 X8.51 Y-0.23 Z8.85 F960.0
G1 X3.44 Y8.51 Z8.85 F960.0
G1 X-4.83 Y8.51 Z8.85 F960.0
G1 X8.51 Y-1.15 Z8.85 F960.0
G1 X8.51 Y-8.51 Z8.85 F960.0
G1 X3.91 Y-8.51 Z8.85 F960.0
G1 X-5.75 Y8.51 Z8.85 F960.0
G1 X-8.51 Y8.51 Z8.85 F960.0
G1 X-8.51 Y-0.68 Z8.85 F960.0
G1 X2.99 Y-8.51 Z8.85 F960.0
G1 X-5.28 Y-8.51 Z8.85 F960.0
G1 X-8.51 Y-1.6 Z8.85 F960.0
G1 X-8.51 Y-7.12 Z8.85 F960.0
G1 X-6.2 Y-8.51 Z8.85 F960.0
G1 X-7.5 Y-8.51 Z8.85 F960.0
M103
G1 X-8.04 Y-8.51 Z8.85 F514.496
G1 X-8.51 Y-8.04 Z8.85 F160.0
(</surroundingLoop>)
(</layer>)
(<layer> 9.243 )
(<surroundingLoop>)
(<boundaryPerimeter>)
(<boundaryPoint> X-10.0 Y-10.0 Z9.243 </boundaryPoint>)
(<boundaryPoint> X10.0 Y-10.0 Z9.243 </boundaryPoint>)
(<boundaryPoint> X10.0 Y10.0 Z9.243 </boundaryPoint>)
(<boundaryPoint> X-10.0 Y10.0 Z9.243 </boundaryPoint>)
(<loop> outer )
G1 X-8.98 Y-7.66 Z9.22 F115.143
M101
G1 X-9.01 Y-8.04 Z9.24 F480.0
G1 X-9.01 Y-8.44 Z9.24 F800.0
G1 X-9.01 Y-8.84 Z9.24 F960.0
G1 X-9.01 Y-9.01 Z9.24 F960.0
G1 X9.01 Y-9.01 Z9.24 F960.0
G1 X9.01 Y9.01 Z9.24 F960.0
G1 X-9.01 Y9.01 Z9.24 F960.0
G1 X-9.01 Y-6.44 Z9.24 F960.0
M103
G1 X-9.01 Y-7.04 Z9.24 F480.0
G1 X-9.01 Y-7.64 Z9.24 F160.0
(</loop>)
(<perimeter> outer )
G1 X-9.61 Y-7.64 Z9.24 F960.0
M101
G1 X-9.65 Y-8.04 Z9.24 F480.0
G1 X-9.65 Y-8.44 Z9.24 F800.0
G1 X-9.65 Y-8.84 Z9.24 F960.0
G1 X-9.65 Y-9.65 Z9.24 F960.0
G1 X9.65 Y-9.65 Z9.24 F960.0
G1 X9.65 Y9.65 Z9.24 F960.0
G1 X-9.65 Y9.65 Z9.24 F960.0
G1 X-9.65 Y-6.44 Z9.24 F960.0
M103
G1 X-9.65 Y-7.04 Z9.24 F480.0
G1 X-9.65 Y-7.64 Z9.24 F160.0
(</perimeter>)
(</boundaryPerimeter>)
G1 X7.33 Y-8.47 Z9.24 F960.0
M101
G1 X8.04 Y-8.51 Z9.24 F960.0
G1 X8.32 Y-8.22 Z9.24 F480.0
G1 X8.51 Y-8.04 Z9.24 F691.744
G1 X8.51 Y-7.9 Z9.24 F800.0
G1 X8.51 Y-7.5 Z9.24 F960.0
G1 X8.51 Y-4.36 Z9.24 F960.0
G1 X7.12 Y-8.51 Z9.24 F960.0
G1 X-0.23 Y-8.51 Z9.24 F960.0
G1 X8.51 Y-3.44 Z9.24 F960.0
G1 X8.51 Y4.83 Z9.24 F960.0
G1 X-1.15 Y-8.51 Z9.24 F960.0
G1 X-8.51 Y-8.51 Z9.24 F960.0
G1 X-8.51 Y-3.91 Z9.24 F960.0
G1 X8.51 Y5.75 Z9.24 F960.0
G1 X8.51 Y8.51 Z9.24 F960.0
G1 X-0.68 Y8.51 Z9.24 F960.0
G1 X-8.51 Y-2.99 Z9.24 F960.0
G1 X-8.51 Y5.28 Z9.24 F960.0
G1 X-1.6 Y8.51 Z9.24 F960.0
G1 X-7.12 Y8.51 Z9.24 F960.0
G1 X-8.51 Y6.2 Z9.24 F960.0
G1 X-8.51 Y7.5 Z9.24 F960.0
M103
G1 X-8.51 Y8.04 Z9.24 F514.496
G1 X-8.04 Y8.51 Z9.24 F160.0
(</surroundingLoop>)
(</layer>)
(<layer> 9.633 )
(<surroundingLoop>)
(<boundaryPerimeter>)
(<boundaryPoint> X-10.0 Y-10.0 Z9.633 </boundaryPoint>)
(<boundaryPoint> X10.0 Y-10.0 Z9.633 </boundaryPoint>)
(<boundaryPoint> X10.0 Y10.0 Z9.633 </boundaryPoint>)
(<boundaryPoint> X-10.0 Y10.0 Z9.633 </boundaryPoint>)
(<loop> outer )
G1 X-8.48 Y8.98 Z9.61 F121.053
M101
G1 X-8.9 Y9.01 Z9.63 F480.0
G1 X-9.01 Y9.01 Z9.63 F560.8
G1 X-9.01 Y8.71 Z9.63 F800.0
G1 X-9.01 Y8.31 Z9.63 F960.0
G1 X-9.01 Y-9.01 Z9.63 F960.0
G1 X9.01 Y-9.01 Z9.63 F960.0
G1 X9.01 Y9.01 Z9.63 F960.0
G1 X-7.3 Y9.01 Z9.63 F960.0
M103
G1 X-7.91 Y9.01 Z9.63 F480.0
G1 X-8.04 Y9.01 Z9.63 F409.067
G1 X-8.51 Y9.01 Z9.63 F160.0
(</loop>)
(<perimeter> outer )
G1 X-8.51 Y9.61 Z9.63 F960.0
M101
G1 X-8.9 Y9.65 Z9.63 F480.0
G1 X-9.3 Y9.65 Z9.63 F800.0
G1 X-9.65 Y9.65 Z9.63 F960.0
G1 X-9.65 Y-9.65 Z9.63 F960.0
G1 X9.65 Y-9.65 Z9.63 F960.0
G1 X9.65 Y9.65 Z9.63 F960.0
G1 X-7.3 Y9.65 Z9.63 F960.0
M103
G1 X-7.91 Y9.65 Z9.63 F480.0
G1 X-8.04 Y9.65 Z9.63 F409.067
G1 X-8.51 Y9.65 Z9.63 F160.0
(</perimeter>)
(</boundaryPerimeter>)
G1 X7.82 Y8.1 Z9.63 F960.0
M101
G1 X8.51 Y8.04 Z9.63 F960.0
G1 X8.22 Y8.32 Z9.63 F480.0
G1 X8.04 Y8.51 Z9.63 F691.744
G1 X7.9 Y8.51 Z9.63 F800.0
G1 X7.5 Y8.51 Z9.63 F960.0
G1 X4.36 Y8.51 Z9.63 F960.0
G1 X8.51 Y7.12 Z9.63 F960.0
G1 X8.51 Y-0.23 Z9.63 F960.0
G1 X3.44 Y8.51 Z9.63 F960.0
G1 X-4.83 Y8.51 Z9.63 F960.0
G1 X8.51 Y-1.15 Z9.63 F960.0
G1 X8.51 Y-8.51 Z9.63 F960.0
G1 X3.91 Y-8.51 Z9.63 F960.0
G1 X-5.75 Y8.51 Z9.63 F960.0
G1 X-8.51 Y8.51 Z9.63 F960.0
G1 X-8.51 Y-0.68 Z9.63 F960.0
G1 X2.99 Y-8.51 Z9.63 F960.0
G1 X-5.28 Y-8.51 Z9.63 F960.0
G1 X-8.51 Y-1.6 Z9.63 F960.0
G1 X-8.51 Y-7.12 Z9.63 F960.0
G1 X-6.2 Y-8.51 Z9.63 F960.0
G1 X-7.5 Y-8.51 Z9.63 F960.0
M103
G1 X-8.04 Y-8.51 Z9.63 F514.496
G1 X-8.51 Y-8.04 Z9.63 F160.0
(</surroundingLoop>)
(</layer>)
(<layer> 10.023 )
(<surroundingLoop>)
(<boundaryPerimeter>)
(<boundaryPoint> X-10.0 Y-10.0 Z10.023 </boundaryPoint>)
(<boundaryPoint> X10.0 Y-10.0 Z10.023 </boundaryPoint>)
(<boundaryPoint> X10.0 Y10.0 Z10.023 </boundaryPoint>)
(<boundaryPoint> X-10.0 Y10.0 Z10.023 </boundaryPoint>)
(<loop> outer )
G1 X-8.42 Y-7.97 Z10.02 F62.385
M101
G1 X-8.42 Y-8.04 Z10.02 F215.2
G1 X-8.42 Y-8.42 Z10.02 F521.6
G1 X-8.07 Y-8.42 Z10.02 F800.0
G1 X-7.67 Y-8.42 Z10.02 F960.0
G1 X8.42 Y-8.42 Z10.02 F960.0
G1 X8.42 Y8.42 Z10.02 F960.0
G1 X-8.42 Y8.42 Z10.02 F960.0
G1 X-8.42 Y-6.77 Z10.02 F960.0
M103
G1 X-8.42 Y-7.37 Z10.02 F480.0
G1 X-8.42 Y-7.97 Z10.02 F160.0
(</loop>)
(<loop> outer )
G1 X-8.97 Y-8.03 Z10.02 F960.0
M101
G1 X-9.01 Y-8.44 Z10.02 F480.0
G1 X-9.01 Y-8.84 Z10.02 F800.0
G1 X-9.01 Y-9.01 Z10.02 F934.4
G1 X-8.77 Y-9.01 Z10.02 F960.0
G1 X9.01 Y-9.01 Z10.02 F960.0
G1 X9.01 Y9.01 Z10.02 F960.0
G1 X-9.01 Y9.01 Z10.02 F960.0
G1 X-9.01 Y-6.84 Z10.02 F960.0
M103
G1 X-9.01 Y-7.44 Z10.02 F480.0
G1 X-9.01 Y-8.04 Z10.02 F160.0
(</loop>)
(<perimeter> outer )
G1 X-9.61 Y-8.04 Z10.02 F960.0
M101
G1 X-9.65 Y-8.44 Z10.02 F480.0
G1 X-9.65 Y-8.84 Z10.02 F800.0
G1 X-9.65 Y-9.24 Z10.02 F960.0
G1 X-9.65 Y-9.65 Z10.02 F960.0
G1 X9.65 Y-9.65 Z10.02 F960.0
G1 X9.65 Y9.65 Z10.02 F960.0
G1 X-9.65 Y9.65 Z10.02 F960.0
G1 X-9.65 Y-6.84 Z10.02 F960.0
M103
G1 X-9.65 Y-7.44 Z10.02 F480.0
G1 X-9.65 Y-8.04 Z10.02 F160.0
(</perimeter>)
(</boundaryPerimeter>)
G1 X7.1 Y-7.93 Z10.02 F960.0
M101
G1 X7.8 Y-7.92 Z10.02 F960.0
G1 X7.92 Y-7.8 Z10.02 F303.684
G1 X7.92 Y-7.58 Z10.02 F480.0
G1 X7.92 Y-7.18 Z10.02 F800.0
G1 X7.92 Y-6.97 Z10.02 F960.0
G1 X7.79 Y-7.1 Z10.02 F960.0
G1 X6.97 Y-7.92 Z10.02 F960.0
G1 X6.14 Y-7.92 Z10.02 F960.0
G1 X7.92 Y-6.14 Z10.02 F960.0
G1 X7.92 Y-5.31 Z10.02 F960.0
G1 X5.31 Y-7.92 Z10.02 F960.0
G1 X4.49 Y-7.92 Z10.02 F960.0
G1 X7.92 Y-4.49 Z10.02 F960.0
G1 X7.92 Y-3.66 Z10.02 F960.0
G1 X3.66 Y-7.92 Z10.02 F960.0
G1 X2.83 Y-7.92 Z10.02 F960.0
G1 X7.92 Y-2.83 Z10.02 F960.0
G1 X7.92 Y-2.0 Z10.02 F960.0
G1 X2.0 Y-7.92 Z10.02 F960.0
G1 X1.18 Y-7.92 Z10.02 F960.0
G1 X7.92 Y-1.18 Z10.02 F960.0
G1 X7.92 Y-0.35 Z10.02 F960.0
G1 X0.35 Y-7.92 Z10.02 F960.0
G1 X-0.48 Y-7.92 Z10.02 F960.0
G1 X7.92 Y0.48 Z10.02 F960.0
G1 X7.92 Y1.3 Z10.02 F960.0
G1 X-1.3 Y-7.92 Z10.02 F960.0
G1 X-2.13 Y-7.92 Z10.02 F960.0
G1 X7.92 Y2.13 Z10.02 F960.0
G1 X7.92 Y2.96 Z10.02 F960.0
G1 X-2.96 Y-7.92 Z10.02 F960.0
G1 X-3.79 Y-7.92 Z10.02 F960.0
G1 X7.92 Y3.79 Z10.02 F960.0
G1 X7.92 Y4.61 Z10.02 F960.0
G1 X-4.61 Y-7.92 Z10.02 F960.0
G1 X-5.44 Y-7.92 Z10.02 F960.0
G1 X7.92 Y5.44 Z10.02 F960.0
G1 X7.92 Y6.27 Z10.02 F960.0
G1 X-6.27 Y-7.92 Z10.02 F960.0
G1 X-7.1 Y-7.92 Z10.02 F960.0
G1 X7.92 Y7.1 Z10.02 F960.0
G1 X7.92 Y7.92 Z10.02 F960.0
G1 X-7.92 Y-7.92 Z10.02 F960.0
G1 X-7.92 Y-7.1 Z10.02 F960.0
G1 X7.1 Y7.92 Z10.02 F960.0
G1 X6.27 Y7.92 Z10.02 F960.0
G1 X-7.92 Y-6.27 Z10.02 F960.0
G1 X-7.92 Y-5.44 Z10.02 F960.0
G1 X5.44 Y7.92 Z10.02 F960.0
G1 X4.61 Y7.92 Z10.02 F960.0
G1 X-7.92 Y-4.61 Z10.02 F960.0
G1 X-7.92 Y-3.79 Z10.02 F960.0
G1 X3.79 Y7.92 Z10.02 F960.0
G1 X2.96 Y7.92 Z10.02 F960.0
G1 X-7.92 Y-2.96 Z10.02 F960.0
G1 X-7.92 Y-2.13 Z10.02 F960.0
G1 X2.13 Y7.92 Z10.02 F960.0
G1 X1.3 Y7.92 Z10.02 F960.0
G1 X-7.92 Y-1.3 Z10.02 F960.0
G1 X-7.92 Y-0.48 Z10.02 F960.0
G1 X0.48 Y7.92 Z10.02 F960.0
G1 X-0.35 Y7.92 Z10.02 F960.0
G1 X-7.92 Y0.35 Z10.02 F960.0
G1 X-7.92 Y1.18 Z10.02 F960.0
G1 X-1.18 Y7.92 Z10.02 F960.0
G1 X-2.0 Y7.92 Z10.02 F960.0
G1 X-7.92 Y2.0 Z10.02 F960.0
G1 X-7.92 Y2.83 Z10.02 F960.0
G1 X-2.83 Y7.92 Z10.02 F960.0
G1 X-3.66 Y7.92 Z10.02 F960.0
G1 X-7.92 Y3.66 Z10.02 F960.0
G1 X-7.92 Y4.49 Z10.02 F960.0
G1 X-4.49 Y7.92 Z10.02 F960.0
G1 X-5.31 Y7.92 Z10.02 F960.0
G1 X-7.92 Y5.31 Z10.02 F960.0
G1 X-7.92 Y6.14 Z10.02 F960.0
G1 X-6.14 Y7.92 Z10.02 F960.0
G1 X-6.97 Y7.92 Z10.02 F960.0
G1 X-7.79 Y7.1 Z10.02 F960.0
M103
G1 X-7.92 Y6.97 Z10.02 F697.389
G1 X-7.92 Y7.38 Z10.02 F480.0
G1 X-7.92 Y7.8 Z10.02 F255.789
G1 X-7.8 Y7.92 Z10.02 F160.0
(</surroundingLoop>)
(</layer>)
(<layer> 10.413 )
(<surroundingLoop>)
(<boundaryPerimeter>)
(<boundaryPoint> X-10.0 Y-10.0 Z10.413 </boundaryPoint>)
(<boundaryPoint> X10.0 Y-10.0 Z10.413 </boundaryPoint>)
(<boundaryPoint> X10.0 Y10.0 Z10.413 </boundaryPoint>)
(<boundaryPoint> X-10.0 Y10.0 Z10.413 </boundaryPoint>)
(<loop> outer )
G1 X-7.23 Y8.94 Z10.39 F200.23
M101
G1 X-7.19 Y9.01 Z10.41 F197.349
G1 X-7.59 Y9.01 Z10.41 F480.0
G1 X-7.8 Y9.01 Z10.41 F644.0
G1 X-7.99 Y9.01 Z10.41 F800.0
G1 X-8.39 Y9.01 Z10.41 F960.0
G1 X-9.01 Y9.01 Z10.41 F960.0
G1 X-9.01 Y-9.01 Z10.41 F960.0
G1 X9.01 Y-9.01 Z10.41 F960.0
G1 X9.01 Y9.01 Z10.41 F960.0
G1 X-5.99 Y9.01 Z10.41 F960.0
M103
G1 X-6.59 Y9.01 Z10.41 F480.0
G1 X-7.19 Y9.01 Z10.41 F160.0
(</loop>)
(<perimeter> outer )
G1 X-7.19 Y9.61 Z10.41 F960.0
M101
G1 X-7.59 Y9.65 Z10.41 F480.0
G1 X-7.8 Y9.65 Z10.41 F644.0
G1 X-7.99 Y9.65 Z10.41 F800.0
G1 X-8.39 Y9.65 Z10.41 F960.0
G1 X-9.65 Y9.65 Z10.41 F960.0
G1 X-9.65 Y-9.65 Z10.41 F960.0
G1 X9.65 Y-9.65 Z10.41 F960.0
G1 X9.65 Y9.65 Z10.41 F960.0
G1 X-5.99 Y9.65 Z10.41 F960.0
M103
G1 X-6.59 Y9.65 Z10.41 F480.0
G1 X-7.19 Y9.65 Z10.41 F160.0
(</perimeter>)
(</boundaryPerimeter>)
G1 X7.86 Y8.11 Z10.41 F960.0
M101
G1 X8.51 Y8.04 Z10.41 F960.0
G1 X8.22 Y8.32 Z10.41 F480.0
G1 X8.04 Y8.51 Z10.41 F691.744
G1 X7.9 Y8.51 Z10.41 F800.0
G1 X7.5 Y8.51 Z10.41 F960.0
G1 X7.21 Y8.51 Z10.41 F960.0
G1 X8.51 Y7.21 Z10.41 F960.0
G1 X8.51 Y6.38 Z10.41 F960.0
G1 X6.38 Y8.51 Z10.41 F960.0
G1 X5.56 Y8.51 Z10.41 F960.0
G1 X8.51 Y5.56 Z10.41 F960.0
G1 X8.51 Y4.73 Z10.41 F960.0
G1 X4.73 Y8.51 Z10.41 F960.0
G1 X3.9 Y8.51 Z10.41 F960.0
G1 X8.51 Y3.9 Z10.41 F960.0
G1 X8.51 Y3.07 Z10.41 F960.0
G1 X3.07 Y8.51 Z10.41 F960.0
G1 X2.25 Y8.51 Z10.41 F960.0
G1 X8.51 Y2.25 Z10.41 F960.0
G1 X8.51 Y1.42 Z10.41 F960.0
G1 X1.42 Y8.51 Z10.41 F960.0
G1 X0.59 Y8.51 Z10.41 F960.0
G1 X8.51 Y0.59 Z10.41 F960.0
G1 X8.51 Y-0.23 Z10.41 F960.0
G1 X-0.23 Y8.51 Z10.41 F960.0
G1 X-1.06 Y8.51 Z10.41 F960.0
G1 X8.51 Y-1.06 Z10.41 F960.0
G1 X8.51 Y-1.89 Z10.41 F960.0
G1 X-1.89 Y8.51 Z10.41 F960.0
G1 X-2.72 Y8.51 Z10.41 F960.0
G1 X8.51 Y-2.72 Z10.41 F960.0
G1 X8.51 Y-3.54 Z10.41 F960.0
G1 X-3.54 Y8.51 Z10.41 F960.0
G1 X-4.37 Y8.51 Z10.41 F960.0
G1 X8.51 Y-4.37 Z10.41 F960.0
G1 X8.51 Y-5.2 Z10.41 F960.0
G1 X-5.2 Y8.51 Z10.41 F960.0
G1 X-6.03 Y8.51 Z10.41 F960.0
G1 X8.51 Y-6.03 Z10.41 F960.0
G1 X8.51 Y-6.85 Z10.41 F960.0
G1 X-6.85 Y8.51 Z10.41 F960.0
G1 X-7.68 Y8.51 Z10.41 F960.0
G1 X8.51 Y-7.68 Z10.41 F960.0
G1 X8.51 Y-8.51 Z10.41 F960.0
G1 X-8.51 Y8.51 Z10.41 F960.0
G1 X-8.51 Y7.68 Z10.41 F960.0
G1 X7.68 Y-8.51 Z10.41 F960.0
G1 X6.85 Y-8.51 Z10.41 F960.0
G1 X-8.51 Y6.85 Z10.41 F960.0
G1 X-8.51 Y6.03 Z10.41 F960.0
G1 X6.03 Y-8.51 Z10.41 F960.0
G1 X5.2 Y-8.51 Z10.41 F960.0
G1 X-8.51 Y5.2 Z10.41 F960.0
G1 X-8.51 Y4.37 Z10.41 F960.0
G1 X4.37 Y-8.51 Z10.41 F960.0
G1 X3.54 Y-8.51 Z10.41 F960.0
G1 X-8.51 Y3.54 Z10.41 F960.0
G1 X-8.51 Y2.72 Z10.41 F960.0
G1 X2.72 Y-8.51 Z10.41 F960.0
G1 X1.89 Y-8.51 Z10.41 F960.0
G1 X-8.51 Y1.89 Z10.41 F960.0
G1 X-8.51 Y1.06 Z10.41 F960.0
G1 X1.06 Y-8.51 Z10.41 F960.0
G1 X0.23 Y-8.51 Z10.41 F960.0
G1 X-8.51 Y0.23 Z10.41 F960.0
G1 X-8.51 Y-0.59 Z10.41 F960.0
G1 X-0.59 Y-8.51 Z10.41 F960.0
G1 X-1.42 Y-8.51 Z10.41 F960.0
G1 X-8.51 Y-1.42 Z10.41 F960.0
G1 X-8.51 Y-2.25 Z10.41 F960.0
G1 X-2.25 Y-8.51 Z10.41 F960.0
G1 X-3.07 Y-8.51 Z10.41 F960.0
G1 X-8.51 Y-3.07 Z10.41 F960.0
G1 X-8.51 Y-3.9 Z10.41 F960.0
G1 X-3.9 Y-8.51 Z10.41 F960.0
G1 X-4.73 Y-8.51 Z10.41 F960.0
G1 X-8.51 Y-4.73 Z10.41 F960.0
G1 X-8.51 Y-5.56 Z10.41 F960.0
G1 X-5.56 Y-8.51 Z10.41 F960.0
G1 X-6.38 Y-8.51 Z10.41 F960.0
G1 X-8.51 Y-6.38 Z10.41 F960.0
G1 X-8.51 Y-7.21 Z10.41 F960.0
G1 X-7.21 Y-8.51 Z10.41 F960.0
G1 X-7.5 Y-8.51 Z10.41 F960.0
M103
G1 X-8.04 Y-8.51 Z10.41 F514.496
G1 X-8.51 Y-8.04 Z10.41 F160.0
(</surroundingLoop>)
(</layer>)
(<layer> 10.803 )
(<surroundingLoop>)
(<boundaryPerimeter>)
(<boundaryPoint> X-10.0 Y-10.0 Z10.803 </boundaryPoint>)
(<boundaryPoint> X10.0 Y-10.0 Z10.803 </boundaryPoint>)
(<boundaryPoint> X10.0 Y10.0 Z10.803 </boundaryPoint>)
(<boundaryPoint> X-10.0 Y10.0 Z10.803 </boundaryPoint>)
(<loop> outer )
G1 X-8.42 Y-8.3 Z10.8 F73.511
M101
G1 X-8.42 Y-8.42 Z10.8 F256.8
G1 X-8.14 Y-8.42 Z10.8 F480.0
G1 X-7.74 Y-8.42 Z10.8 F800.0
G1 X-7.34 Y-8.42 Z10.8 F960.0
G1 X8.42 Y-8.42 Z10.8 F960.0
G1 X8.42 Y8.42 Z10.8 F960.0
G1 X-8.42 Y8.42 Z10.8 F960.0
G1 X-8.42 Y-7.1 Z10.8 F960.0
M103
G1 X-8.42 Y-7.7 Z10.8 F480.0
G1 X-8.42 Y-8.04 Z10.8 F299.733
G1 X-8.42 Y-8.3 Z10.8 F160.0
(</loop>)
(<loop> outer )
G1 X-8.97 Y-8.05 Z10.8 F960.0
M101
G1 X-9.01 Y-8.44 Z10.8 F480.0
G1 X-9.01 Y-8.84 Z10.8 F800.0
G1 X-9.01 Y-9.01 Z10.8 F934.4
G1 X-8.77 Y-9.01 Z10.8 F960.0
G1 X9.01 Y-9.01 Z10.8 F960.0
G1 X9.01 Y9.01 Z10.8 F960.0
G1 X-9.01 Y9.01 Z10.8 F960.0
G1 X-9.01 Y-6.84 Z10.8 F960.0
M103
G1 X-9.01 Y-7.44 Z10.8 F480.0
G1 X-9.01 Y-8.04 Z10.8 F160.0
(</loop>)
(<perimeter> outer )
G1 X-9.61 Y-8.04 Z10.8 F960.0
M101
G1 X-9.65 Y-8.44 Z10.8 F480.0
G1 X-9.65 Y-8.84 Z10.8 F800.0
G1 X-9.65 Y-9.24 Z10.8 F960.0
G1 X-9.65 Y-9.65 Z10.8 F960.0
G1 X9.65 Y-9.65 Z10.8 F960.0
G1 X9.65 Y9.65 Z10.8 F960.0
G1 X-9.65 Y9.65 Z10.8 F960.0
G1 X-9.65 Y-6.84 Z10.8 F960.0
M103
G1 X-9.65 Y-7.44 Z10.8 F480.0
G1 X-9.65 Y-8.04 Z10.8 F160.0
(</perimeter>)
(</boundaryPerimeter>)
G1 X7.1 Y-7.93 Z10.8 F960.0
M101
G1 X7.8 Y-7.92 Z10.8 F960.0
G1 X7.92 Y-7.8 Z10.8 F303.684
G1 X7.92 Y-7.58 Z10.8 F480.0
G1 X7.92 Y-7.18 Z10.8 F800.0
G1 X7.92 Y-6.97 Z10.8 F960.0
G1 X7.79 Y-7.1 Z10.8 F960.0
G1 X6.97 Y-7.92 Z10.8 F960.0
G1 X6.14 Y-7.92 Z10.8 F960.0
G1 X7.92 Y-6.14 Z10.8 F960.0
G1 X7.92 Y-5.31 Z10.8 F960.0
G1 X5.31 Y-7.92 Z10.8 F960.0
G1 X4.49 Y-7.92 Z10.8 F960.0
G1 X7.92 Y-4.49 Z10.8 F960.0
G1 X7.92 Y-3.66 Z10.8 F960.0
G1 X3.66 Y-7.92 Z10.8 F960.0
G1 X2.83 Y-7.92 Z10.8 F960.0
G1 X7.92 Y-2.83 Z10.8 F960.0
G1 X7.92 Y-2.0 Z10.8 F960.0
G1 X2.0 Y-7.92 Z10.8 F960.0
G1 X1.18 Y-7.92 Z10.8 F960.0
G1 X7.92 Y-1.18 Z10.8 F960.0
G1 X7.92 Y-0.35 Z10.8 F960.0
G1 X0.35 Y-7.92 Z10.8 F960.0
G1 X-0.48 Y-7.92 Z10.8 F960.0
G1 X7.92 Y0.48 Z10.8 F960.0
G1 X7.92 Y1.3 Z10.8 F960.0
G1 X-1.3 Y-7.92 Z10.8 F960.0
G1 X-2.13 Y-7.92 Z10.8 F960.0
G1 X7.92 Y2.13 Z10.8 F960.0
G1 X7.92 Y2.96 Z10.8 F960.0
G1 X-2.96 Y-7.92 Z10.8 F960.0
G1 X-3.79 Y-7.92 Z10.8 F960.0
G1 X7.92 Y3.79 Z10.8 F960.0
G1 X7.92 Y4.61 Z10.8 F960.0
G1 X-4.61 Y-7.92 Z10.8 F960.0
G1 X-5.44 Y-7.92 Z10.8 F960.0
G1 X7.92 Y5.44 Z10.8 F960.0
G1 X7.92 Y6.27 Z10.8 F960.0
G1 X-6.27 Y-7.92 Z10.8 F960.0
G1 X-7.1 Y-7.92 Z10.8 F960.0
G1 X7.92 Y7.1 Z10.8 F960.0
G1 X7.92 Y7.92 Z10.8 F960.0
G1 X-7.92 Y-7.92 Z10.8 F960.0
G1 X-7.92 Y-7.1 Z10.8 F960.0
G1 X7.1 Y7.92 Z10.8 F960.0
G1 X6.27 Y7.92 Z10.8 F960.0
G1 X-7.92 Y-6.27 Z10.8 F960.0
G1 X-7.92 Y-5.44 Z10.8 F960.0
G1 X5.44 Y7.92 Z10.8 F960.0
G1 X4.61 Y7.92 Z10.8 F960.0
G1 X-7.92 Y-4.61 Z10.8 F960.0
G1 X-7.92 Y-3.79 Z10.8 F960.0
G1 X3.79 Y7.92 Z10.8 F960.0
G1 X2.96 Y7.92 Z10.8 F960.0
G1 X-7.92 Y-2.96 Z10.8 F960.0
G1 X-7.92 Y-2.13 Z10.8 F960.0
G1 X2.13 Y7.92 Z10.8 F960.0
G1 X1.3 Y7.92 Z10.8 F960.0
G1 X-7.92 Y-1.3 Z10.8 F960.0
G1 X-7.92 Y-0.48 Z10.8 F960.0
G1 X0.48 Y7.92 Z10.8 F960.0
G1 X-0.35 Y7.92 Z10.8 F960.0
G1 X-7.92 Y0.35 Z10.8 F960.0
G1 X-7.92 Y1.18 Z10.8 F960.0
G1 X-1.18 Y7.92 Z10.8 F960.0
G1 X-2.0 Y7.92 Z10.8 F960.0
G1 X-7.92 Y2.0 Z10.8 F960.0
G1 X-7.92 Y2.83 Z10.8 F960.0
G1 X-2.83 Y7.92 Z10.8 F960.0
G1 X-3.66 Y7.92 Z10.8 F960.0
G1 X-7.92 Y3.66 Z10.8 F960.0
G1 X-7.92 Y4.49 Z10.8 F960.0
G1 X-4.49 Y7.92 Z10.8 F960.0
G1 X-5.31 Y7.92 Z10.8 F960.0
G1 X-7.92 Y5.31 Z10.8 F960.0
G1 X-7.92 Y6.14 Z10.8 F960.0
G1 X-6.14 Y7.92 Z10.8 F960.0
G1 X-6.97 Y7.92 Z10.8 F960.0
G1 X-7.79 Y7.1 Z10.8 F960.0
M103
G1 X-7.92 Y6.97 Z10.8 F697.389
G1 X-7.92 Y7.38 Z10.8 F480.0
G1 X-7.92 Y7.8 Z10.8 F255.789
G1 X-7.8 Y7.92 Z10.8 F160.0
(</surroundingLoop>)
(</layer>)
(</extrusion>)
M104 S0
M103
;M113 S0.0
(******* End.gcode for Cupcake CNC *******)
G1 X0.0 F2500
G1 X0.0 Y0.0 F2500
G91 (set relaitve positioning)
G1 Z25 F60 (go up 25mm)
(*********end End.gcode*******)
