(** This GCode was generated by ReplicatorG 0040 **)
(*  using Skeinforge (35) - Legacy  *)
(*  for a Single headed Cupcake  *)
(*  on 2013/04/27 13:48:24 (+0100) *)
(**** beginning of start.gcode ****)
(This file is for a MakerBot Cupcake CNC)
M104 S220 T0 (Temperature to 220 celsius) (temp updated by printOMatic)
G21 (Metric FTW)
G90 (Absolute Positioning)
(G92 X0 Y0 Z0 (You are now at 0,0,0))
(You have failed me for the last time, MakerBot)
G1 Z15 F60 (Move up for test extrusion)
M108 S255 (Extruder speed = max)
M104 S180 T0
M6 T0 (Wait for tool to heat up)
G04 P5000 (Wait 5 seconds)
M101 (Extruder on, forward)
G04 P5000 (Wait 5 seconds)
M103 (Extruder off)
M01 (The heater is warming up and will do a test extrusion.  Click yes after you have cleared the nozzle of the extrusion.)
G1 Z0 F60	(Go back to zero.)
(**** end of start.gcode ****)
(<creation> skeinforge </creation>)
(<version> 10.11.05 </version>)
(<extruderInitialization>)
G90
G21
M103
(<craftTypeName> extrusion </craftTypeName>)
M105
(<bridgeWidthMultiplier> 1.0 </bridgeWidthMultiplier>)
(<decimalPlacesCarried> 3 </decimalPlacesCarried>)
(<layerThickness> 0.313 </layerThickness>)
(<threadSequenceString> loops perimeter infill </threadSequenceString>)
(<operatingFeedRatePerSecond> 48.0 </operatingFeedRatePerSecond>)
(<operatingFlowRate> 255.0 </operatingFlowRate>)
(<orbitalFeedRatePerSecond> 24.0 </orbitalFeedRatePerSecond>)
(<travelFeedRatePerSecond> 55.0 </travelFeedRatePerSecond>)
(<coolingRate> 0.5 </coolingRate>)
(<heatingRate> 1.0 </heatingRate>)
(<baseTemperature> 180.0 </baseTemperature>)
(<interfaceTemperature> 180.0 </interfaceTemperature>)
(<objectFirstLayerInfillTemperature> 180.0 </objectFirstLayerInfillTemperature>)
(<objectFirstLayerPerimeterTemperature> 180.0 </objectFirstLayerPerimeterTemperature>)
(<objectNextLayersTemperature> 180.0 </objectNextLayersTemperature>)
(<supportLayersTemperature> 180.0 </supportLayersTemperature>)
(<supportedLayersTemperature> 180.0 </supportedLayersTemperature>)
(<maximumZTravelFeedRatePerSecond> 5.0 </maximumZTravelFeedRatePerSecond>)
(<perimeterWidth> 0.438 </perimeterWidth>)
(<profileName> PLA </profileName>)
(<procedureDone> carve,bottom </procedureDone>)
(<procedureDone> preface </procedureDone>)
(<procedureDone> inset </procedureDone>)
(<procedureDone> fill </procedureDone>)
(<procedureDone> speed </procedureDone>)
(<procedureDone> temperature </procedureDone>)
(<procedureDone> raft </procedureDone>)
(<procedureDone> jitter </procedureDone>)
(<procedureDone> comb </procedureDone>)
(<procedureDone> cool </procedureDone>)
(<procedureDone> limit </procedureDone>)
(<procedureDone> export </procedureDone>)
(</extruderInitialization>)
(<extrusion>)
;M113 S1.0
M108 S255.0
M104 S180.0
(<layer> 0.501 )
G1 X-35.04 Y-29.61 Z0.5 F300.0
M101
G1 X-35.04 Y27.42 Z0.5 F720.0
G1 X-33.29 Y27.42 Z0.5 F720.0
G1 X-33.29 Y-29.61 Z0.5 F720.0
G1 X-31.54 Y-29.61 Z0.5 F720.0
G1 X-31.54 Y27.42 Z0.5 F720.0
G1 X-29.78 Y27.42 Z0.5 F720.0
G1 X-29.78 Y-29.61 Z0.5 F720.0
G1 X-28.03 Y-29.61 Z0.5 F720.0
G1 X-28.03 Y27.42 Z0.5 F720.0
G1 X-26.28 Y27.42 Z0.5 F720.0
G1 X-26.28 Y-29.61 Z0.5 F720.0
G1 X-24.53 Y-29.61 Z0.5 F720.0
G1 X-24.53 Y27.42 Z0.5 F720.0
G1 X-22.78 Y27.42 Z0.5 F720.0
G1 X-22.78 Y-29.61 Z0.5 F720.0
G1 X-21.02 Y-29.61 Z0.5 F720.0
G1 X-21.02 Y27.42 Z0.5 F720.0
G1 X-19.27 Y27.42 Z0.5 F720.0
G1 X-19.27 Y-29.61 Z0.5 F720.0
G1 X-17.52 Y-29.61 Z0.5 F720.0
G1 X-17.52 Y27.42 Z0.5 F720.0
G1 X-15.77 Y27.42 Z0.5 F720.0
G1 X-15.77 Y-29.61 Z0.5 F720.0
G1 X-14.02 Y-29.61 Z0.5 F720.0
G1 X-14.02 Y27.42 Z0.5 F720.0
G1 X-12.26 Y27.42 Z0.5 F720.0
G1 X-12.26 Y-29.61 Z0.5 F720.0
G1 X-10.51 Y-29.61 Z0.5 F720.0
G1 X-10.51 Y27.42 Z0.5 F720.0
G1 X-8.76 Y27.42 Z0.5 F720.0
G1 X-8.76 Y-29.61 Z0.5 F720.0
G1 X-7.01 Y-29.61 Z0.5 F720.0
G1 X-7.01 Y27.42 Z0.5 F720.0
G1 X-5.26 Y27.42 Z0.5 F720.0
G1 X-5.26 Y-29.61 Z0.5 F720.0
G1 X-3.5 Y-29.61 Z0.5 F720.0
G1 X-3.5 Y27.42 Z0.5 F720.0
G1 X-1.75 Y27.42 Z0.5 F720.0
G1 X-1.75 Y-29.61 Z0.5 F720.0
G1 X0.0 Y-29.61 Z0.5 F720.0
G1 X0.0 Y27.42 Z0.5 F720.0
G1 X1.75 Y27.42 Z0.5 F720.0
G1 X1.75 Y-29.61 Z0.5 F720.0
G1 X3.5 Y-29.61 Z0.5 F720.0
G1 X3.5 Y27.42 Z0.5 F720.0
G1 X5.26 Y27.42 Z0.5 F720.0
G1 X5.26 Y-29.61 Z0.5 F720.0
G1 X7.01 Y-29.61 Z0.5 F720.0
G1 X7.01 Y27.42 Z0.5 F720.0
G1 X8.76 Y27.42 Z0.5 F720.0
G1 X8.76 Y-29.61 Z0.5 F720.0
G1 X10.51 Y-29.61 Z0.5 F720.0
G1 X10.51 Y27.42 Z0.5 F720.0
G1 X12.26 Y27.42 Z0.5 F720.0
G1 X12.26 Y-29.61 Z0.5 F720.0
G1 X14.02 Y-29.61 Z0.5 F720.0
G1 X14.02 Y27.42 Z0.5 F720.0
G1 X15.77 Y27.42 Z0.5 F720.0
G1 X15.77 Y-29.61 Z0.5 F720.0
G1 X17.52 Y-29.61 Z0.5 F720.0
G1 X17.52 Y27.42 Z0.5 F720.0
G1 X19.27 Y27.42 Z0.5 F720.0
G1 X19.27 Y-29.61 Z0.5 F720.0
G1 X21.02 Y-29.61 Z0.5 F720.0
G1 X21.02 Y27.42 Z0.5 F720.0
G1 X22.78 Y27.42 Z0.5 F720.0
G1 X22.78 Y-29.61 Z0.5 F720.0
G1 X24.53 Y-29.61 Z0.5 F720.0
G1 X24.53 Y27.42 Z0.5 F720.0
G1 X26.28 Y27.42 Z0.5 F720.0
G1 X26.28 Y-29.61 Z0.5 F720.0
G1 X28.03 Y-29.61 Z0.5 F720.0
G1 X28.03 Y27.42 Z0.5 F720.0
G1 X29.78 Y27.42 Z0.5 F720.0
G1 X29.78 Y-29.61 Z0.5 F720.0
G1 X31.54 Y-29.61 Z0.5 F720.0
G1 X31.54 Y27.42 Z0.5 F720.0
G1 X33.29 Y27.42 Z0.5 F720.0
G1 X33.29 Y-29.61 Z0.5 F720.0
G1 X35.04 Y-29.61 Z0.5 F720.0
G1 X35.04 Y27.42 Z0.5 F720.0
M103
(</layer>)
(<layer> 0.923 )
G1 X-35.06 Y0.0 Z0.92 F2880.0
M101
G1 X35.06 Y0.0 Z0.92 F2880.0
G1 X35.06 Y-1.09 Z0.92 F2880.0
G1 X-35.06 Y-1.09 Z0.92 F2880.0
G1 X-35.06 Y-2.19 Z0.92 F2880.0
G1 X35.06 Y-2.19 Z0.92 F2880.0
G1 X35.06 Y-3.29 Z0.92 F2880.0
G1 X-35.06 Y-3.29 Z0.92 F2880.0
G1 X-35.06 Y-4.38 Z0.92 F2880.0
G1 X35.06 Y-4.38 Z0.92 F2880.0
G1 X35.06 Y-5.47 Z0.92 F2880.0
G1 X-35.06 Y-5.47 Z0.92 F2880.0
G1 X-35.06 Y-6.57 Z0.92 F2880.0
G1 X35.06 Y-6.57 Z0.92 F2880.0
G1 X35.06 Y-7.67 Z0.92 F2880.0
G1 X-35.06 Y-7.67 Z0.92 F2880.0
G1 X-35.06 Y-8.76 Z0.92 F2880.0
G1 X35.06 Y-8.76 Z0.92 F2880.0
G1 X35.06 Y-9.86 Z0.92 F2880.0
G1 X-35.06 Y-9.86 Z0.92 F2880.0
G1 X-35.06 Y-10.95 Z0.92 F2880.0
G1 X35.06 Y-10.95 Z0.92 F2880.0
G1 X35.06 Y-12.04 Z0.92 F2880.0
G1 X-35.06 Y-12.04 Z0.92 F2880.0
G1 X-35.06 Y-13.14 Z0.92 F2880.0
G1 X35.06 Y-13.14 Z0.92 F2880.0
G1 X35.06 Y-14.23 Z0.92 F2880.0
G1 X-35.06 Y-14.23 Z0.92 F2880.0
G1 X-35.06 Y-15.33 Z0.92 F2880.0
G1 X35.06 Y-15.33 Z0.92 F2880.0
G1 X35.06 Y-16.43 Z0.92 F2880.0
G1 X-35.06 Y-16.43 Z0.92 F2880.0
G1 X-35.06 Y-17.52 Z0.92 F2880.0
G1 X35.06 Y-17.52 Z0.92 F2880.0
G1 X35.06 Y-18.61 Z0.92 F2880.0
G1 X-35.06 Y-18.61 Z0.92 F2880.0
G1 X-35.06 Y-19.71 Z0.92 F2880.0
G1 X35.06 Y-19.71 Z0.92 F2880.0
G1 X35.06 Y-20.8 Z0.92 F2880.0
G1 X-35.06 Y-20.8 Z0.92 F2880.0
G1 X-35.06 Y-21.9 Z0.92 F2880.0
G1 X35.06 Y-21.9 Z0.92 F2880.0
G1 X35.06 Y-23.0 Z0.92 F2880.0
G1 X-35.06 Y-23.0 Z0.92 F2880.0
G1 X-35.06 Y-24.09 Z0.92 F2880.0
G1 X35.06 Y-24.09 Z0.92 F2880.0
G1 X35.06 Y-25.18 Z0.92 F2880.0
G1 X-35.06 Y-25.18 Z0.92 F2880.0
G1 X-35.06 Y-26.28 Z0.92 F2880.0
G1 X35.06 Y-26.28 Z0.92 F2880.0
G1 X35.06 Y-27.38 Z0.92 F2880.0
G1 X-35.06 Y-27.38 Z0.92 F2880.0
G1 X-35.06 Y-28.47 Z0.92 F2880.0
G1 X35.06 Y-28.47 Z0.92 F2880.0
G1 X35.06 Y-29.57 Z0.92 F2880.0
G1 X-35.06 Y-29.57 Z0.92 F2880.0
M103
G1 X-35.06 Y1.09 Z0.92 F2880.0
M101
G1 X35.06 Y1.09 Z0.92 F2880.0
G1 X35.06 Y2.19 Z0.92 F2880.0
G1 X-35.06 Y2.19 Z0.92 F2880.0
G1 X-35.06 Y3.29 Z0.92 F2880.0
G1 X35.06 Y3.29 Z0.92 F2880.0
G1 X35.06 Y4.38 Z0.92 F2880.0
G1 X-35.06 Y4.38 Z0.92 F2880.0
G1 X-35.06 Y5.47 Z0.92 F2880.0
G1 X35.06 Y5.47 Z0.92 F2880.0
G1 X35.06 Y6.57 Z0.92 F2880.0
G1 X-35.06 Y6.57 Z0.92 F2880.0
G1 X-35.06 Y7.67 Z0.92 F2880.0
G1 X35.06 Y7.67 Z0.92 F2880.0
G1 X35.06 Y8.76 Z0.92 F2880.0
G1 X-35.06 Y8.76 Z0.92 F2880.0
G1 X-35.06 Y9.86 Z0.92 F2880.0
G1 X35.06 Y9.86 Z0.92 F2880.0
G1 X35.06 Y10.95 Z0.92 F2880.0
G1 X-35.06 Y10.95 Z0.92 F2880.0
G1 X-35.06 Y12.04 Z0.92 F2880.0
G1 X35.06 Y12.04 Z0.92 F2880.0
G1 X35.06 Y13.14 Z0.92 F2880.0
G1 X-35.06 Y13.14 Z0.92 F2880.0
G1 X-35.06 Y14.23 Z0.92 F2880.0
G1 X35.06 Y14.23 Z0.92 F2880.0
G1 X35.06 Y15.33 Z0.92 F2880.0
G1 X-35.06 Y15.33 Z0.92 F2880.0
G1 X-35.06 Y16.43 Z0.92 F2880.0
G1 X35.06 Y16.43 Z0.92 F2880.0
G1 X35.06 Y17.52 Z0.92 F2880.0
G1 X-35.06 Y17.52 Z0.92 F2880.0
G1 X-35.06 Y18.61 Z0.92 F2880.0
G1 X35.06 Y18.61 Z0.92 F2880.0
G1 X35.06 Y19.71 Z0.92 F2880.0
G1 X-35.06 Y19.71 Z0.92 F2880.0
G1 X-35.06 Y20.8 Z0.92 F2880.0
G1 X35.06 Y20.8 Z0.92 F2880.0
G1 X35.06 Y21.9 Z0.92 F2880.0
G1 X-35.06 Y21.9 Z0.92 F2880.0
G1 X-35.06 Y23.0 Z0.92 F2880.0
G1 X35.06 Y23.0 Z0.92 F2880.0
G1 X35.06 Y24.09 Z0.92 F2880.0
G1 X-35.06 Y24.09 Z0.92 F2880.0
G1 X-35.06 Y25.18 Z0.92 F2880.0
G1 X35.06 Y25.18 Z0.92 F2880.0
G1 X35.06 Y26.28 Z0.92 F2880.0
G1 X-35.06 Y26.28 Z0.92 F2880.0
G1 X-35.06 Y27.38 Z0.92 F2880.0
G1 X35.06 Y27.38 Z0.92 F2880.0
M103
(</layer>)
(<raftLayerEnd> </raftLayerEnd>)
(<layer> 1.253 )
(<surroundingLoop>)
(<boundaryPerimeter>)
(<boundaryPoint> X-25.867 Y-22.802 Z1.253 </boundaryPoint>)
(<boundaryPoint> X25.867 Y-22.802 Z1.253 </boundaryPoint>)
(<boundaryPoint> X25.867 Y20.73 Z1.253 </boundaryPoint>)
(<boundaryPoint> X-25.867 Y20.73 Z1.253 </boundaryPoint>)
(<loop> outer )
G1 X24.9 Y20.07 Z1.25 F3300.0
M101
G1 X0.0 Y20.07 Z1.25 F2880.0
G1 X-25.21 Y20.07 Z1.25 F2880.0
G1 X-25.21 Y-22.14 Z1.25 F2880.0
G1 X25.21 Y-22.14 Z1.25 F2880.0
G1 X25.21 Y20.07 Z1.25 F2880.0
G1 X24.9 Y20.07 Z1.25 F2880.0
M103
(</loop>)
(<perimeter> outer )
G1 X24.9 Y20.51 Z1.25 F3300.0
M101
G1 X0.0 Y20.51 Z1.25 F2880.0
G1 X-25.65 Y20.51 Z1.25 F2880.0
G1 X-25.65 Y-22.58 Z1.25 F2880.0
G1 X25.65 Y-22.58 Z1.25 F2880.0
G1 X25.65 Y20.51 Z1.25 F2880.0
G1 X24.9 Y20.51 Z1.25 F2880.0
M103
(</perimeter>)
(</boundaryPerimeter>)
G1 X24.71 Y-21.77 Z1.25 F3300.0
M101
G1 X24.84 Y-21.64 Z1.25 F2880.0
G1 X24.84 Y-21.02 Z1.25 F2880.0
G1 X24.09 Y-21.77 Z1.25 F2880.0
G1 X23.47 Y-21.77 Z1.25 F2880.0
G1 X24.84 Y-20.4 Z1.25 F2880.0
G1 X24.84 Y-19.78 Z1.25 F2880.0
G1 X22.85 Y-21.77 Z1.25 F2880.0
G1 X22.23 Y-21.77 Z1.25 F2880.0
G1 X24.84 Y-19.16 Z1.25 F2880.0
G1 X24.84 Y-18.54 Z1.25 F2880.0
G1 X21.61 Y-21.77 Z1.25 F2880.0
G1 X20.99 Y-21.77 Z1.25 F2880.0
G1 X24.84 Y-17.92 Z1.25 F2880.0
G1 X24.84 Y-17.3 Z1.25 F2880.0
G1 X20.37 Y-21.77 Z1.25 F2880.0
G1 X19.75 Y-21.77 Z1.25 F2880.0
G1 X24.84 Y-16.68 Z1.25 F2880.0
G1 X24.84 Y-16.06 Z1.25 F2880.0
G1 X19.13 Y-21.77 Z1.25 F2880.0
G1 X18.51 Y-21.77 Z1.25 F2880.0
G1 X24.84 Y-15.44 Z1.25 F2880.0
G1 X24.84 Y-14.82 Z1.25 F2880.0
G1 X17.89 Y-21.77 Z1.25 F2880.0
G1 X17.27 Y-21.77 Z1.25 F2880.0
G1 X24.84 Y-14.2 Z1.25 F2880.0
G1 X24.84 Y-13.58 Z1.25 F2880.0
G1 X16.65 Y-21.77 Z1.25 F2880.0
G1 X16.03 Y-21.77 Z1.25 F2880.0
G1 X24.84 Y-12.96 Z1.25 F2880.0
G1 X24.84 Y-12.35 Z1.25 F2880.0
G1 X15.41 Y-21.77 Z1.25 F2880.0
G1 X14.79 Y-21.77 Z1.25 F2880.0
G1 X24.84 Y-11.72 Z1.25 F2880.0
G1 X24.84 Y-11.11 Z1.25 F2880.0
G1 X14.17 Y-21.77 Z1.25 F2880.0
G1 X13.55 Y-21.77 Z1.25 F2880.0
G1 X24.84 Y-10.49 Z1.25 F2880.0
G1 X24.84 Y-9.87 Z1.25 F2880.0
G1 X12.93 Y-21.77 Z1.25 F2880.0
G1 X12.31 Y-21.77 Z1.25 F2880.0
G1 X24.84 Y-9.25 Z1.25 F2880.0
G1 X24.84 Y-8.63 Z1.25 F2880.0
G1 X11.69 Y-21.77 Z1.25 F2880.0
G1 X11.07 Y-21.77 Z1.25 F2880.0
G1 X24.84 Y-8.01 Z1.25 F2880.0
G1 X24.84 Y-7.39 Z1.25 F2880.0
G1 X10.45 Y-21.77 Z1.25 F2880.0
G1 X9.83 Y-21.77 Z1.25 F2880.0
G1 X24.84 Y-6.77 Z1.25 F2880.0
G1 X24.84 Y-6.15 Z1.25 F2880.0
G1 X9.21 Y-21.77 Z1.25 F2880.0
G1 X8.59 Y-21.77 Z1.25 F2880.0
G1 X24.84 Y-5.53 Z1.25 F2880.0
G1 X24.84 Y-4.91 Z1.25 F2880.0
G1 X7.97 Y-21.77 Z1.25 F2880.0
G1 X7.35 Y-21.77 Z1.25 F2880.0
G1 X24.84 Y-4.29 Z1.25 F2880.0
G1 X24.84 Y-3.67 Z1.25 F2880.0
G1 X6.73 Y-21.77 Z1.25 F2880.0
G1 X6.11 Y-21.77 Z1.25 F2880.0
G1 X24.84 Y-3.05 Z1.25 F2880.0
G1 X24.84 Y-2.43 Z1.25 F2880.0
G1 X5.5 Y-21.77 Z1.25 F2880.0
G1 X4.88 Y-21.77 Z1.25 F2880.0
G1 X24.84 Y-1.81 Z1.25 F2880.0
G1 X24.84 Y-1.19 Z1.25 F2880.0
G1 X4.25 Y-21.77 Z1.25 F2880.0
G1 X3.64 Y-21.77 Z1.25 F2880.0
G1 X24.84 Y-0.57 Z1.25 F2880.0
G1 X24.84 Y0.05 Z1.25 F2880.0
G1 X3.02 Y-21.77 Z1.25 F2880.0
G1 X2.4 Y-21.77 Z1.25 F2880.0
G1 X24.84 Y0.67 Z1.25 F2880.0
G1 X24.84 Y1.29 Z1.25 F2880.0
G1 X1.78 Y-21.77 Z1.25 F2880.0
G1 X1.16 Y-21.77 Z1.25 F2880.0
G1 X24.84 Y1.91 Z1.25 F2880.0
G1 X24.84 Y2.53 Z1.25 F2880.0
G1 X0.54 Y-21.77 Z1.25 F2880.0
G1 X-0.08 Y-21.77 Z1.25 F2880.0
G1 X24.84 Y3.15 Z1.25 F2880.0
G1 X24.84 Y3.77 Z1.25 F2880.0
G1 X-0.7 Y-21.77 Z1.25 F2880.0
G1 X-1.32 Y-21.77 Z1.25 F2880.0
G1 X24.84 Y4.39 Z1.25 F2880.0
G1 X24.84 Y5.01 Z1.25 F2880.0
G1 X-1.94 Y-21.77 Z1.25 F2880.0
G1 X-2.56 Y-21.77 Z1.25 F2880.0
G1 X24.84 Y5.63 Z1.25 F2880.0
G1 X24.84 Y6.25 Z1.25 F2880.0
G1 X-3.18 Y-21.77 Z1.25 F2880.0
G1 X-3.8 Y-21.77 Z1.25 F2880.0
G1 X24.84 Y6.87 Z1.25 F2880.0
G1 X24.84 Y7.49 Z1.25 F2880.0
G1 X-4.42 Y-21.77 Z1.25 F2880.0
G1 X-5.04 Y-21.77 Z1.25 F2880.0
G1 X24.84 Y8.11 Z1.25 F2880.0
G1 X24.84 Y8.72 Z1.25 F2880.0
G1 X-5.66 Y-21.77 Z1.25 F2880.0
G1 X-6.28 Y-21.77 Z1.25 F2880.0
G1 X24.84 Y9.35 Z1.25 F2880.0
G1 X24.84 Y9.96 Z1.25 F2880.0
G1 X-6.9 Y-21.77 Z1.25 F2880.0
G1 X-7.52 Y-21.77 Z1.25 F2880.0
G1 X24.84 Y10.58 Z1.25 F2880.0
G1 X24.84 Y11.2 Z1.25 F2880.0
G1 X-8.14 Y-21.77 Z1.25 F2880.0
G1 X-8.76 Y-21.77 Z1.25 F2880.0
G1 X24.84 Y11.82 Z1.25 F2880.0
G1 X24.84 Y12.44 Z1.25 F2880.0
G1 X-9.38 Y-21.77 Z1.25 F2880.0
G1 X-10.0 Y-21.77 Z1.25 F2880.0
G1 X24.84 Y13.06 Z1.25 F2880.0
G1 X24.84 Y13.68 Z1.25 F2880.0
G1 X-10.62 Y-21.77 Z1.25 F2880.0
G1 X-11.24 Y-21.77 Z1.25 F2880.0
G1 X24.84 Y14.3 Z1.25 F2880.0
G1 X24.84 Y14.92 Z1.25 F2880.0
G1 X-11.86 Y-21.77 Z1.25 F2880.0
G1 X-12.48 Y-21.77 Z1.25 F2880.0
G1 X24.84 Y15.54 Z1.25 F2880.0
G1 X24.84 Y16.16 Z1.25 F2880.0
G1 X-13.1 Y-21.77 Z1.25 F2880.0
G1 X-13.72 Y-21.77 Z1.25 F2880.0
G1 X24.84 Y16.78 Z1.25 F2880.0
G1 X24.84 Y17.4 Z1.25 F2880.0
G1 X-14.34 Y-21.77 Z1.25 F2880.0
G1 X-14.96 Y-21.77 Z1.25 F2880.0
G1 X24.84 Y18.02 Z1.25 F2880.0
G1 X24.84 Y18.64 Z1.25 F2880.0
G1 X-15.57 Y-21.77 Z1.25 F2880.0
G1 X-16.2 Y-21.77 Z1.25 F2880.0
G1 X24.84 Y19.26 Z1.25 F2880.0
G1 X24.66 Y19.7 Z1.25 F2880.0
G1 X-16.82 Y-21.77 Z1.25 F2880.0
G1 X-17.43 Y-21.77 Z1.25 F2880.0
G1 X24.04 Y19.7 Z1.25 F2880.0
G1 X23.42 Y19.7 Z1.25 F2880.0
G1 X-18.05 Y-21.77 Z1.25 F2880.0
G1 X-18.67 Y-21.77 Z1.25 F2880.0
G1 X22.8 Y19.7 Z1.25 F2880.0
G1 X22.18 Y19.7 Z1.25 F2880.0
G1 X-19.29 Y-21.77 Z1.25 F2880.0
G1 X-19.91 Y-21.77 Z1.25 F2880.0
G1 X21.56 Y19.7 Z1.25 F2880.0
G1 X20.94 Y19.7 Z1.25 F2880.0
G1 X-20.53 Y-21.77 Z1.25 F2880.0
G1 X-21.15 Y-21.77 Z1.25 F2880.0
G1 X20.32 Y19.7 Z1.25 F2880.0
G1 X19.7 Y19.7 Z1.25 F2880.0
G1 X-21.77 Y-21.77 Z1.25 F2880.0
G1 X-22.39 Y-21.77 Z1.25 F2880.0
G1 X19.08 Y19.7 Z1.25 F2880.0
G1 X18.46 Y19.7 Z1.25 F2880.0
G1 X-23.01 Y-21.77 Z1.25 F2880.0
G1 X-23.63 Y-21.77 Z1.25 F2880.0
G1 X17.84 Y19.7 Z1.25 F2880.0
G1 X17.22 Y19.7 Z1.25 F2880.0
G1 X-24.25 Y-21.77 Z1.25 F2880.0
G1 X-24.84 Y-21.74 Z1.25 F2880.0
G1 X16.6 Y19.7 Z1.25 F2880.0
G1 X15.98 Y19.7 Z1.25 F2880.0
G1 X-24.84 Y-21.12 Z1.25 F2880.0
G1 X-24.84 Y-20.5 Z1.25 F2880.0
G1 X15.36 Y19.7 Z1.25 F2880.0
G1 X14.74 Y19.7 Z1.25 F2880.0
G1 X-24.84 Y-19.88 Z1.25 F2880.0
G1 X-24.84 Y-19.26 Z1.25 F2880.0
G1 X14.12 Y19.7 Z1.25 F2880.0
G1 X13.5 Y19.7 Z1.25 F2880.0
G1 X-24.84 Y-18.64 Z1.25 F2880.0
G1 X-24.84 Y-18.02 Z1.25 F2880.0
G1 X12.88 Y19.7 Z1.25 F2880.0
G1 X12.26 Y19.7 Z1.25 F2880.0
G1 X-24.84 Y-17.4 Z1.25 F2880.0
G1 X-24.84 Y-16.78 Z1.25 F2880.0
G1 X11.64 Y19.7 Z1.25 F2880.0
G1 X11.03 Y19.7 Z1.25 F2880.0
G1 X-24.84 Y-16.16 Z1.25 F2880.0
G1 X-24.84 Y-15.54 Z1.25 F2880.0
G1 X10.4 Y19.7 Z1.25 F2880.0
G1 X9.79 Y19.7 Z1.25 F2880.0
G1 X-24.84 Y-14.92 Z1.25 F2880.0
G1 X-24.84 Y-14.3 Z1.25 F2880.0
G1 X9.16 Y19.7 Z1.25 F2880.0
G1 X8.55 Y19.7 Z1.25 F2880.0
G1 X-24.84 Y-13.68 Z1.25 F2880.0
G1 X-24.84 Y-13.06 Z1.25 F2880.0
G1 X7.93 Y19.7 Z1.25 F2880.0
G1 X7.31 Y19.7 Z1.25 F2880.0
G1 X-24.84 Y-12.44 Z1.25 F2880.0
G1 X-24.84 Y-11.82 Z1.25 F2880.0
G1 X6.69 Y19.7 Z1.25 F2880.0
G1 X6.07 Y19.7 Z1.25 F2880.0
G1 X-24.84 Y-11.2 Z1.25 F2880.0
G1 X-24.84 Y-10.58 Z1.25 F2880.0
G1 X5.45 Y19.7 Z1.25 F2880.0
G1 X4.83 Y19.7 Z1.25 F2880.0
G1 X-24.84 Y-9.96 Z1.25 F2880.0
G1 X-24.84 Y-9.35 Z1.25 F2880.0
G1 X4.21 Y19.7 Z1.25 F2880.0
G1 X3.59 Y19.7 Z1.25 F2880.0
G1 X-24.84 Y-8.72 Z1.25 F2880.0
G1 X-24.84 Y-8.11 Z1.25 F2880.0
G1 X2.97 Y19.7 Z1.25 F2880.0
G1 X2.35 Y19.7 Z1.25 F2880.0
G1 X-24.84 Y-7.49 Z1.25 F2880.0
G1 X-24.84 Y-6.87 Z1.25 F2880.0
G1 X1.73 Y19.7 Z1.25 F2880.0
G1 X1.11 Y19.7 Z1.25 F2880.0
G1 X-24.84 Y-6.25 Z1.25 F2880.0
G1 X-24.84 Y-5.63 Z1.25 F2880.0
G1 X0.49 Y19.7 Z1.25 F2880.0
G1 X-0.13 Y19.7 Z1.25 F2880.0
G1 X-24.84 Y-5.01 Z1.25 F2880.0
G1 X-24.84 Y-4.39 Z1.25 F2880.0
G1 X-0.75 Y19.7 Z1.25 F2880.0
G1 X-1.37 Y19.7 Z1.25 F2880.0
G1 X-24.84 Y-3.77 Z1.25 F2880.0
G1 X-24.84 Y-3.15 Z1.25 F2880.0
G1 X-1.99 Y19.7 Z1.25 F2880.0
G1 X-2.61 Y19.7 Z1.25 F2880.0
G1 X-24.84 Y-2.53 Z1.25 F2880.0
G1 X-24.84 Y-1.91 Z1.25 F2880.0
G1 X-3.23 Y19.7 Z1.25 F2880.0
G1 X-3.85 Y19.7 Z1.25 F2880.0
G1 X-24.84 Y-1.29 Z1.25 F2880.0
G1 X-24.84 Y-0.67 Z1.25 F2880.0
G1 X-4.47 Y19.7 Z1.25 F2880.0
G1 X-5.09 Y19.7 Z1.25 F2880.0
G1 X-24.84 Y-0.05 Z1.25 F2880.0
G1 X-24.84 Y0.57 Z1.25 F2880.0
G1 X-5.71 Y19.7 Z1.25 F2880.0
G1 X-6.33 Y19.7 Z1.25 F2880.0
G1 X-24.84 Y1.19 Z1.25 F2880.0
G1 X-24.84 Y1.81 Z1.25 F2880.0
G1 X-6.95 Y19.7 Z1.25 F2880.0
G1 X-7.57 Y19.7 Z1.25 F2880.0
G1 X-24.84 Y2.43 Z1.25 F2880.0
G1 X-24.84 Y3.05 Z1.25 F2880.0
G1 X-8.19 Y19.7 Z1.25 F2880.0
G1 X-8.81 Y19.7 Z1.25 F2880.0
G1 X-24.84 Y3.67 Z1.25 F2880.0
G1 X-24.84 Y4.29 Z1.25 F2880.0
G1 X-9.43 Y19.7 Z1.25 F2880.0
G1 X-10.05 Y19.7 Z1.25 F2880.0
G1 X-24.84 Y4.91 Z1.25 F2880.0
G1 X-24.84 Y5.53 Z1.25 F2880.0
G1 X-10.66 Y19.7 Z1.25 F2880.0
G1 X-11.29 Y19.7 Z1.25 F2880.0
G1 X-24.84 Y6.15 Z1.25 F2880.0
G1 X-24.84 Y6.77 Z1.25 F2880.0
G1 X-11.9 Y19.7 Z1.25 F2880.0
G1 X-12.52 Y19.7 Z1.25 F2880.0
G1 X-24.84 Y7.39 Z1.25 F2880.0
G1 X-24.84 Y8.01 Z1.25 F2880.0
G1 X-13.14 Y19.7 Z1.25 F2880.0
G1 X-13.76 Y19.7 Z1.25 F2880.0
G1 X-24.84 Y8.63 Z1.25 F2880.0
G1 X-24.84 Y9.25 Z1.25 F2880.0
G1 X-14.38 Y19.7 Z1.25 F2880.0
G1 X-15.0 Y19.7 Z1.25 F2880.0
G1 X-24.84 Y9.87 Z1.25 F2880.0
G1 X-24.84 Y10.49 Z1.25 F2880.0
G1 X-15.62 Y19.7 Z1.25 F2880.0
G1 X-16.24 Y19.7 Z1.25 F2880.0
G1 X-24.84 Y11.11 Z1.25 F2880.0
G1 X-24.84 Y11.72 Z1.25 F2880.0
G1 X-16.86 Y19.7 Z1.25 F2880.0
G1 X-17.48 Y19.7 Z1.25 F2880.0
G1 X-24.84 Y12.35 Z1.25 F2880.0
G1 X-24.84 Y12.96 Z1.25 F2880.0
G1 X-18.1 Y19.7 Z1.25 F2880.0
G1 X-18.72 Y19.7 Z1.25 F2880.0
G1 X-24.84 Y13.58 Z1.25 F2880.0
G1 X-24.84 Y14.2 Z1.25 F2880.0
G1 X-19.34 Y19.7 Z1.25 F2880.0
G1 X-19.96 Y19.7 Z1.25 F2880.0
G1 X-24.84 Y14.82 Z1.25 F2880.0
G1 X-24.84 Y15.44 Z1.25 F2880.0
G1 X-20.58 Y19.7 Z1.25 F2880.0
G1 X-21.2 Y19.7 Z1.25 F2880.0
G1 X-24.84 Y16.06 Z1.25 F2880.0
G1 X-24.84 Y16.68 Z1.25 F2880.0
G1 X-21.82 Y19.7 Z1.25 F2880.0
G1 X-22.44 Y19.7 Z1.25 F2880.0
G1 X-24.84 Y17.3 Z1.25 F2880.0
G1 X-24.84 Y17.92 Z1.25 F2880.0
G1 X-23.06 Y19.7 Z1.25 F2880.0
G1 X-23.68 Y19.7 Z1.25 F2880.0
G1 X-24.84 Y18.54 Z1.25 F2880.0
G1 X-24.84 Y19.16 Z1.25 F2880.0
G1 X-24.3 Y19.7 Z1.25 F2880.0
M103
(</surroundingLoop>)
(</layer>)
(<layer> 1.565 )
(<surroundingLoop>)
(<boundaryPerimeter>)
(<boundaryPoint> X-25.867 Y-22.802 Z1.565 </boundaryPoint>)
(<boundaryPoint> X25.867 Y-22.802 Z1.565 </boundaryPoint>)
(<boundaryPoint> X25.867 Y20.73 Z1.565 </boundaryPoint>)
(<boundaryPoint> X-25.867 Y20.73 Z1.565 </boundaryPoint>)
(<loop> outer )
G1 X-24.27 Y19.64 Z1.56 F307.309
M101
G1 X-24.3 Y19.64 Z1.56 F2880.0
G1 X-24.77 Y19.64 Z1.56 F2880.0
G1 X-24.77 Y-21.71 Z1.56 F2880.0
G1 X24.77 Y-21.71 Z1.56 F2880.0
G1 X24.77 Y19.64 Z1.56 F2880.0
G1 X-24.27 Y19.64 Z1.56 F2880.0
M103
(</loop>)
(<loop> outer )
G1 X-24.3 Y20.07 Z1.56 F3300.0
M101
G1 X-25.21 Y20.07 Z1.56 F2880.0
G1 X-25.21 Y-22.14 Z1.56 F2880.0
G1 X25.21 Y-22.14 Z1.56 F2880.0
G1 X25.21 Y20.07 Z1.56 F2880.0
G1 X-24.3 Y20.07 Z1.56 F2880.0
M103
(</loop>)
(<perimeter> outer )
G1 X-24.3 Y20.51 Z1.56 F3300.0
M101
G1 X-25.65 Y20.51 Z1.56 F2880.0
G1 X-25.65 Y-22.58 Z1.56 F2880.0
G1 X25.65 Y-22.58 Z1.56 F2880.0
G1 X25.65 Y20.51 Z1.56 F2880.0
G1 X-24.3 Y20.51 Z1.56 F2880.0
M103
(</perimeter>)
(</boundaryPerimeter>)
G1 X24.4 Y18.98 Z1.56 F3300.0
M101
G1 X24.12 Y19.26 Z1.56 F2880.0
G1 X23.5 Y19.26 Z1.56 F2880.0
G1 X24.4 Y18.36 Z1.56 F2880.0
G1 X24.4 Y17.74 Z1.56 F2880.0
G1 X22.88 Y19.26 Z1.56 F2880.0
G1 X22.26 Y19.26 Z1.56 F2880.0
G1 X24.4 Y17.12 Z1.56 F2880.0
G1 X24.4 Y16.5 Z1.56 F2880.0
G1 X21.64 Y19.26 Z1.56 F2880.0
G1 X21.02 Y19.26 Z1.56 F2880.0
G1 X24.4 Y15.88 Z1.56 F2880.0
G1 X24.4 Y15.26 Z1.56 F2880.0
G1 X20.4 Y19.26 Z1.56 F2880.0
G1 X19.78 Y19.26 Z1.56 F2880.0
G1 X24.4 Y14.64 Z1.56 F2880.0
G1 X24.4 Y14.02 Z1.56 F2880.0
G1 X19.16 Y19.26 Z1.56 F2880.0
G1 X18.54 Y19.26 Z1.56 F2880.0
G1 X24.4 Y13.4 Z1.56 F2880.0
G1 X24.4 Y12.78 Z1.56 F2880.0
G1 X17.92 Y19.26 Z1.56 F2880.0
G1 X17.3 Y19.26 Z1.56 F2880.0
G1 X24.4 Y12.16 Z1.56 F2880.0
G1 X24.4 Y11.54 Z1.56 F2880.0
G1 X16.68 Y19.26 Z1.56 F2880.0
G1 X16.06 Y19.26 Z1.56 F2880.0
G1 X24.4 Y10.92 Z1.56 F2880.0
G1 X24.4 Y10.3 Z1.56 F2880.0
G1 X15.44 Y19.26 Z1.56 F2880.0
G1 X14.82 Y19.26 Z1.56 F2880.0
G1 X24.4 Y9.69 Z1.56 F2880.0
G1 X24.4 Y9.06 Z1.56 F2880.0
G1 X14.2 Y19.26 Z1.56 F2880.0
G1 X13.58 Y19.26 Z1.56 F2880.0
G1 X24.4 Y8.45 Z1.56 F2880.0
G1 X24.4 Y7.83 Z1.56 F2880.0
G1 X12.96 Y19.26 Z1.56 F2880.0
G1 X12.34 Y19.26 Z1.56 F2880.0
G1 X24.4 Y7.21 Z1.56 F2880.0
G1 X24.4 Y6.59 Z1.56 F2880.0
G1 X11.72 Y19.26 Z1.56 F2880.0
G1 X11.1 Y19.26 Z1.56 F2880.0
G1 X24.4 Y5.97 Z1.56 F2880.0
G1 X24.4 Y5.35 Z1.56 F2880.0
G1 X10.48 Y19.26 Z1.56 F2880.0
G1 X9.86 Y19.26 Z1.56 F2880.0
G1 X24.4 Y4.73 Z1.56 F2880.0
G1 X24.4 Y4.11 Z1.56 F2880.0
G1 X9.24 Y19.26 Z1.56 F2880.0
G1 X8.63 Y19.26 Z1.56 F2880.0
G1 X24.4 Y3.49 Z1.56 F2880.0
G1 X24.4 Y2.87 Z1.56 F2880.0
G1 X8.01 Y19.26 Z1.56 F2880.0
G1 X7.38 Y19.26 Z1.56 F2880.0
G1 X24.4 Y2.25 Z1.56 F2880.0
G1 X24.4 Y1.63 Z1.56 F2880.0
G1 X6.77 Y19.26 Z1.56 F2880.0
G1 X6.15 Y19.26 Z1.56 F2880.0
G1 X24.4 Y1.01 Z1.56 F2880.0
G1 X24.4 Y0.39 Z1.56 F2880.0
G1 X5.53 Y19.26 Z1.56 F2880.0
G1 X4.91 Y19.26 Z1.56 F2880.0
G1 X24.4 Y-0.23 Z1.56 F2880.0
G1 X24.4 Y-0.85 Z1.56 F2880.0
G1 X4.29 Y19.26 Z1.56 F2880.0
G1 X3.67 Y19.26 Z1.56 F2880.0
G1 X24.4 Y-1.47 Z1.56 F2880.0
G1 X24.4 Y-2.09 Z1.56 F2880.0
G1 X3.05 Y19.26 Z1.56 F2880.0
G1 X2.43 Y19.26 Z1.56 F2880.0
G1 X24.4 Y-2.71 Z1.56 F2880.0
G1 X24.4 Y-3.33 Z1.56 F2880.0
G1 X1.81 Y19.26 Z1.56 F2880.0
G1 X1.19 Y19.26 Z1.56 F2880.0
G1 X24.4 Y-3.95 Z1.56 F2880.0
G1 X24.4 Y-4.57 Z1.56 F2880.0
G1 X0.57 Y19.26 Z1.56 F2880.0
G1 X-0.05 Y19.26 Z1.56 F2880.0
G1 X24.4 Y-5.19 Z1.56 F2880.0
G1 X24.4 Y-5.81 Z1.56 F2880.0
G1 X-0.67 Y19.26 Z1.56 F2880.0
G1 X-1.29 Y19.26 Z1.56 F2880.0
G1 X24.4 Y-6.43 Z1.56 F2880.0
G1 X24.4 Y-7.05 Z1.56 F2880.0
G1 X-1.91 Y19.26 Z1.56 F2880.0
G1 X-2.53 Y19.26 Z1.56 F2880.0
G1 X24.4 Y-7.67 Z1.56 F2880.0
G1 X24.4 Y-8.29 Z1.56 F2880.0
G1 X-3.15 Y19.26 Z1.56 F2880.0
G1 X-3.77 Y19.26 Z1.56 F2880.0
G1 X24.4 Y-8.91 Z1.56 F2880.0
G1 X24.4 Y-9.53 Z1.56 F2880.0
G1 X-4.39 Y19.26 Z1.56 F2880.0
G1 X-5.01 Y19.26 Z1.56 F2880.0
G1 X24.4 Y-10.15 Z1.56 F2880.0
G1 X24.4 Y-10.77 Z1.56 F2880.0
G1 X-5.63 Y19.26 Z1.56 F2880.0
G1 X-6.25 Y19.26 Z1.56 F2880.0
G1 X24.4 Y-11.38 Z1.56 F2880.0
G1 X24.4 Y-12.01 Z1.56 F2880.0
G1 X-6.87 Y19.26 Z1.56 F2880.0
G1 X-7.49 Y19.26 Z1.56 F2880.0
G1 X24.4 Y-12.63 Z1.56 F2880.0
G1 X24.4 Y-13.24 Z1.56 F2880.0
G1 X-8.11 Y19.26 Z1.56 F2880.0
G1 X-8.73 Y19.26 Z1.56 F2880.0
G1 X24.4 Y-13.86 Z1.56 F2880.0
G1 X24.4 Y-14.48 Z1.56 F2880.0
G1 X-9.35 Y19.26 Z1.56 F2880.0
G1 X-9.97 Y19.26 Z1.56 F2880.0
G1 X24.4 Y-15.1 Z1.56 F2880.0
G1 X24.4 Y-15.72 Z1.56 F2880.0
G1 X-10.59 Y19.26 Z1.56 F2880.0
G1 X-11.21 Y19.26 Z1.56 F2880.0
G1 X24.4 Y-16.34 Z1.56 F2880.0
G1 X24.4 Y-16.96 Z1.56 F2880.0
G1 X-11.83 Y19.26 Z1.56 F2880.0
G1 X-12.45 Y19.26 Z1.56 F2880.0
G1 X24.4 Y-17.58 Z1.56 F2880.0
G1 X24.4 Y-18.2 Z1.56 F2880.0
G1 X-13.06 Y19.26 Z1.56 F2880.0
G1 X-13.69 Y19.26 Z1.56 F2880.0
G1 X24.4 Y-18.82 Z1.56 F2880.0
G1 X24.4 Y-19.44 Z1.56 F2880.0
G1 X-14.3 Y19.26 Z1.56 F2880.0
G1 X-14.92 Y19.26 Z1.56 F2880.0
G1 X24.4 Y-20.06 Z1.56 F2880.0
G1 X24.4 Y-20.68 Z1.56 F2880.0
G1 X-15.54 Y19.26 Z1.56 F2880.0
G1 X-16.16 Y19.26 Z1.56 F2880.0
G1 X24.4 Y-21.3 Z1.56 F2880.0
G1 X23.81 Y-21.33 Z1.56 F2880.0
G1 X-16.78 Y19.26 Z1.56 F2880.0
G1 X-17.4 Y19.26 Z1.56 F2880.0
G1 X23.19 Y-21.33 Z1.56 F2880.0
G1 X22.57 Y-21.33 Z1.56 F2880.0
G1 X-18.02 Y19.26 Z1.56 F2880.0
G1 X-18.64 Y19.26 Z1.56 F2880.0
G1 X21.95 Y-21.33 Z1.56 F2880.0
G1 X21.33 Y-21.33 Z1.56 F2880.0
G1 X-19.26 Y19.26 Z1.56 F2880.0
G1 X-19.88 Y19.26 Z1.56 F2880.0
G1 X20.71 Y-21.33 Z1.56 F2880.0
G1 X20.09 Y-21.33 Z1.56 F2880.0
G1 X-20.5 Y19.26 Z1.56 F2880.0
G1 X-21.12 Y19.26 Z1.56 F2880.0
G1 X19.48 Y-21.33 Z1.56 F2880.0
G1 X18.86 Y-21.33 Z1.56 F2880.0
G1 X-21.74 Y19.26 Z1.56 F2880.0
G1 X-22.36 Y19.26 Z1.56 F2880.0
G1 X18.24 Y-21.33 Z1.56 F2880.0
G1 X17.62 Y-21.33 Z1.56 F2880.0
G1 X-22.98 Y19.26 Z1.56 F2880.0
G1 X-23.6 Y19.26 Z1.56 F2880.0
G1 X17.0 Y-21.33 Z1.56 F2880.0
G1 X16.38 Y-21.33 Z1.56 F2880.0
G1 X-24.22 Y19.26 Z1.56 F2880.0
G1 X-24.4 Y18.82 Z1.56 F2880.0
G1 X15.76 Y-21.33 Z1.56 F2880.0
G1 X15.14 Y-21.33 Z1.56 F2880.0
G1 X-24.4 Y18.2 Z1.56 F2880.0
G1 X-24.4 Y17.58 Z1.56 F2880.0
G1 X14.52 Y-21.33 Z1.56 F2880.0
G1 X13.9 Y-21.33 Z1.56 F2880.0
G1 X-24.4 Y16.96 Z1.56 F2880.0
G1 X-24.4 Y16.34 Z1.56 F2880.0
G1 X13.28 Y-21.33 Z1.56 F2880.0
G1 X12.66 Y-21.33 Z1.56 F2880.0
G1 X-24.4 Y15.72 Z1.56 F2880.0
G1 X-24.4 Y15.1 Z1.56 F2880.0
G1 X12.04 Y-21.33 Z1.56 F2880.0
G1 X11.42 Y-21.33 Z1.56 F2880.0
G1 X-24.4 Y14.48 Z1.56 F2880.0
G1 X-24.4 Y13.86 Z1.56 F2880.0
G1 X10.8 Y-21.33 Z1.56 F2880.0
G1 X10.18 Y-21.33 Z1.56 F2880.0
G1 X-24.4 Y13.24 Z1.56 F2880.0
G1 X-24.4 Y12.63 Z1.56 F2880.0
G1 X9.56 Y-21.33 Z1.56 F2880.0
G1 X8.94 Y-21.33 Z1.56 F2880.0
G1 X-24.4 Y12.01 Z1.56 F2880.0
G1 X-24.4 Y11.38 Z1.56 F2880.0
G1 X8.32 Y-21.33 Z1.56 F2880.0
G1 X7.7 Y-21.33 Z1.56 F2880.0
G1 X-24.4 Y10.77 Z1.56 F2880.0
G1 X-24.4 Y10.15 Z1.56 F2880.0
G1 X7.08 Y-21.33 Z1.56 F2880.0
G1 X6.46 Y-21.33 Z1.56 F2880.0
G1 X-24.4 Y9.53 Z1.56 F2880.0
G1 X-24.4 Y8.91 Z1.56 F2880.0
G1 X5.84 Y-21.33 Z1.56 F2880.0
G1 X5.22 Y-21.33 Z1.56 F2880.0
G1 X-24.4 Y8.29 Z1.56 F2880.0
G1 X-24.4 Y7.67 Z1.56 F2880.0
G1 X4.6 Y-21.33 Z1.56 F2880.0
G1 X3.98 Y-21.33 Z1.56 F2880.0
G1 X-24.4 Y7.05 Z1.56 F2880.0
G1 X-24.4 Y6.43 Z1.56 F2880.0
G1 X3.36 Y-21.33 Z1.56 F2880.0
G1 X2.74 Y-21.33 Z1.56 F2880.0
G1 X-24.4 Y5.81 Z1.56 F2880.0
G1 X-24.4 Y5.19 Z1.56 F2880.0
G1 X2.12 Y-21.33 Z1.56 F2880.0
G1 X1.5 Y-21.33 Z1.56 F2880.0
G1 X-24.4 Y4.57 Z1.56 F2880.0
G1 X-24.4 Y3.95 Z1.56 F2880.0
G1 X0.88 Y-21.33 Z1.56 F2880.0
G1 X0.26 Y-21.33 Z1.56 F2880.0
G1 X-24.4 Y3.33 Z1.56 F2880.0
G1 X-24.4 Y2.71 Z1.56 F2880.0
G1 X-0.36 Y-21.33 Z1.56 F2880.0
G1 X-0.97 Y-21.33 Z1.56 F2880.0
G1 X-24.4 Y2.09 Z1.56 F2880.0
G1 X-24.4 Y1.47 Z1.56 F2880.0
G1 X-1.59 Y-21.33 Z1.56 F2880.0
G1 X-2.21 Y-21.33 Z1.56 F2880.0
G1 X-24.4 Y0.85 Z1.56 F2880.0
G1 X-24.4 Y0.23 Z1.56 F2880.0
G1 X-2.83 Y-21.33 Z1.56 F2880.0
G1 X-3.45 Y-21.33 Z1.56 F2880.0
G1 X-24.4 Y-0.39 Z1.56 F2880.0
G1 X-24.4 Y-1.01 Z1.56 F2880.0
G1 X-4.07 Y-21.33 Z1.56 F2880.0
G1 X-4.69 Y-21.33 Z1.56 F2880.0
G1 X-24.4 Y-1.63 Z1.56 F2880.0
G1 X-24.4 Y-2.25 Z1.56 F2880.0
G1 X-5.31 Y-21.33 Z1.56 F2880.0
G1 X-5.93 Y-21.33 Z1.56 F2880.0
G1 X-24.4 Y-2.87 Z1.56 F2880.0
G1 X-24.4 Y-3.49 Z1.56 F2880.0
G1 X-6.55 Y-21.33 Z1.56 F2880.0
G1 X-7.17 Y-21.33 Z1.56 F2880.0
G1 X-24.4 Y-4.11 Z1.56 F2880.0
G1 X-24.4 Y-4.73 Z1.56 F2880.0
G1 X-7.79 Y-21.33 Z1.56 F2880.0
G1 X-8.41 Y-21.33 Z1.56 F2880.0
G1 X-24.4 Y-5.35 Z1.56 F2880.0
G1 X-24.4 Y-5.97 Z1.56 F2880.0
G1 X-9.03 Y-21.33 Z1.56 F2880.0
G1 X-9.65 Y-21.33 Z1.56 F2880.0
G1 X-24.4 Y-6.59 Z1.56 F2880.0
G1 X-24.4 Y-7.21 Z1.56 F2880.0
G1 X-10.27 Y-21.33 Z1.56 F2880.0
G1 X-10.89 Y-21.33 Z1.56 F2880.0
G1 X-24.4 Y-7.83 Z1.56 F2880.0
G1 X-24.4 Y-8.45 Z1.56 F2880.0
G1 X-11.51 Y-21.33 Z1.56 F2880.0
G1 X-12.13 Y-21.33 Z1.56 F2880.0
G1 X-24.4 Y-9.06 Z1.56 F2880.0
G1 X-24.4 Y-9.69 Z1.56 F2880.0
G1 X-12.75 Y-21.33 Z1.56 F2880.0
G1 X-13.37 Y-21.33 Z1.56 F2880.0
G1 X-24.4 Y-10.3 Z1.56 F2880.0
G1 X-24.4 Y-10.92 Z1.56 F2880.0
G1 X-13.99 Y-21.33 Z1.56 F2880.0
G1 X-14.61 Y-21.33 Z1.56 F2880.0
G1 X-24.4 Y-11.54 Z1.56 F2880.0
G1 X-24.4 Y-12.16 Z1.56 F2880.0
G1 X-15.23 Y-21.33 Z1.56 F2880.0
G1 X-15.85 Y-21.33 Z1.56 F2880.0
G1 X-24.4 Y-12.78 Z1.56 F2880.0
G1 X-24.4 Y-13.4 Z1.56 F2880.0
G1 X-16.47 Y-21.33 Z1.56 F2880.0
G1 X-17.09 Y-21.33 Z1.56 F2880.0
G1 X-24.4 Y-14.02 Z1.56 F2880.0
G1 X-24.4 Y-14.64 Z1.56 F2880.0
G1 X-17.71 Y-21.33 Z1.56 F2880.0
G1 X-18.33 Y-21.33 Z1.56 F2880.0
G1 X-24.4 Y-15.26 Z1.56 F2880.0
G1 X-24.4 Y-15.88 Z1.56 F2880.0
G1 X-18.95 Y-21.33 Z1.56 F2880.0
G1 X-19.57 Y-21.33 Z1.56 F2880.0
G1 X-24.4 Y-16.5 Z1.56 F2880.0
G1 X-24.4 Y-17.12 Z1.56 F2880.0
G1 X-20.19 Y-21.33 Z1.56 F2880.0
G1 X-20.81 Y-21.33 Z1.56 F2880.0
G1 X-24.4 Y-17.74 Z1.56 F2880.0
G1 X-24.4 Y-18.36 Z1.56 F2880.0
G1 X-21.43 Y-21.33 Z1.56 F2880.0
G1 X-22.05 Y-21.33 Z1.56 F2880.0
G1 X-24.4 Y-18.98 Z1.56 F2880.0
G1 X-24.4 Y-19.6 Z1.56 F2880.0
G1 X-22.66 Y-21.33 Z1.56 F2880.0
G1 X-23.29 Y-21.33 Z1.56 F2880.0
G1 X-24.4 Y-20.22 Z1.56 F2880.0
G1 X-24.4 Y-20.84 Z1.56 F2880.0
G1 X-23.9 Y-21.33 Z1.56 F2880.0
M103
(</surroundingLoop>)
(</layer>)
(<operatingLayerEnd> </operatingLayerEnd>)
(<layer> 1.878 )
(<surroundingLoop>)
(<boundaryPerimeter>)
(<boundaryPoint> X-25.867 Y-22.802 Z1.878 </boundaryPoint>)
(<boundaryPoint> X25.867 Y-22.802 Z1.878 </boundaryPoint>)
(<boundaryPoint> X25.867 Y20.73 Z1.878 </boundaryPoint>)
(<boundaryPoint> X-25.867 Y20.73 Z1.878 </boundaryPoint>)
(<loop> outer )
G1 X-24.26 Y-22.14 Z1.88 F901.453
M101
G1 X-23.9 Y-22.14 Z1.88 F2880.0
G1 X25.21 Y-22.14 Z1.88 F2880.0
G1 X25.21 Y20.07 Z1.88 F2880.0
G1 X-25.21 Y20.07 Z1.88 F2880.0
G1 X-25.21 Y-22.14 Z1.88 F2880.0
G1 X-24.26 Y-22.14 Z1.88 F2880.0
M103
(</loop>)
(<perimeter> outer )
G1 X-24.26 Y-22.58 Z1.88 F3300.0
M101
G1 X-23.9 Y-22.58 Z1.88 F2880.0
G1 X25.65 Y-22.58 Z1.88 F2880.0
G1 X25.65 Y20.51 Z1.88 F2880.0
G1 X-25.65 Y20.51 Z1.88 F2880.0
G1 X-25.65 Y-22.58 Z1.88 F2880.0
G1 X-24.26 Y-22.58 Z1.88 F2880.0
M103
(</perimeter>)
(</boundaryPerimeter>)
G1 X24.71 Y-21.77 Z1.88 F3300.0
M101
G1 X24.84 Y-21.64 Z1.88 F2880.0
G1 X24.84 Y-21.02 Z1.88 F2880.0
G1 X24.09 Y-21.77 Z1.88 F2880.0
G1 X23.47 Y-21.77 Z1.88 F2880.0
G1 X24.84 Y-20.4 Z1.88 F2880.0
G1 X24.84 Y-19.78 Z1.88 F2880.0
G1 X22.85 Y-21.77 Z1.88 F2880.0
G1 X22.23 Y-21.77 Z1.88 F2880.0
G1 X24.84 Y-19.16 Z1.88 F2880.0
G1 X24.84 Y-18.54 Z1.88 F2880.0
G1 X21.61 Y-21.77 Z1.88 F2880.0
G1 X20.99 Y-21.77 Z1.88 F2880.0
G1 X24.84 Y-17.92 Z1.88 F2880.0
G1 X24.84 Y-17.3 Z1.88 F2880.0
G1 X20.37 Y-21.77 Z1.88 F2880.0
G1 X19.75 Y-21.77 Z1.88 F2880.0
G1 X24.84 Y-16.68 Z1.88 F2880.0
G1 X24.84 Y-16.06 Z1.88 F2880.0
G1 X19.13 Y-21.77 Z1.88 F2880.0
G1 X18.51 Y-21.77 Z1.88 F2880.0
G1 X24.84 Y-15.44 Z1.88 F2880.0
G1 X24.84 Y-14.82 Z1.88 F2880.0
G1 X17.89 Y-21.77 Z1.88 F2880.0
G1 X17.27 Y-21.77 Z1.88 F2880.0
G1 X24.84 Y-14.2 Z1.88 F2880.0
G1 X24.84 Y-13.58 Z1.88 F2880.0
G1 X16.65 Y-21.77 Z1.88 F2880.0
G1 X16.03 Y-21.77 Z1.88 F2880.0
G1 X24.84 Y-12.96 Z1.88 F2880.0
G1 X24.84 Y-12.35 Z1.88 F2880.0
G1 X15.41 Y-21.77 Z1.88 F2880.0
G1 X14.79 Y-21.77 Z1.88 F2880.0
G1 X24.84 Y-11.72 Z1.88 F2880.0
G1 X24.84 Y-11.11 Z1.88 F2880.0
G1 X14.17 Y-21.77 Z1.88 F2880.0
G1 X13.55 Y-21.77 Z1.88 F2880.0
G1 X24.84 Y-10.49 Z1.88 F2880.0
G1 X24.84 Y-9.87 Z1.88 F2880.0
G1 X12.93 Y-21.77 Z1.88 F2880.0
G1 X12.31 Y-21.77 Z1.88 F2880.0
G1 X24.84 Y-9.25 Z1.88 F2880.0
G1 X24.84 Y-8.63 Z1.88 F2880.0
G1 X11.69 Y-21.77 Z1.88 F2880.0
G1 X11.07 Y-21.77 Z1.88 F2880.0
G1 X24.84 Y-8.01 Z1.88 F2880.0
G1 X24.84 Y-7.39 Z1.88 F2880.0
G1 X10.45 Y-21.77 Z1.88 F2880.0
G1 X9.83 Y-21.77 Z1.88 F2880.0
G1 X24.84 Y-6.77 Z1.88 F2880.0
G1 X24.84 Y-6.15 Z1.88 F2880.0
G1 X9.21 Y-21.77 Z1.88 F2880.0
G1 X8.59 Y-21.77 Z1.88 F2880.0
G1 X24.84 Y-5.53 Z1.88 F2880.0
G1 X24.84 Y-4.91 Z1.88 F2880.0
G1 X7.97 Y-21.77 Z1.88 F2880.0
G1 X7.35 Y-21.77 Z1.88 F2880.0
G1 X24.84 Y-4.29 Z1.88 F2880.0
G1 X24.84 Y-3.67 Z1.88 F2880.0
G1 X6.73 Y-21.77 Z1.88 F2880.0
G1 X6.11 Y-21.77 Z1.88 F2880.0
G1 X24.84 Y-3.05 Z1.88 F2880.0
G1 X24.84 Y-2.43 Z1.88 F2880.0
G1 X5.5 Y-21.77 Z1.88 F2880.0
G1 X4.88 Y-21.77 Z1.88 F2880.0
G1 X24.84 Y-1.81 Z1.88 F2880.0
G1 X24.84 Y-1.19 Z1.88 F2880.0
G1 X4.25 Y-21.77 Z1.88 F2880.0
G1 X3.64 Y-21.77 Z1.88 F2880.0
G1 X24.84 Y-0.57 Z1.88 F2880.0
G1 X24.84 Y0.05 Z1.88 F2880.0
G1 X3.02 Y-21.77 Z1.88 F2880.0
G1 X2.4 Y-21.77 Z1.88 F2880.0
G1 X24.84 Y0.67 Z1.88 F2880.0
G1 X24.84 Y1.29 Z1.88 F2880.0
G1 X1.78 Y-21.77 Z1.88 F2880.0
G1 X1.16 Y-21.77 Z1.88 F2880.0
G1 X24.84 Y1.91 Z1.88 F2880.0
G1 X24.84 Y2.53 Z1.88 F2880.0
G1 X0.54 Y-21.77 Z1.88 F2880.0
G1 X-0.08 Y-21.77 Z1.88 F2880.0
G1 X24.84 Y3.15 Z1.88 F2880.0
G1 X24.84 Y3.77 Z1.88 F2880.0
G1 X-0.7 Y-21.77 Z1.88 F2880.0
G1 X-1.32 Y-21.77 Z1.88 F2880.0
G1 X24.84 Y4.39 Z1.88 F2880.0
G1 X24.84 Y5.01 Z1.88 F2880.0
G1 X-1.94 Y-21.77 Z1.88 F2880.0
G1 X-2.56 Y-21.77 Z1.88 F2880.0
G1 X24.84 Y5.63 Z1.88 F2880.0
G1 X24.84 Y6.25 Z1.88 F2880.0
G1 X-3.18 Y-21.77 Z1.88 F2880.0
G1 X-3.8 Y-21.77 Z1.88 F2880.0
G1 X24.84 Y6.87 Z1.88 F2880.0
G1 X24.84 Y7.49 Z1.88 F2880.0
G1 X-4.42 Y-21.77 Z1.88 F2880.0
G1 X-5.04 Y-21.77 Z1.88 F2880.0
G1 X24.84 Y8.11 Z1.88 F2880.0
G1 X24.84 Y8.72 Z1.88 F2880.0
G1 X-5.66 Y-21.77 Z1.88 F2880.0
G1 X-6.28 Y-21.77 Z1.88 F2880.0
G1 X24.84 Y9.35 Z1.88 F2880.0
G1 X24.84 Y9.96 Z1.88 F2880.0
G1 X-6.9 Y-21.77 Z1.88 F2880.0
G1 X-7.52 Y-21.77 Z1.88 F2880.0
G1 X24.84 Y10.58 Z1.88 F2880.0
G1 X24.84 Y11.2 Z1.88 F2880.0
G1 X-8.14 Y-21.77 Z1.88 F2880.0
G1 X-8.76 Y-21.77 Z1.88 F2880.0
G1 X24.84 Y11.82 Z1.88 F2880.0
G1 X24.84 Y12.44 Z1.88 F2880.0
G1 X-9.38 Y-21.77 Z1.88 F2880.0
G1 X-10.0 Y-21.77 Z1.88 F2880.0
G1 X24.84 Y13.06 Z1.88 F2880.0
G1 X24.84 Y13.68 Z1.88 F2880.0
G1 X-10.62 Y-21.77 Z1.88 F2880.0
G1 X-11.24 Y-21.77 Z1.88 F2880.0
G1 X24.84 Y14.3 Z1.88 F2880.0
G1 X24.84 Y14.92 Z1.88 F2880.0
G1 X-11.86 Y-21.77 Z1.88 F2880.0
G1 X-12.48 Y-21.77 Z1.88 F2880.0
G1 X24.84 Y15.54 Z1.88 F2880.0
G1 X24.84 Y16.16 Z1.88 F2880.0
G1 X-13.1 Y-21.77 Z1.88 F2880.0
G1 X-13.72 Y-21.77 Z1.88 F2880.0
G1 X24.84 Y16.78 Z1.88 F2880.0
G1 X24.84 Y17.4 Z1.88 F2880.0
G1 X-14.34 Y-21.77 Z1.88 F2880.0
G1 X-14.96 Y-21.77 Z1.88 F2880.0
G1 X24.84 Y18.02 Z1.88 F2880.0
G1 X24.84 Y18.64 Z1.88 F2880.0
G1 X-15.57 Y-21.77 Z1.88 F2880.0
G1 X-16.2 Y-21.77 Z1.88 F2880.0
G1 X24.84 Y19.26 Z1.88 F2880.0
G1 X24.66 Y19.7 Z1.88 F2880.0
G1 X-16.82 Y-21.77 Z1.88 F2880.0
G1 X-17.43 Y-21.77 Z1.88 F2880.0
G1 X24.04 Y19.7 Z1.88 F2880.0
G1 X23.42 Y19.7 Z1.88 F2880.0
G1 X-18.05 Y-21.77 Z1.88 F2880.0
G1 X-18.67 Y-21.77 Z1.88 F2880.0
G1 X22.8 Y19.7 Z1.88 F2880.0
G1 X22.18 Y19.7 Z1.88 F2880.0
G1 X-19.29 Y-21.77 Z1.88 F2880.0
G1 X-19.91 Y-21.77 Z1.88 F2880.0
G1 X21.56 Y19.7 Z1.88 F2880.0
G1 X20.94 Y19.7 Z1.88 F2880.0
G1 X-20.53 Y-21.77 Z1.88 F2880.0
G1 X-21.15 Y-21.77 Z1.88 F2880.0
G1 X20.32 Y19.7 Z1.88 F2880.0
G1 X19.7 Y19.7 Z1.88 F2880.0
G1 X-21.77 Y-21.77 Z1.88 F2880.0
G1 X-22.39 Y-21.77 Z1.88 F2880.0
G1 X19.08 Y19.7 Z1.88 F2880.0
G1 X18.46 Y19.7 Z1.88 F2880.0
G1 X-23.01 Y-21.77 Z1.88 F2880.0
G1 X-23.63 Y-21.77 Z1.88 F2880.0
G1 X17.84 Y19.7 Z1.88 F2880.0
G1 X17.22 Y19.7 Z1.88 F2880.0
G1 X-24.25 Y-21.77 Z1.88 F2880.0
G1 X-24.84 Y-21.74 Z1.88 F2880.0
G1 X16.6 Y19.7 Z1.88 F2880.0
G1 X15.98 Y19.7 Z1.88 F2880.0
G1 X-24.84 Y-21.12 Z1.88 F2880.0
G1 X-24.84 Y-20.5 Z1.88 F2880.0
G1 X15.36 Y19.7 Z1.88 F2880.0
G1 X14.74 Y19.7 Z1.88 F2880.0
G1 X-24.84 Y-19.88 Z1.88 F2880.0
G1 X-24.84 Y-19.26 Z1.88 F2880.0
G1 X14.12 Y19.7 Z1.88 F2880.0
G1 X13.5 Y19.7 Z1.88 F2880.0
G1 X-24.84 Y-18.64 Z1.88 F2880.0
G1 X-24.84 Y-18.02 Z1.88 F2880.0
G1 X12.88 Y19.7 Z1.88 F2880.0
G1 X12.26 Y19.7 Z1.88 F2880.0
G1 X-24.84 Y-17.4 Z1.88 F2880.0
G1 X-24.84 Y-16.78 Z1.88 F2880.0
G1 X11.64 Y19.7 Z1.88 F2880.0
G1 X11.03 Y19.7 Z1.88 F2880.0
G1 X-24.84 Y-16.16 Z1.88 F2880.0
G1 X-24.84 Y-15.54 Z1.88 F2880.0
G1 X10.4 Y19.7 Z1.88 F2880.0
G1 X9.79 Y19.7 Z1.88 F2880.0
G1 X-24.84 Y-14.92 Z1.88 F2880.0
G1 X-24.84 Y-14.3 Z1.88 F2880.0
G1 X9.16 Y19.7 Z1.88 F2880.0
G1 X8.55 Y19.7 Z1.88 F2880.0
G1 X-24.84 Y-13.68 Z1.88 F2880.0
G1 X-24.84 Y-13.06 Z1.88 F2880.0
G1 X7.93 Y19.7 Z1.88 F2880.0
G1 X7.31 Y19.7 Z1.88 F2880.0
G1 X-24.84 Y-12.44 Z1.88 F2880.0
G1 X-24.84 Y-11.82 Z1.88 F2880.0
G1 X6.69 Y19.7 Z1.88 F2880.0
G1 X6.07 Y19.7 Z1.88 F2880.0
G1 X-24.84 Y-11.2 Z1.88 F2880.0
G1 X-24.84 Y-10.58 Z1.88 F2880.0
G1 X5.45 Y19.7 Z1.88 F2880.0
G1 X4.83 Y19.7 Z1.88 F2880.0
G1 X-24.84 Y-9.96 Z1.88 F2880.0
G1 X-24.84 Y-9.35 Z1.88 F2880.0
G1 X4.21 Y19.7 Z1.88 F2880.0
G1 X3.59 Y19.7 Z1.88 F2880.0
G1 X-24.84 Y-8.72 Z1.88 F2880.0
G1 X-24.84 Y-8.11 Z1.88 F2880.0
G1 X2.97 Y19.7 Z1.88 F2880.0
G1 X2.35 Y19.7 Z1.88 F2880.0
G1 X-24.84 Y-7.49 Z1.88 F2880.0
G1 X-24.84 Y-6.87 Z1.88 F2880.0
G1 X1.73 Y19.7 Z1.88 F2880.0
G1 X1.11 Y19.7 Z1.88 F2880.0
G1 X-24.84 Y-6.25 Z1.88 F2880.0
G1 X-24.84 Y-5.63 Z1.88 F2880.0
G1 X0.49 Y19.7 Z1.88 F2880.0
G1 X-0.13 Y19.7 Z1.88 F2880.0
G1 X-24.84 Y-5.01 Z1.88 F2880.0
G1 X-24.84 Y-4.39 Z1.88 F2880.0
G1 X-0.75 Y19.7 Z1.88 F2880.0
G1 X-1.37 Y19.7 Z1.88 F2880.0
G1 X-24.84 Y-3.77 Z1.88 F2880.0
G1 X-24.84 Y-3.15 Z1.88 F2880.0
G1 X-1.99 Y19.7 Z1.88 F2880.0
G1 X-2.61 Y19.7 Z1.88 F2880.0
G1 X-24.84 Y-2.53 Z1.88 F2880.0
G1 X-24.84 Y-1.91 Z1.88 F2880.0
G1 X-3.23 Y19.7 Z1.88 F2880.0
G1 X-3.85 Y19.7 Z1.88 F2880.0
G1 X-24.84 Y-1.29 Z1.88 F2880.0
G1 X-24.84 Y-0.67 Z1.88 F2880.0
G1 X-4.47 Y19.7 Z1.88 F2880.0
G1 X-5.09 Y19.7 Z1.88 F2880.0
G1 X-24.84 Y-0.05 Z1.88 F2880.0
G1 X-24.84 Y0.57 Z1.88 F2880.0
G1 X-5.71 Y19.7 Z1.88 F2880.0
G1 X-6.33 Y19.7 Z1.88 F2880.0
G1 X-24.84 Y1.19 Z1.88 F2880.0
G1 X-24.84 Y1.81 Z1.88 F2880.0
G1 X-6.95 Y19.7 Z1.88 F2880.0
G1 X-7.57 Y19.7 Z1.88 F2880.0
G1 X-24.84 Y2.43 Z1.88 F2880.0
G1 X-24.84 Y3.05 Z1.88 F2880.0
G1 X-8.19 Y19.7 Z1.88 F2880.0
G1 X-8.81 Y19.7 Z1.88 F2880.0
G1 X-24.84 Y3.67 Z1.88 F2880.0
G1 X-24.84 Y4.29 Z1.88 F2880.0
G1 X-9.43 Y19.7 Z1.88 F2880.0
G1 X-10.05 Y19.7 Z1.88 F2880.0
G1 X-24.84 Y4.91 Z1.88 F2880.0
G1 X-24.84 Y5.53 Z1.88 F2880.0
G1 X-10.66 Y19.7 Z1.88 F2880.0
G1 X-11.29 Y19.7 Z1.88 F2880.0
G1 X-24.84 Y6.15 Z1.88 F2880.0
G1 X-24.84 Y6.77 Z1.88 F2880.0
G1 X-11.9 Y19.7 Z1.88 F2880.0
G1 X-12.52 Y19.7 Z1.88 F2880.0
G1 X-24.84 Y7.39 Z1.88 F2880.0
G1 X-24.84 Y8.01 Z1.88 F2880.0
G1 X-13.14 Y19.7 Z1.88 F2880.0
G1 X-13.76 Y19.7 Z1.88 F2880.0
G1 X-24.84 Y8.63 Z1.88 F2880.0
G1 X-24.84 Y9.25 Z1.88 F2880.0
G1 X-14.38 Y19.7 Z1.88 F2880.0
G1 X-15.0 Y19.7 Z1.88 F2880.0
G1 X-24.84 Y9.87 Z1.88 F2880.0
G1 X-24.84 Y10.49 Z1.88 F2880.0
G1 X-15.62 Y19.7 Z1.88 F2880.0
G1 X-16.24 Y19.7 Z1.88 F2880.0
G1 X-24.84 Y11.11 Z1.88 F2880.0
G1 X-24.84 Y11.72 Z1.88 F2880.0
G1 X-16.86 Y19.7 Z1.88 F2880.0
G1 X-17.48 Y19.7 Z1.88 F2880.0
G1 X-24.84 Y12.35 Z1.88 F2880.0
G1 X-24.84 Y12.96 Z1.88 F2880.0
G1 X-18.1 Y19.7 Z1.88 F2880.0
G1 X-18.72 Y19.7 Z1.88 F2880.0
G1 X-24.84 Y13.58 Z1.88 F2880.0
G1 X-24.84 Y14.2 Z1.88 F2880.0
G1 X-19.34 Y19.7 Z1.88 F2880.0
G1 X-19.96 Y19.7 Z1.88 F2880.0
G1 X-24.84 Y14.82 Z1.88 F2880.0
G1 X-24.84 Y15.44 Z1.88 F2880.0
G1 X-20.58 Y19.7 Z1.88 F2880.0
G1 X-21.2 Y19.7 Z1.88 F2880.0
G1 X-24.84 Y16.06 Z1.88 F2880.0
G1 X-24.84 Y16.68 Z1.88 F2880.0
G1 X-21.82 Y19.7 Z1.88 F2880.0
G1 X-22.44 Y19.7 Z1.88 F2880.0
G1 X-24.84 Y17.3 Z1.88 F2880.0
G1 X-24.84 Y17.92 Z1.88 F2880.0
G1 X-23.06 Y19.7 Z1.88 F2880.0
G1 X-23.68 Y19.7 Z1.88 F2880.0
G1 X-24.84 Y18.54 Z1.88 F2880.0
G1 X-24.84 Y19.16 Z1.88 F2880.0
G1 X-24.3 Y19.7 Z1.88 F2880.0
M103
(</surroundingLoop>)
(</layer>)
(<layer> 2.191 )
(<surroundingLoop>)
(<boundaryPerimeter>)
(<boundaryPoint> X-25.867 Y-22.802 Z2.191 </boundaryPoint>)
(<boundaryPoint> X25.867 Y-22.802 Z2.191 </boundaryPoint>)
(<boundaryPoint> X25.867 Y20.73 Z2.191 </boundaryPoint>)
(<boundaryPoint> X-25.867 Y20.73 Z2.191 </boundaryPoint>)
(<loop> outer )
G1 X-24.48 Y20.07 Z2.19 F498.238
M101
G1 X-25.21 Y20.07 Z2.19 F2880.0
G1 X-25.21 Y-22.14 Z2.19 F2880.0
G1 X25.21 Y-22.14 Z2.19 F2880.0
G1 X25.21 Y20.07 Z2.19 F2880.0
G1 X-24.3 Y20.07 Z2.19 F2880.0
G1 X-24.48 Y20.07 Z2.19 F2880.0
M103
(</loop>)
(<perimeter> outer )
G1 X-24.3 Y20.51 Z2.19 F3300.0
M101
G1 X-25.65 Y20.51 Z2.19 F2880.0
G1 X-25.65 Y-22.58 Z2.19 F2880.0
G1 X25.65 Y-22.58 Z2.19 F2880.0
G1 X25.65 Y20.51 Z2.19 F2880.0
G1 X-24.3 Y20.51 Z2.19 F2880.0
M103
(</perimeter>)
(</boundaryPerimeter>)
G1 X-16.95 Y19.7 Z2.19 F3300.0
M101
G1 X-10.75 Y19.7 Z2.19 F2880.0
G1 X-11.44 Y19.21 Z2.19 F2880.0
G1 X-14.76 Y18.21 Z2.19 F2880.0
G1 X-14.5 Y17.94 Z2.19 F2880.0
G1 X-11.89 Y17.63 Z2.19 F2880.0
G1 X-11.63 Y17.37 Z2.19 F2880.0
G1 X-11.32 Y14.76 Z2.19 F2880.0
G1 X-11.06 Y14.5 Z2.19 F2880.0
G1 X-8.45 Y14.19 Z2.19 F2880.0
G1 X-8.19 Y13.93 Z2.19 F2880.0
G1 X-7.88 Y11.32 Z2.19 F2880.0
G1 X-7.62 Y11.06 Z2.19 F2880.0
G1 X-5.01 Y10.75 Z2.19 F2880.0
G1 X-4.75 Y10.48 Z2.19 F2880.0
G1 X-4.43 Y7.88 Z2.19 F2880.0
G1 X-4.17 Y7.62 Z2.19 F2880.0
G1 X-1.57 Y7.3 Z2.19 F2880.0
G1 X-1.3 Y7.04 Z2.19 F2880.0
G1 X-0.99 Y4.43 Z2.19 F2880.0
G1 X-0.73 Y4.17 Z2.19 F2880.0
G1 X1.88 Y3.86 Z2.19 F2880.0
G1 X2.14 Y3.6 Z2.19 F2880.0
G1 X2.45 Y0.99 Z2.19 F2880.0
G1 X2.71 Y0.73 Z2.19 F2880.0
G1 X5.32 Y0.42 Z2.19 F2880.0
G1 X5.58 Y0.15 Z2.19 F2880.0
G1 X5.89 Y-2.45 Z2.19 F2880.0
G1 X6.16 Y-2.71 Z2.19 F2880.0
G1 X8.76 Y-3.02 Z2.19 F2880.0
G1 X9.03 Y-3.29 Z2.19 F2880.0
G1 X9.34 Y-5.89 Z2.19 F2880.0
G1 X9.6 Y-6.16 Z2.19 F2880.0
G1 X12.21 Y-6.47 Z2.19 F2880.0
G1 X12.47 Y-6.73 Z2.19 F2880.0
G1 X12.78 Y-9.34 Z2.19 F2880.0
G1 X13.04 Y-9.6 Z2.19 F2880.0
G1 X15.65 Y-9.91 Z2.19 F2880.0
G1 X15.91 Y-10.17 Z2.19 F2880.0
G1 X16.22 Y-12.78 Z2.19 F2880.0
G1 X16.48 Y-13.04 Z2.19 F2880.0
G1 X19.09 Y-13.35 Z2.19 F2880.0
G1 X19.35 Y-13.62 Z2.19 F2880.0
G1 X19.66 Y-16.22 Z2.19 F2880.0
G1 X19.93 Y-16.48 Z2.19 F2880.0
G1 X22.53 Y-16.8 Z2.19 F2880.0
G1 X22.8 Y-17.06 Z2.19 F2880.0
G1 X23.11 Y-19.66 Z2.19 F2880.0
G1 X23.37 Y-19.93 Z2.19 F2880.0
G1 X24.35 Y-16.57 Z2.19 F2880.0
G1 X24.35 Y-15.2 Z2.19 F2880.0
G1 X24.84 Y-15.2 Z2.19 F2880.0
G1 X24.84 Y-21.39 Z2.19 F2880.0
G1 X24.53 Y-21.77 Z2.19 F2880.0
G1 X18.33 Y-21.77 Z2.19 F2880.0
G1 X17.63 Y-18.78 Z2.19 F2880.0
G1 X17.37 Y-18.52 Z2.19 F2880.0
G1 X14.76 Y-18.21 Z2.19 F2880.0
G1 X14.5 Y-17.94 Z2.19 F2880.0
G1 X14.19 Y-15.34 Z2.19 F2880.0
G1 X13.93 Y-15.07 Z2.19 F2880.0
G1 X11.32 Y-14.76 Z2.19 F2880.0
G1 X11.06 Y-14.5 Z2.19 F2880.0
G1 X10.75 Y-11.89 Z2.19 F2880.0
G1 X10.48 Y-11.63 Z2.19 F2880.0
G1 X7.88 Y-11.32 Z2.19 F2880.0
G1 X7.62 Y-11.06 Z2.19 F2880.0
G1 X7.3 Y-8.45 Z2.19 F2880.0
G1 X7.04 Y-8.19 Z2.19 F2880.0
G1 X4.43 Y-7.88 Z2.19 F2880.0
G1 X4.17 Y-7.62 Z2.19 F2880.0
G1 X3.86 Y-5.01 Z2.19 F2880.0
G1 X3.6 Y-4.75 Z2.19 F2880.0
G1 X0.99 Y-4.43 Z2.19 F2880.0
G1 X0.73 Y-4.17 Z2.19 F2880.0
G1 X0.42 Y-1.57 Z2.19 F2880.0
G1 X0.15 Y-1.3 Z2.19 F2880.0
G1 X-2.45 Y-0.99 Z2.19 F2880.0
G1 X-2.71 Y-0.73 Z2.19 F2880.0
G1 X-3.02 Y1.88 Z2.19 F2880.0
G1 X-3.29 Y2.14 Z2.19 F2880.0
G1 X-5.89 Y2.45 Z2.19 F2880.0
G1 X-6.16 Y2.71 Z2.19 F2880.0
G1 X-6.47 Y5.32 Z2.19 F2880.0
G1 X-6.73 Y5.58 Z2.19 F2880.0
G1 X-9.34 Y5.89 Z2.19 F2880.0
G1 X-9.6 Y6.16 Z2.19 F2880.0
G1 X-9.91 Y8.76 Z2.19 F2880.0
G1 X-10.17 Y9.03 Z2.19 F2880.0
G1 X-12.78 Y9.34 Z2.19 F2880.0
G1 X-13.04 Y9.6 Z2.19 F2880.0
G1 X-13.35 Y12.21 Z2.19 F2880.0
G1 X-13.62 Y12.47 Z2.19 F2880.0
G1 X-16.22 Y12.78 Z2.19 F2880.0
G1 X-16.48 Y13.04 Z2.19 F2880.0
G1 X-16.8 Y15.65 Z2.19 F2880.0
G1 X-17.06 Y15.91 Z2.19 F2880.0
G1 X-19.66 Y16.22 Z2.19 F2880.0
G1 X-19.93 Y16.48 Z2.19 F2880.0
G1 X-17.64 Y19.7 Z2.19 F2880.0
G1 X-19.7 Y19.7 Z2.19 F2880.0
G1 X-20.24 Y19.09 Z2.19 F2880.0
G1 X-20.5 Y19.35 Z2.19 F2880.0
G1 X-20.39 Y19.7 Z2.19 F2880.0
G1 X-23.14 Y19.7 Z2.19 F2880.0
M103
G1 X-10.06 Y19.7 Z2.19 F3300.0
M101
G1 X-6.62 Y19.7 Z2.19 F2880.0
G1 X-6.73 Y19.35 Z2.19 F2880.0
G1 X-6.47 Y19.09 Z2.19 F2880.0
G1 X-5.93 Y19.7 Z2.19 F2880.0
G1 X-3.86 Y19.7 Z2.19 F2880.0
G1 X-6.16 Y16.48 Z2.19 F2880.0
G1 X-5.89 Y16.22 Z2.19 F2880.0
G1 X-3.29 Y15.91 Z2.19 F2880.0
G1 X-3.02 Y15.65 Z2.19 F2880.0
G1 X-2.71 Y13.04 Z2.19 F2880.0
G1 X-2.45 Y12.78 Z2.19 F2880.0
G1 X0.15 Y12.47 Z2.19 F2880.0
G1 X0.42 Y12.21 Z2.19 F2880.0
G1 X0.73 Y9.6 Z2.19 F2880.0
G1 X0.99 Y9.34 Z2.19 F2880.0
G1 X3.6 Y9.03 Z2.19 F2880.0
G1 X3.86 Y8.76 Z2.19 F2880.0
G1 X4.17 Y6.16 Z2.19 F2880.0
G1 X4.43 Y5.89 Z2.19 F2880.0
G1 X7.04 Y5.58 Z2.19 F2880.0
G1 X7.3 Y5.32 Z2.19 F2880.0
G1 X7.62 Y2.71 Z2.19 F2880.0
G1 X7.88 Y2.45 Z2.19 F2880.0
G1 X10.48 Y2.14 Z2.19 F2880.0
G1 X10.75 Y1.88 Z2.19 F2880.0
G1 X11.06 Y-0.73 Z2.19 F2880.0
G1 X11.32 Y-0.99 Z2.19 F2880.0
G1 X13.93 Y-1.3 Z2.19 F2880.0
G1 X14.19 Y-1.57 Z2.19 F2880.0
G1 X14.5 Y-4.17 Z2.19 F2880.0
G1 X14.76 Y-4.43 Z2.19 F2880.0
G1 X17.37 Y-4.75 Z2.19 F2880.0
G1 X17.63 Y-5.01 Z2.19 F2880.0
G1 X17.94 Y-7.62 Z2.19 F2880.0
G1 X18.21 Y-7.88 Z2.19 F2880.0
G1 X20.81 Y-8.19 Z2.19 F2880.0
G1 X21.08 Y-8.45 Z2.19 F2880.0
G1 X21.39 Y-11.06 Z2.19 F2880.0
G1 X21.65 Y-11.32 Z2.19 F2880.0
G1 X24.84 Y-8.31 Z2.19 F2880.0
G1 X24.84 Y-14.51 Z2.19 F2880.0
M103
G1 X24.84 Y-7.62 Z2.19 F3300.0
M101
G1 X24.84 Y-2.12 Z2.19 F2880.0
G1 X24.35 Y-2.8 Z2.19 F2880.0
G1 X23.37 Y-6.16 Z2.19 F2880.0
G1 X23.11 Y-5.89 Z2.19 F2880.0
G1 X22.8 Y-3.29 Z2.19 F2880.0
G1 X22.53 Y-3.02 Z2.19 F2880.0
G1 X19.93 Y-2.71 Z2.19 F2880.0
G1 X19.66 Y-2.45 Z2.19 F2880.0
G1 X19.35 Y0.15 Z2.19 F2880.0
G1 X19.09 Y0.42 Z2.19 F2880.0
G1 X16.48 Y0.73 Z2.19 F2880.0
G1 X16.22 Y0.99 Z2.19 F2880.0
G1 X15.91 Y3.6 Z2.19 F2880.0
G1 X15.65 Y3.86 Z2.19 F2880.0
G1 X13.04 Y4.17 Z2.19 F2880.0
G1 X12.78 Y4.43 Z2.19 F2880.0
G1 X12.47 Y7.04 Z2.19 F2880.0
G1 X12.21 Y7.3 Z2.19 F2880.0
G1 X9.6 Y7.62 Z2.19 F2880.0
G1 X9.34 Y7.88 Z2.19 F2880.0
G1 X9.03 Y10.48 Z2.19 F2880.0
G1 X8.76 Y10.75 Z2.19 F2880.0
G1 X6.16 Y11.06 Z2.19 F2880.0
G1 X5.89 Y11.32 Z2.19 F2880.0
G1 X5.58 Y13.93 Z2.19 F2880.0
G1 X5.32 Y14.19 Z2.19 F2880.0
G1 X2.71 Y14.5 Z2.19 F2880.0
G1 X2.45 Y14.76 Z2.19 F2880.0
G1 X2.14 Y17.37 Z2.19 F2880.0
G1 X1.88 Y17.63 Z2.19 F2880.0
G1 X-0.73 Y17.94 Z2.19 F2880.0
G1 X-0.99 Y18.21 Z2.19 F2880.0
G1 X2.33 Y19.21 Z2.19 F2880.0
G1 X3.02 Y19.7 Z2.19 F2880.0
G1 X-3.17 Y19.7 Z2.19 F2880.0
M103
G1 X3.71 Y19.7 Z2.19 F3300.0
M101
G1 X7.15 Y19.7 Z2.19 F2880.0
G1 X7.04 Y19.35 Z2.19 F2880.0
G1 X7.3 Y19.09 Z2.19 F2880.0
G1 X7.84 Y19.7 Z2.19 F2880.0
G1 X9.91 Y19.7 Z2.19 F2880.0
G1 X7.62 Y16.48 Z2.19 F2880.0
G1 X7.88 Y16.22 Z2.19 F2880.0
G1 X10.48 Y15.91 Z2.19 F2880.0
G1 X10.75 Y15.65 Z2.19 F2880.0
G1 X11.06 Y13.04 Z2.19 F2880.0
G1 X11.32 Y12.78 Z2.19 F2880.0
G1 X13.93 Y12.47 Z2.19 F2880.0
G1 X14.19 Y12.21 Z2.19 F2880.0
G1 X14.5 Y9.6 Z2.19 F2880.0
G1 X14.76 Y9.34 Z2.19 F2880.0
G1 X17.37 Y9.03 Z2.19 F2880.0
G1 X17.63 Y8.76 Z2.19 F2880.0
G1 X17.94 Y6.16 Z2.19 F2880.0
G1 X18.21 Y5.89 Z2.19 F2880.0
G1 X20.81 Y5.58 Z2.19 F2880.0
G1 X21.08 Y5.32 Z2.19 F2880.0
G1 X21.39 Y2.71 Z2.19 F2880.0
G1 X21.65 Y2.45 Z2.19 F2880.0
G1 X24.84 Y4.77 Z2.19 F2880.0
G1 X24.84 Y-1.43 Z2.19 F2880.0
M103
G1 X24.84 Y5.46 Z2.19 F3300.0
M101
G1 X24.84 Y11.66 Z2.19 F2880.0
G1 X24.35 Y10.97 Z2.19 F2880.0
G1 X23.37 Y7.62 Z2.19 F2880.0
G1 X23.11 Y7.88 Z2.19 F2880.0
G1 X22.8 Y10.48 Z2.19 F2880.0
G1 X22.53 Y10.75 Z2.19 F2880.0
G1 X19.93 Y11.06 Z2.19 F2880.0
G1 X19.66 Y11.32 Z2.19 F2880.0
G1 X19.35 Y13.93 Z2.19 F2880.0
G1 X19.09 Y14.19 Z2.19 F2880.0
G1 X16.48 Y14.5 Z2.19 F2880.0
G1 X16.22 Y14.76 Z2.19 F2880.0
G1 X15.91 Y17.37 Z2.19 F2880.0
G1 X15.65 Y17.63 Z2.19 F2880.0
G1 X13.04 Y17.94 Z2.19 F2880.0
G1 X12.78 Y18.21 Z2.19 F2880.0
G1 X16.11 Y19.21 Z2.19 F2880.0
G1 X16.79 Y19.7 Z2.19 F2880.0
G1 X10.6 Y19.7 Z2.19 F2880.0
M103
G1 X17.48 Y19.7 Z2.19 F3300.0
M101
G1 X20.93 Y19.7 Z2.19 F2880.0
G1 X20.81 Y19.35 Z2.19 F2880.0
G1 X21.08 Y19.09 Z2.19 F2880.0
G1 X21.61 Y19.7 Z2.19 F2880.0
G1 X22.99 Y19.7 Z2.19 F2880.0
G1 X21.39 Y16.48 Z2.19 F2880.0
G1 X21.65 Y16.22 Z2.19 F2880.0
G1 X24.84 Y17.85 Z2.19 F2880.0
G1 X24.84 Y12.35 Z2.19 F2880.0
M103
G1 X24.84 Y18.54 Z2.19 F3300.0
M101
G1 X24.84 Y19.23 Z2.19 F2880.0
G1 X24.37 Y19.7 Z2.19 F2880.0
G1 X23.68 Y19.7 Z2.19 F2880.0
M103
G1 X10.76 Y-21.77 Z2.19 F3300.0
M101
G1 X17.64 Y-21.77 Z2.19 F2880.0
G1 X16.95 Y-21.29 Z2.19 F2880.0
G1 X15.57 Y-21.29 Z2.19 F2880.0
G1 X12.47 Y-20.5 Z2.19 F2880.0
G1 X12.21 Y-20.24 Z2.19 F2880.0
G1 X9.6 Y-19.93 Z2.19 F2880.0
G1 X9.34 Y-19.66 Z2.19 F2880.0
G1 X9.03 Y-17.06 Z2.19 F2880.0
G1 X8.76 Y-16.8 Z2.19 F2880.0
G1 X6.16 Y-16.48 Z2.19 F2880.0
G1 X5.89 Y-16.22 Z2.19 F2880.0
G1 X5.58 Y-13.62 Z2.19 F2880.0
G1 X5.32 Y-13.35 Z2.19 F2880.0
G1 X2.71 Y-13.04 Z2.19 F2880.0
G1 X2.45 Y-12.78 Z2.19 F2880.0
G1 X2.14 Y-10.17 Z2.19 F2880.0
G1 X1.88 Y-9.91 Z2.19 F2880.0
G1 X-0.73 Y-9.6 Z2.19 F2880.0
G1 X-0.99 Y-9.34 Z2.19 F2880.0
G1 X-1.3 Y-6.73 Z2.19 F2880.0
G1 X-1.57 Y-6.47 Z2.19 F2880.0
G1 X-4.17 Y-6.16 Z2.19 F2880.0
G1 X-4.43 Y-5.89 Z2.19 F2880.0
G1 X-4.75 Y-3.29 Z2.19 F2880.0
G1 X-5.01 Y-3.02 Z2.19 F2880.0
G1 X-7.62 Y-2.71 Z2.19 F2880.0
G1 X-7.88 Y-2.45 Z2.19 F2880.0
G1 X-8.19 Y0.15 Z2.19 F2880.0
G1 X-8.45 Y0.42 Z2.19 F2880.0
G1 X-11.06 Y0.73 Z2.19 F2880.0
G1 X-11.32 Y0.99 Z2.19 F2880.0
G1 X-11.63 Y3.6 Z2.19 F2880.0
G1 X-11.89 Y3.86 Z2.19 F2880.0
G1 X-14.5 Y4.17 Z2.19 F2880.0
G1 X-14.76 Y4.43 Z2.19 F2880.0
G1 X-15.07 Y7.04 Z2.19 F2880.0
G1 X-15.34 Y7.3 Z2.19 F2880.0
G1 X-17.94 Y7.62 Z2.19 F2880.0
G1 X-18.21 Y7.88 Z2.19 F2880.0
G1 X-18.52 Y10.48 Z2.19 F2880.0
G1 X-18.78 Y10.75 Z2.19 F2880.0
G1 X-21.39 Y11.06 Z2.19 F2880.0
G1 X-21.65 Y11.32 Z2.19 F2880.0
G1 X-21.96 Y13.93 Z2.19 F2880.0
G1 X-22.22 Y14.19 Z2.19 F2880.0
G1 X-23.83 Y19.7 Z2.19 F2880.0
G1 X-24.52 Y19.7 Z2.19 F2880.0
G1 X-24.84 Y19.33 Z2.19 F2880.0
G1 X-24.84 Y6.93 Z2.19 F2880.0
G1 X-23.37 Y6.16 Z2.19 F2880.0
G1 X-23.11 Y5.89 Z2.19 F2880.0
G1 X-20.5 Y5.58 Z2.19 F2880.0
G1 X-20.24 Y5.32 Z2.19 F2880.0
G1 X-19.93 Y2.71 Z2.19 F2880.0
G1 X-19.66 Y2.45 Z2.19 F2880.0
G1 X-17.06 Y2.14 Z2.19 F2880.0
G1 X-16.8 Y1.88 Z2.19 F2880.0
G1 X-16.48 Y-0.73 Z2.19 F2880.0
G1 X-16.22 Y-0.99 Z2.19 F2880.0
G1 X-13.62 Y-1.3 Z2.19 F2880.0
G1 X-13.35 Y-1.57 Z2.19 F2880.0
G1 X-13.04 Y-4.17 Z2.19 F2880.0
G1 X-12.78 Y-4.43 Z2.19 F2880.0
G1 X-10.17 Y-4.75 Z2.19 F2880.0
G1 X-9.91 Y-5.01 Z2.19 F2880.0
G1 X-9.6 Y-7.62 Z2.19 F2880.0
G1 X-9.34 Y-7.88 Z2.19 F2880.0
G1 X-6.73 Y-8.19 Z2.19 F2880.0
G1 X-6.47 Y-8.45 Z2.19 F2880.0
G1 X-6.16 Y-11.06 Z2.19 F2880.0
G1 X-5.89 Y-11.32 Z2.19 F2880.0
G1 X-3.29 Y-11.63 Z2.19 F2880.0
G1 X-3.02 Y-11.89 Z2.19 F2880.0
G1 X-2.71 Y-14.5 Z2.19 F2880.0
G1 X-2.45 Y-14.76 Z2.19 F2880.0
G1 X0.15 Y-15.07 Z2.19 F2880.0
G1 X0.42 Y-15.34 Z2.19 F2880.0
G1 X0.73 Y-17.94 Z2.19 F2880.0
G1 X0.99 Y-18.21 Z2.19 F2880.0
G1 X3.6 Y-18.52 Z2.19 F2880.0
G1 X3.86 Y-18.78 Z2.19 F2880.0
G1 X3.87 Y-21.77 Z2.19 F2880.0
G1 X10.07 Y-21.77 Z2.19 F2880.0
M103
G1 X-3.02 Y-21.77 Z2.19 F3300.0
M101
G1 X3.18 Y-21.77 Z2.19 F2880.0
G1 X3.18 Y-21.29 Z2.19 F2880.0
G1 X1.8 Y-21.29 Z2.19 F2880.0
G1 X-1.3 Y-20.5 Z2.19 F2880.0
G1 X-1.57 Y-20.24 Z2.19 F2880.0
G1 X-4.17 Y-19.93 Z2.19 F2880.0
G1 X-4.43 Y-19.66 Z2.19 F2880.0
G1 X-4.75 Y-17.06 Z2.19 F2880.0
G1 X-5.01 Y-16.8 Z2.19 F2880.0
G1 X-7.62 Y-16.48 Z2.19 F2880.0
G1 X-7.88 Y-16.22 Z2.19 F2880.0
G1 X-8.19 Y-13.62 Z2.19 F2880.0
G1 X-8.45 Y-13.35 Z2.19 F2880.0
G1 X-11.06 Y-13.04 Z2.19 F2880.0
G1 X-11.32 Y-12.78 Z2.19 F2880.0
G1 X-11.63 Y-10.17 Z2.19 F2880.0
G1 X-11.89 Y-9.91 Z2.19 F2880.0
G1 X-14.5 Y-9.6 Z2.19 F2880.0
G1 X-14.76 Y-9.34 Z2.19 F2880.0
G1 X-15.07 Y-6.73 Z2.19 F2880.0
G1 X-15.34 Y-6.47 Z2.19 F2880.0
G1 X-17.94 Y-6.16 Z2.19 F2880.0
G1 X-18.21 Y-5.89 Z2.19 F2880.0
G1 X-18.52 Y-3.29 Z2.19 F2880.0
G1 X-18.78 Y-3.02 Z2.19 F2880.0
G1 X-21.39 Y-2.71 Z2.19 F2880.0
G1 X-21.65 Y-2.45 Z2.19 F2880.0
G1 X-21.96 Y0.15 Z2.19 F2880.0
G1 X-22.22 Y0.42 Z2.19 F2880.0
G1 X-24.35 Y6.25 Z2.19 F2880.0
G1 X-24.84 Y5.56 Z2.19 F2880.0
G1 X-24.84 Y-6.84 Z2.19 F2880.0
G1 X-23.37 Y-7.62 Z2.19 F2880.0
G1 X-23.11 Y-7.88 Z2.19 F2880.0
G1 X-20.5 Y-8.19 Z2.19 F2880.0
G1 X-20.24 Y-8.45 Z2.19 F2880.0
G1 X-19.93 Y-11.06 Z2.19 F2880.0
G1 X-19.66 Y-11.32 Z2.19 F2880.0
G1 X-17.06 Y-11.63 Z2.19 F2880.0
G1 X-16.8 Y-11.89 Z2.19 F2880.0
G1 X-16.48 Y-14.5 Z2.19 F2880.0
G1 X-16.22 Y-14.76 Z2.19 F2880.0
G1 X-13.62 Y-15.07 Z2.19 F2880.0
G1 X-13.35 Y-15.34 Z2.19 F2880.0
G1 X-13.04 Y-17.94 Z2.19 F2880.0
G1 X-12.78 Y-18.21 Z2.19 F2880.0
G1 X-10.17 Y-18.52 Z2.19 F2880.0
G1 X-9.91 Y-18.78 Z2.19 F2880.0
G1 X-9.9 Y-21.77 Z2.19 F2880.0
G1 X-3.7 Y-21.77 Z2.19 F2880.0
M103
G1 X-16.1 Y-21.77 Z2.19 F3300.0
M101
G1 X-10.59 Y-21.77 Z2.19 F2880.0
G1 X-10.59 Y-21.29 Z2.19 F2880.0
G1 X-11.97 Y-21.29 Z2.19 F2880.0
G1 X-15.07 Y-20.5 Z2.19 F2880.0
G1 X-15.34 Y-20.24 Z2.19 F2880.0
G1 X-17.94 Y-19.93 Z2.19 F2880.0
G1 X-18.21 Y-19.66 Z2.19 F2880.0
G1 X-18.52 Y-17.06 Z2.19 F2880.0
G1 X-18.78 Y-16.8 Z2.19 F2880.0
G1 X-21.39 Y-16.48 Z2.19 F2880.0
G1 X-21.65 Y-16.22 Z2.19 F2880.0
G1 X-21.96 Y-13.62 Z2.19 F2880.0
G1 X-22.22 Y-13.35 Z2.19 F2880.0
G1 X-24.84 Y-13.03 Z2.19 F2880.0
G1 X-24.84 Y-7.53 Z2.19 F2880.0
M103
G1 X-24.84 Y-13.72 Z2.19 F3300.0
M101
G1 X-24.84 Y-20.61 Z2.19 F2880.0
G1 X-22.3 Y-21.29 Z2.19 F2880.0
G1 X-16.79 Y-21.29 Z2.19 F2880.0
G1 X-17.48 Y-21.77 Z2.19 F2880.0
G1 X-24.36 Y-21.77 Z2.19 F2880.0
G1 X-24.84 Y-21.3 Z2.19 F2880.0
M103
(</surroundingLoop>)
(</layer>)
(<layer> 2.502 )
(<surroundingLoop>)
(<boundaryPerimeter>)
(<boundaryPoint> X-25.867 Y-22.802 Z2.502 </boundaryPoint>)
(<boundaryPoint> X25.867 Y-22.802 Z2.502 </boundaryPoint>)
(<boundaryPoint> X25.867 Y20.73 Z2.502 </boundaryPoint>)
(<boundaryPoint> X-25.867 Y20.73 Z2.502 </boundaryPoint>)
(<loop> outer )
G1 X-25.21 Y-21.14 Z2.5 F490.876
M101
G1 X-25.21 Y-21.3 Z2.5 F2880.0
G1 X-25.21 Y-22.14 Z2.5 F2880.0
G1 X25.21 Y-22.14 Z2.5 F2880.0
G1 X25.21 Y20.07 Z2.5 F2880.0
G1 X-25.21 Y20.07 Z2.5 F2880.0
G1 X-25.21 Y-21.14 Z2.5 F2880.0
M103
(</loop>)
(<perimeter> outer )
G1 X-25.65 Y-21.3 Z2.5 F3300.0
M101
G1 X-25.65 Y-22.58 Z2.5 F2880.0
G1 X25.65 Y-22.58 Z2.5 F2880.0
G1 X25.65 Y20.51 Z2.5 F2880.0
G1 X-25.65 Y20.51 Z2.5 F2880.0
G1 X-25.65 Y-21.3 Z2.5 F2880.0
M103
(</perimeter>)
(</boundaryPerimeter>)
G1 X24.36 Y-21.77 Z2.5 F3300.0
M101
G1 X24.84 Y-21.3 Z2.5 F2880.0
G1 X24.84 Y-18.54 Z2.5 F2880.0
G1 X23.36 Y-19.91 Z2.5 F2880.0
G1 X23.67 Y-21.77 Z2.5 F2880.0
G1 X18.16 Y-21.77 Z2.5 F2880.0
G1 X23.12 Y-19.68 Z2.5 F2880.0
G1 X22.78 Y-17.05 Z2.5 F2880.0
G1 X24.84 Y-17.85 Z2.5 F2880.0
G1 X24.84 Y-11.66 Z2.5 F2880.0
G1 X22.55 Y-16.81 Z2.5 F2880.0
G1 X19.91 Y-16.47 Z2.5 F2880.0
G1 X17.62 Y-18.77 Z2.5 F2880.0
G1 X17.48 Y-21.77 Z2.5 F2880.0
G1 X11.28 Y-21.77 Z2.5 F2880.0
G1 X14.75 Y-18.19 Z2.5 F2880.0
G1 X17.38 Y-18.53 Z2.5 F2880.0
G1 X19.68 Y-16.23 Z2.5 F2880.0
G1 X19.34 Y-13.6 Z2.5 F2880.0
G1 X21.64 Y-11.31 Z2.5 F2880.0
G1 X24.84 Y-10.97 Z2.5 F2880.0
G1 X24.84 Y-4.77 Z2.5 F2880.0
G1 X21.06 Y-8.44 Z2.5 F2880.0
G1 X21.4 Y-11.07 Z2.5 F2880.0
G1 X19.1 Y-13.37 Z2.5 F2880.0
G1 X16.47 Y-13.03 Z2.5 F2880.0
G1 X14.18 Y-15.32 Z2.5 F2880.0
G1 X14.51 Y-17.96 Z2.5 F2880.0
G1 X12.22 Y-20.25 Z2.5 F2880.0
G1 X9.59 Y-19.91 Z2.5 F2880.0
G1 X10.59 Y-21.77 Z2.5 F2880.0
G1 X4.39 Y-21.77 Z2.5 F2880.0
G1 X9.35 Y-19.68 Z2.5 F2880.0
G1 X9.01 Y-17.05 Z2.5 F2880.0
G1 X11.31 Y-14.75 Z2.5 F2880.0
G1 X13.94 Y-15.09 Z2.5 F2880.0
G1 X16.23 Y-12.79 Z2.5 F2880.0
G1 X15.9 Y-10.16 Z2.5 F2880.0
G1 X18.19 Y-7.87 Z2.5 F2880.0
G1 X20.82 Y-8.2 Z2.5 F2880.0
G1 X23.12 Y-5.91 Z2.5 F2880.0
G1 X22.78 Y-3.27 Z2.5 F2880.0
G1 X24.84 Y-4.08 Z2.5 F2880.0
G1 X24.84 Y2.12 Z2.5 F2880.0
G1 X22.55 Y-3.04 Z2.5 F2880.0
G1 X19.91 Y-2.7 Z2.5 F2880.0
G1 X17.62 Y-5.0 Z2.5 F2880.0
G1 X17.96 Y-7.63 Z2.5 F2880.0
G1 X15.66 Y-9.92 Z2.5 F2880.0
G1 X13.03 Y-9.59 Z2.5 F2880.0
G1 X10.73 Y-11.88 Z2.5 F2880.0
G1 X11.07 Y-14.51 Z2.5 F2880.0
G1 X8.78 Y-16.81 Z2.5 F2880.0
G1 X6.14 Y-16.47 Z2.5 F2880.0
G1 X3.85 Y-18.77 Z2.5 F2880.0
G1 X3.7 Y-21.77 Z2.5 F2880.0
G1 X-2.49 Y-21.77 Z2.5 F2880.0
G1 X0.98 Y-18.19 Z2.5 F2880.0
G1 X3.61 Y-18.53 Z2.5 F2880.0
G1 X5.91 Y-16.23 Z2.5 F2880.0
G1 X5.57 Y-13.6 Z2.5 F2880.0
G1 X7.87 Y-11.31 Z2.5 F2880.0
G1 X10.5 Y-11.64 Z2.5 F2880.0
G1 X12.79 Y-9.35 Z2.5 F2880.0
G1 X12.46 Y-6.72 Z2.5 F2880.0
G1 X14.75 Y-4.42 Z2.5 F2880.0
G1 X17.38 Y-4.76 Z2.5 F2880.0
G1 X19.68 Y-2.46 Z2.5 F2880.0
G1 X19.34 Y0.17 Z2.5 F2880.0
G1 X21.64 Y2.46 Z2.5 F2880.0
G1 X24.84 Y2.8 Z2.5 F2880.0
G1 X24.84 Y9.0 Z2.5 F2880.0
G1 X21.06 Y5.33 Z2.5 F2880.0
G1 X21.4 Y2.7 Z2.5 F2880.0
G1 X19.1 Y0.41 Z2.5 F2880.0
G1 X16.47 Y0.74 Z2.5 F2880.0
G1 X14.18 Y-1.55 Z2.5 F2880.0
G1 X14.51 Y-4.18 Z2.5 F2880.0
G1 X12.22 Y-6.48 Z2.5 F2880.0
G1 X9.59 Y-6.14 Z2.5 F2880.0
G1 X7.29 Y-8.44 Z2.5 F2880.0
G1 X7.63 Y-11.07 Z2.5 F2880.0
G1 X5.33 Y-13.37 Z2.5 F2880.0
G1 X2.7 Y-13.03 Z2.5 F2880.0
G1 X0.41 Y-15.32 Z2.5 F2880.0
G1 X0.74 Y-17.96 Z2.5 F2880.0
G1 X-1.55 Y-20.25 Z2.5 F2880.0
G1 X-4.18 Y-19.91 Z2.5 F2880.0
G1 X-3.18 Y-21.77 Z2.5 F2880.0
G1 X-9.38 Y-21.77 Z2.5 F2880.0
G1 X-4.42 Y-19.68 Z2.5 F2880.0
G1 X-4.76 Y-17.05 Z2.5 F2880.0
G1 X-2.46 Y-14.75 Z2.5 F2880.0
G1 X0.17 Y-15.09 Z2.5 F2880.0
G1 X2.46 Y-12.79 Z2.5 F2880.0
G1 X2.13 Y-10.16 Z2.5 F2880.0
G1 X4.42 Y-7.87 Z2.5 F2880.0
G1 X7.05 Y-8.2 Z2.5 F2880.0
G1 X9.35 Y-5.91 Z2.5 F2880.0
G1 X9.01 Y-3.27 Z2.5 F2880.0
G1 X11.31 Y-0.98 Z2.5 F2880.0
G1 X13.94 Y-1.32 Z2.5 F2880.0
G1 X16.23 Y0.98 Z2.5 F2880.0
G1 X15.9 Y3.61 Z2.5 F2880.0
G1 X18.19 Y5.91 Z2.5 F2880.0
G1 X20.82 Y5.57 Z2.5 F2880.0
G1 X23.12 Y7.87 Z2.5 F2880.0
G1 X22.78 Y10.5 Z2.5 F2880.0
G1 X24.84 Y9.69 Z2.5 F2880.0
G1 X24.84 Y15.89 Z2.5 F2880.0
G1 X22.55 Y10.73 Z2.5 F2880.0
G1 X19.91 Y11.07 Z2.5 F2880.0
G1 X17.62 Y8.78 Z2.5 F2880.0
G1 X17.96 Y6.14 Z2.5 F2880.0
G1 X15.66 Y3.85 Z2.5 F2880.0
G1 X13.03 Y4.18 Z2.5 F2880.0
G1 X10.73 Y1.89 Z2.5 F2880.0
G1 X11.07 Y-0.74 Z2.5 F2880.0
G1 X8.78 Y-3.04 Z2.5 F2880.0
G1 X6.14 Y-2.7 Z2.5 F2880.0
G1 X3.85 Y-5.0 Z2.5 F2880.0
G1 X4.18 Y-7.63 Z2.5 F2880.0
G1 X1.89 Y-9.92 Z2.5 F2880.0
G1 X-0.74 Y-9.59 Z2.5 F2880.0
G1 X-3.04 Y-11.88 Z2.5 F2880.0
G1 X-2.7 Y-14.51 Z2.5 F2880.0
G1 X-5.0 Y-16.81 Z2.5 F2880.0
G1 X-7.63 Y-16.47 Z2.5 F2880.0
G1 X-9.92 Y-18.77 Z2.5 F2880.0
G1 X-10.07 Y-21.77 Z2.5 F2880.0
G1 X-16.26 Y-21.77 Z2.5 F2880.0
G1 X-12.79 Y-18.19 Z2.5 F2880.0
G1 X-10.16 Y-18.53 Z2.5 F2880.0
G1 X-7.87 Y-16.23 Z2.5 F2880.0
G1 X-8.2 Y-13.6 Z2.5 F2880.0
G1 X-5.91 Y-11.31 Z2.5 F2880.0
G1 X-3.27 Y-11.64 Z2.5 F2880.0
G1 X-0.98 Y-9.35 Z2.5 F2880.0
G1 X-1.32 Y-6.72 Z2.5 F2880.0
G1 X0.98 Y-4.42 Z2.5 F2880.0
G1 X3.61 Y-4.76 Z2.5 F2880.0
G1 X5.91 Y-2.46 Z2.5 F2880.0
G1 X5.57 Y0.17 Z2.5 F2880.0
G1 X7.87 Y2.46 Z2.5 F2880.0
G1 X10.5 Y2.13 Z2.5 F2880.0
G1 X12.79 Y4.42 Z2.5 F2880.0
G1 X12.46 Y7.05 Z2.5 F2880.0
G1 X14.75 Y9.35 Z2.5 F2880.0
G1 X17.38 Y9.01 Z2.5 F2880.0
G1 X19.68 Y11.31 Z2.5 F2880.0
G1 X19.34 Y13.94 Z2.5 F2880.0
G1 X21.64 Y16.23 Z2.5 F2880.0
G1 X24.84 Y16.57 Z2.5 F2880.0
G1 X24.84 Y19.33 Z2.5 F2880.0
G1 X24.52 Y19.7 Z2.5 F2880.0
G1 X20.39 Y19.7 Z2.5 F2880.0
G1 X20.94 Y19.22 Z2.5 F2880.0
G1 X21.4 Y16.47 Z2.5 F2880.0
G1 X19.1 Y14.18 Z2.5 F2880.0
G1 X16.35 Y14.63 Z2.5 F2880.0
G1 X14.06 Y12.34 Z2.5 F2880.0
G1 X14.51 Y9.59 Z2.5 F2880.0
G1 X12.22 Y7.29 Z2.5 F2880.0
G1 X9.47 Y7.75 Z2.5 F2880.0
G1 X7.17 Y5.45 Z2.5 F2880.0
G1 X7.63 Y2.7 Z2.5 F2880.0
G1 X5.33 Y0.41 Z2.5 F2880.0
G1 X2.58 Y0.86 Z2.5 F2880.0
G1 X0.29 Y-1.44 Z2.5 F2880.0
G1 X0.74 Y-4.18 Z2.5 F2880.0
G1 X-1.55 Y-6.48 Z2.5 F2880.0
G1 X-4.3 Y-6.03 Z2.5 F2880.0
G1 X-6.6 Y-8.32 Z2.5 F2880.0
G1 X-6.14 Y-11.07 Z2.5 F2880.0
G1 X-8.44 Y-13.37 Z2.5 F2880.0
G1 X-11.19 Y-12.91 Z2.5 F2880.0
G1 X-13.48 Y-15.21 Z2.5 F2880.0
G1 X-13.03 Y-17.96 Z2.5 F2880.0
G1 X-15.32 Y-20.25 Z2.5 F2880.0
G1 X-17.96 Y-19.91 Z2.5 F2880.0
G1 X-16.95 Y-21.77 Z2.5 F2880.0
G1 X-23.15 Y-21.77 Z2.5 F2880.0
G1 X-18.19 Y-19.68 Z2.5 F2880.0
G1 X-18.53 Y-17.05 Z2.5 F2880.0
G1 X15.9 Y17.38 Z2.5 F2880.0
G1 X19.7 Y19.7 Z2.5 F2880.0
G1 X14.19 Y19.7 Z2.5 F2880.0
G1 X15.66 Y17.62 Z2.5 F2880.0
G1 X13.03 Y17.96 Z2.5 F2880.0
G1 X10.73 Y15.66 Z2.5 F2880.0
G1 X11.07 Y13.03 Z2.5 F2880.0
G1 X8.78 Y10.73 Z2.5 F2880.0
G1 X6.14 Y11.07 Z2.5 F2880.0
G1 X3.85 Y8.78 Z2.5 F2880.0
G1 X4.18 Y6.14 Z2.5 F2880.0
G1 X1.89 Y3.85 Z2.5 F2880.0
G1 X-0.74 Y4.18 Z2.5 F2880.0
G1 X-3.04 Y1.89 Z2.5 F2880.0
G1 X-2.7 Y-0.74 Z2.5 F2880.0
G1 X-5.0 Y-3.04 Z2.5 F2880.0
G1 X-7.63 Y-2.7 Z2.5 F2880.0
G1 X-9.92 Y-5.0 Z2.5 F2880.0
G1 X-9.59 Y-7.63 Z2.5 F2880.0
G1 X-11.88 Y-9.92 Z2.5 F2880.0
G1 X-14.51 Y-9.59 Z2.5 F2880.0
G1 X-16.81 Y-11.88 Z2.5 F2880.0
G1 X-16.47 Y-14.51 Z2.5 F2880.0
G1 X-18.77 Y-16.81 Z2.5 F2880.0
G1 X-21.4 Y-16.47 Z2.5 F2880.0
G1 X-23.81 Y-18.65 Z2.5 F2880.0
G1 X-24.35 Y-21.39 Z2.5 F2880.0
G1 X-23.84 Y-21.77 Z2.5 F2880.0
G1 X-24.53 Y-21.77 Z2.5 F2880.0
G1 X-24.84 Y-20.71 Z2.5 F2880.0
G1 X-24.84 Y-15.89 Z2.5 F2880.0
G1 X-21.64 Y-16.23 Z2.5 F2880.0
G1 X-21.97 Y-13.6 Z2.5 F2880.0
G1 X-19.68 Y-11.31 Z2.5 F2880.0
G1 X-17.05 Y-11.64 Z2.5 F2880.0
G1 X-14.75 Y-9.35 Z2.5 F2880.0
G1 X-15.09 Y-6.72 Z2.5 F2880.0
G1 X-12.79 Y-4.42 Z2.5 F2880.0
G1 X-10.16 Y-4.76 Z2.5 F2880.0
G1 X-7.87 Y-2.46 Z2.5 F2880.0
G1 X-8.2 Y0.17 Z2.5 F2880.0
G1 X-5.91 Y2.46 Z2.5 F2880.0
G1 X-3.27 Y2.13 Z2.5 F2880.0
G1 X-0.98 Y4.42 Z2.5 F2880.0
G1 X-1.32 Y7.05 Z2.5 F2880.0
G1 X0.98 Y9.35 Z2.5 F2880.0
G1 X3.61 Y9.01 Z2.5 F2880.0
G1 X5.91 Y11.31 Z2.5 F2880.0
G1 X5.57 Y13.94 Z2.5 F2880.0
G1 X7.87 Y16.23 Z2.5 F2880.0
G1 X10.5 Y15.9 Z2.5 F2880.0
G1 X12.79 Y18.19 Z2.5 F2880.0
G1 X13.5 Y19.7 Z2.5 F2880.0
G1 X6.62 Y19.7 Z2.5 F2880.0
G1 X7.17 Y19.22 Z2.5 F2880.0
G1 X7.63 Y16.47 Z2.5 F2880.0
G1 X5.33 Y14.18 Z2.5 F2880.0
G1 X2.58 Y14.63 Z2.5 F2880.0
G1 X0.29 Y12.34 Z2.5 F2880.0
G1 X0.74 Y9.59 Z2.5 F2880.0
G1 X-1.55 Y7.29 Z2.5 F2880.0
G1 X-4.3 Y7.75 Z2.5 F2880.0
G1 X-6.6 Y5.45 Z2.5 F2880.0
G1 X-6.14 Y2.7 Z2.5 F2880.0
G1 X-8.44 Y0.41 Z2.5 F2880.0
G1 X-11.19 Y0.86 Z2.5 F2880.0
G1 X-13.48 Y-1.44 Z2.5 F2880.0
G1 X-13.03 Y-4.18 Z2.5 F2880.0
G1 X-15.32 Y-6.48 Z2.5 F2880.0
G1 X-17.96 Y-6.14 Z2.5 F2880.0
G1 X-20.25 Y-8.44 Z2.5 F2880.0
G1 X-19.91 Y-11.07 Z2.5 F2880.0
G1 X-22.21 Y-13.37 Z2.5 F2880.0
G1 X-24.84 Y-15.2 Z2.5 F2880.0
G1 X-24.84 Y-8.31 Z2.5 F2880.0
G1 X-23.12 Y-7.87 Z2.5 F2880.0
G1 X-20.49 Y-8.2 Z2.5 F2880.0
G1 X-18.19 Y-5.91 Z2.5 F2880.0
G1 X-18.53 Y-3.27 Z2.5 F2880.0
G1 X2.13 Y17.38 Z2.5 F2880.0
G1 X5.93 Y19.7 Z2.5 F2880.0
G1 X0.42 Y19.7 Z2.5 F2880.0
G1 X1.89 Y17.62 Z2.5 F2880.0
G1 X-0.74 Y17.96 Z2.5 F2880.0
G1 X-3.04 Y15.66 Z2.5 F2880.0
G1 X-2.7 Y13.03 Z2.5 F2880.0
G1 X-5.0 Y10.73 Z2.5 F2880.0
G1 X-7.63 Y11.07 Z2.5 F2880.0
G1 X-9.92 Y8.78 Z2.5 F2880.0
G1 X-9.59 Y6.14 Z2.5 F2880.0
G1 X-11.88 Y3.85 Z2.5 F2880.0
G1 X-14.51 Y4.18 Z2.5 F2880.0
G1 X-16.81 Y1.89 Z2.5 F2880.0
G1 X-16.47 Y-0.74 Z2.5 F2880.0
G1 X-18.77 Y-3.04 Z2.5 F2880.0
G1 X-21.4 Y-2.7 Z2.5 F2880.0
G1 X-23.69 Y-5.0 Z2.5 F2880.0
G1 X-23.36 Y-7.63 Z2.5 F2880.0
G1 X-24.84 Y-7.62 Z2.5 F2880.0
G1 X-24.84 Y-5.56 Z2.5 F2880.0
G1 X-23.93 Y-4.76 Z2.5 F2880.0
G1 X-24.84 Y-4.87 Z2.5 F2880.0
G1 X-24.84 Y-2.12 Z2.5 F2880.0
G1 X-21.64 Y-2.46 Z2.5 F2880.0
G1 X-21.97 Y0.17 Z2.5 F2880.0
G1 X-19.68 Y2.46 Z2.5 F2880.0
G1 X-17.05 Y2.13 Z2.5 F2880.0
G1 X-14.75 Y4.42 Z2.5 F2880.0
G1 X-15.09 Y7.05 Z2.5 F2880.0
G1 X-12.79 Y9.35 Z2.5 F2880.0
G1 X-10.16 Y9.01 Z2.5 F2880.0
G1 X-7.87 Y11.31 Z2.5 F2880.0
G1 X-8.2 Y13.94 Z2.5 F2880.0
G1 X-5.91 Y16.23 Z2.5 F2880.0
G1 X-3.27 Y15.9 Z2.5 F2880.0
G1 X-0.98 Y18.19 Z2.5 F2880.0
G1 X-0.27 Y19.7 Z2.5 F2880.0
G1 X-7.15 Y19.7 Z2.5 F2880.0
G1 X-6.6 Y19.22 Z2.5 F2880.0
G1 X-6.14 Y16.47 Z2.5 F2880.0
G1 X-8.44 Y14.18 Z2.5 F2880.0
G1 X-11.19 Y14.63 Z2.5 F2880.0
G1 X-13.48 Y12.34 Z2.5 F2880.0
G1 X-13.03 Y9.59 Z2.5 F2880.0
G1 X-15.32 Y7.29 Z2.5 F2880.0
G1 X-17.96 Y7.63 Z2.5 F2880.0
G1 X-20.25 Y5.33 Z2.5 F2880.0
G1 X-19.91 Y2.7 Z2.5 F2880.0
G1 X-22.21 Y0.41 Z2.5 F2880.0
G1 X-24.84 Y-1.43 Z2.5 F2880.0
G1 X-24.84 Y5.46 Z2.5 F2880.0
G1 X-23.12 Y5.91 Z2.5 F2880.0
G1 X-20.49 Y5.57 Z2.5 F2880.0
G1 X-18.19 Y7.87 Z2.5 F2880.0
G1 X-18.53 Y10.5 Z2.5 F2880.0
G1 X-11.64 Y17.38 Z2.5 F2880.0
G1 X-7.84 Y19.7 Z2.5 F2880.0
G1 X-13.35 Y19.7 Z2.5 F2880.0
G1 X-11.88 Y17.62 Z2.5 F2880.0
G1 X-14.51 Y17.96 Z2.5 F2880.0
G1 X-16.81 Y15.66 Z2.5 F2880.0
G1 X-16.47 Y13.03 Z2.5 F2880.0
G1 X-18.77 Y10.73 Z2.5 F2880.0
G1 X-21.4 Y11.07 Z2.5 F2880.0
G1 X-23.69 Y8.78 Z2.5 F2880.0
G1 X-23.36 Y6.14 Z2.5 F2880.0
G1 X-24.84 Y6.15 Z2.5 F2880.0
G1 X-24.84 Y8.21 Z2.5 F2880.0
G1 X-23.93 Y9.01 Z2.5 F2880.0
G1 X-24.84 Y8.9 Z2.5 F2880.0
G1 X-24.84 Y11.66 Z2.5 F2880.0
G1 X-21.64 Y11.31 Z2.5 F2880.0
G1 X-21.97 Y13.94 Z2.5 F2880.0
G1 X-19.68 Y16.23 Z2.5 F2880.0
G1 X-17.05 Y15.9 Z2.5 F2880.0
G1 X-14.75 Y18.19 Z2.5 F2880.0
G1 X-14.04 Y19.7 Z2.5 F2880.0
G1 X-20.93 Y19.7 Z2.5 F2880.0
G1 X-20.37 Y19.22 Z2.5 F2880.0
G1 X-19.91 Y16.47 Z2.5 F2880.0
G1 X-22.21 Y14.18 Z2.5 F2880.0
G1 X-24.84 Y12.35 Z2.5 F2880.0
G1 X-24.84 Y18.54 Z2.5 F2880.0
G1 X-22.3 Y19.21 Z2.5 F2880.0
G1 X-21.61 Y19.7 Z2.5 F2880.0
G1 X-24.37 Y19.7 Z2.5 F2880.0
G1 X-24.84 Y19.23 Z2.5 F2880.0
M103
(</surroundingLoop>)
(</layer>)
(<layer> 2.816 )
(<surroundingLoop>)
(<boundaryPerimeter>)
(<boundaryPoint> X-25.867 Y-22.802 Z2.816 </boundaryPoint>)
(<boundaryPoint> X25.867 Y-22.802 Z2.816 </boundaryPoint>)
(<boundaryPoint> X25.867 Y20.73 Z2.816 </boundaryPoint>)
(<boundaryPoint> X-25.867 Y20.73 Z2.816 </boundaryPoint>)
(<loop> outer )
G1 X-25.21 Y18.84 Z2.82 F595.926
M101
G1 X-25.21 Y-22.14 Z2.82 F2880.0
G1 X25.21 Y-22.14 Z2.82 F2880.0
G1 X25.21 Y20.07 Z2.82 F2880.0
G1 X-25.21 Y20.07 Z2.82 F2880.0
G1 X-25.21 Y19.23 Z2.82 F2880.0
G1 X-25.21 Y18.84 Z2.82 F2880.0
M103
(</loop>)
(<perimeter> outer )
G1 X-25.65 Y18.84 Z2.82 F3300.0
M101
G1 X-25.65 Y-22.58 Z2.82 F2880.0
G1 X25.65 Y-22.58 Z2.82 F2880.0
G1 X25.65 Y20.51 Z2.82 F2880.0
G1 X-25.65 Y20.51 Z2.82 F2880.0
G1 X-25.65 Y19.23 Z2.82 F2880.0
G1 X-25.65 Y18.84 Z2.82 F2880.0
M103
(</perimeter>)
(</boundaryPerimeter>)
G1 X-16.95 Y19.7 Z2.82 F3300.0
M101
G1 X-10.75 Y19.7 Z2.82 F2880.0
G1 X-11.44 Y19.21 Z2.82 F2880.0
G1 X-14.76 Y18.21 Z2.82 F2880.0
G1 X-14.5 Y17.94 Z2.82 F2880.0
G1 X-11.89 Y17.63 Z2.82 F2880.0
G1 X-11.63 Y17.37 Z2.82 F2880.0
G1 X-11.32 Y14.76 Z2.82 F2880.0
G1 X-11.06 Y14.5 Z2.82 F2880.0
G1 X-8.45 Y14.19 Z2.82 F2880.0
G1 X-8.19 Y13.93 Z2.82 F2880.0
G1 X-7.88 Y11.32 Z2.82 F2880.0
G1 X-7.62 Y11.06 Z2.82 F2880.0
G1 X-5.01 Y10.75 Z2.82 F2880.0
G1 X-4.75 Y10.48 Z2.82 F2880.0
G1 X-4.43 Y7.88 Z2.82 F2880.0
G1 X-4.17 Y7.62 Z2.82 F2880.0
G1 X-1.57 Y7.3 Z2.82 F2880.0
G1 X-1.3 Y7.04 Z2.82 F2880.0
G1 X-0.99 Y4.43 Z2.82 F2880.0
G1 X-0.73 Y4.17 Z2.82 F2880.0
G1 X1.88 Y3.86 Z2.82 F2880.0
G1 X2.14 Y3.6 Z2.82 F2880.0
G1 X2.45 Y0.99 Z2.82 F2880.0
G1 X2.71 Y0.73 Z2.82 F2880.0
G1 X5.32 Y0.42 Z2.82 F2880.0
G1 X5.58 Y0.15 Z2.82 F2880.0
G1 X5.89 Y-2.45 Z2.82 F2880.0
G1 X6.16 Y-2.71 Z2.82 F2880.0
G1 X8.76 Y-3.02 Z2.82 F2880.0
G1 X9.03 Y-3.29 Z2.82 F2880.0
G1 X9.34 Y-5.89 Z2.82 F2880.0
G1 X9.6 Y-6.16 Z2.82 F2880.0
G1 X12.21 Y-6.47 Z2.82 F2880.0
G1 X12.47 Y-6.73 Z2.82 F2880.0
G1 X12.78 Y-9.34 Z2.82 F2880.0
G1 X13.04 Y-9.6 Z2.82 F2880.0
G1 X15.65 Y-9.91 Z2.82 F2880.0
G1 X15.91 Y-10.17 Z2.82 F2880.0
G1 X16.22 Y-12.78 Z2.82 F2880.0
G1 X16.48 Y-13.04 Z2.82 F2880.0
G1 X19.09 Y-13.35 Z2.82 F2880.0
G1 X19.35 Y-13.62 Z2.82 F2880.0
G1 X19.66 Y-16.22 Z2.82 F2880.0
G1 X19.93 Y-16.48 Z2.82 F2880.0
G1 X22.53 Y-16.8 Z2.82 F2880.0
G1 X22.8 Y-17.06 Z2.82 F2880.0
G1 X23.11 Y-19.66 Z2.82 F2880.0
G1 X23.37 Y-19.93 Z2.82 F2880.0
G1 X24.35 Y-16.57 Z2.82 F2880.0
G1 X24.35 Y-15.2 Z2.82 F2880.0
G1 X24.84 Y-15.2 Z2.82 F2880.0
G1 X24.84 Y-21.39 Z2.82 F2880.0
G1 X24.53 Y-21.77 Z2.82 F2880.0
G1 X18.33 Y-21.77 Z2.82 F2880.0
G1 X17.63 Y-18.78 Z2.82 F2880.0
G1 X17.37 Y-18.52 Z2.82 F2880.0
G1 X14.76 Y-18.21 Z2.82 F2880.0
G1 X14.5 Y-17.94 Z2.82 F2880.0
G1 X14.19 Y-15.34 Z2.82 F2880.0
G1 X13.93 Y-15.07 Z2.82 F2880.0
G1 X11.32 Y-14.76 Z2.82 F2880.0
G1 X11.06 Y-14.5 Z2.82 F2880.0
G1 X10.75 Y-11.89 Z2.82 F2880.0
G1 X10.48 Y-11.63 Z2.82 F2880.0
G1 X7.88 Y-11.32 Z2.82 F2880.0
G1 X7.62 Y-11.06 Z2.82 F2880.0
G1 X7.3 Y-8.45 Z2.82 F2880.0
G1 X7.04 Y-8.19 Z2.82 F2880.0
G1 X4.43 Y-7.88 Z2.82 F2880.0
G1 X4.17 Y-7.62 Z2.82 F2880.0
G1 X3.86 Y-5.01 Z2.82 F2880.0
G1 X3.6 Y-4.75 Z2.82 F2880.0
G1 X0.99 Y-4.43 Z2.82 F2880.0
G1 X0.73 Y-4.17 Z2.82 F2880.0
G1 X0.42 Y-1.57 Z2.82 F2880.0
G1 X0.15 Y-1.3 Z2.82 F2880.0
G1 X-2.45 Y-0.99 Z2.82 F2880.0
G1 X-2.71 Y-0.73 Z2.82 F2880.0
G1 X-3.02 Y1.88 Z2.82 F2880.0
G1 X-3.29 Y2.14 Z2.82 F2880.0
G1 X-5.89 Y2.45 Z2.82 F2880.0
G1 X-6.16 Y2.71 Z2.82 F2880.0
G1 X-6.47 Y5.32 Z2.82 F2880.0
G1 X-6.73 Y5.58 Z2.82 F2880.0
G1 X-9.34 Y5.89 Z2.82 F2880.0
G1 X-9.6 Y6.16 Z2.82 F2880.0
G1 X-9.91 Y8.76 Z2.82 F2880.0
G1 X-10.17 Y9.03 Z2.82 F2880.0
G1 X-12.78 Y9.34 Z2.82 F2880.0
G1 X-13.04 Y9.6 Z2.82 F2880.0
G1 X-13.35 Y12.21 Z2.82 F2880.0
G1 X-13.62 Y12.47 Z2.82 F2880.0
G1 X-16.22 Y12.78 Z2.82 F2880.0
G1 X-16.48 Y13.04 Z2.82 F2880.0
G1 X-16.8 Y15.65 Z2.82 F2880.0
G1 X-17.06 Y15.91 Z2.82 F2880.0
G1 X-19.66 Y16.22 Z2.82 F2880.0
G1 X-19.93 Y16.48 Z2.82 F2880.0
G1 X-17.64 Y19.7 Z2.82 F2880.0
G1 X-19.7 Y19.7 Z2.82 F2880.0
G1 X-20.24 Y19.09 Z2.82 F2880.0
G1 X-20.5 Y19.35 Z2.82 F2880.0
G1 X-20.39 Y19.7 Z2.82 F2880.0
G1 X-23.14 Y19.7 Z2.82 F2880.0
M103
G1 X-10.06 Y19.7 Z2.82 F3300.0
M101
G1 X-6.62 Y19.7 Z2.82 F2880.0
G1 X-6.73 Y19.35 Z2.82 F2880.0
G1 X-6.47 Y19.09 Z2.82 F2880.0
G1 X-5.93 Y19.7 Z2.82 F2880.0
G1 X-3.86 Y19.7 Z2.82 F2880.0
G1 X-6.16 Y16.48 Z2.82 F2880.0
G1 X-5.89 Y16.22 Z2.82 F2880.0
G1 X-3.29 Y15.91 Z2.82 F2880.0
G1 X-3.02 Y15.65 Z2.82 F2880.0
G1 X-2.71 Y13.04 Z2.82 F2880.0
G1 X-2.45 Y12.78 Z2.82 F2880.0
G1 X0.15 Y12.47 Z2.82 F2880.0
G1 X0.42 Y12.21 Z2.82 F2880.0
G1 X0.73 Y9.6 Z2.82 F2880.0
G1 X0.99 Y9.34 Z2.82 F2880.0
G1 X3.6 Y9.03 Z2.82 F2880.0
G1 X3.86 Y8.76 Z2.82 F2880.0
G1 X4.17 Y6.16 Z2.82 F2880.0
G1 X4.43 Y5.89 Z2.82 F2880.0
G1 X7.04 Y5.58 Z2.82 F2880.0
G1 X7.3 Y5.32 Z2.82 F2880.0
G1 X7.62 Y2.71 Z2.82 F2880.0
G1 X7.88 Y2.45 Z2.82 F2880.0
G1 X10.48 Y2.14 Z2.82 F2880.0
G1 X10.75 Y1.88 Z2.82 F2880.0
G1 X11.06 Y-0.73 Z2.82 F2880.0
G1 X11.32 Y-0.99 Z2.82 F2880.0
G1 X13.93 Y-1.3 Z2.82 F2880.0
G1 X14.19 Y-1.57 Z2.82 F2880.0
G1 X14.5 Y-4.17 Z2.82 F2880.0
G1 X14.76 Y-4.43 Z2.82 F2880.0
G1 X17.37 Y-4.75 Z2.82 F2880.0
G1 X17.63 Y-5.01 Z2.82 F2880.0
G1 X17.94 Y-7.62 Z2.82 F2880.0
G1 X18.21 Y-7.88 Z2.82 F2880.0
G1 X20.81 Y-8.19 Z2.82 F2880.0
G1 X21.08 Y-8.45 Z2.82 F2880.0
G1 X21.39 Y-11.06 Z2.82 F2880.0
G1 X21.65 Y-11.32 Z2.82 F2880.0
G1 X24.84 Y-8.31 Z2.82 F2880.0
G1 X24.84 Y-14.51 Z2.82 F2880.0
M103
G1 X24.84 Y-7.62 Z2.82 F3300.0
M101
G1 X24.84 Y-2.12 Z2.82 F2880.0
G1 X24.35 Y-2.8 Z2.82 F2880.0
G1 X23.37 Y-6.16 Z2.82 F2880.0
G1 X23.11 Y-5.89 Z2.82 F2880.0
G1 X22.8 Y-3.29 Z2.82 F2880.0
G1 X22.53 Y-3.02 Z2.82 F2880.0
G1 X19.93 Y-2.71 Z2.82 F2880.0
G1 X19.66 Y-2.45 Z2.82 F2880.0
G1 X19.35 Y0.15 Z2.82 F2880.0
G1 X19.09 Y0.42 Z2.82 F2880.0
G1 X16.48 Y0.73 Z2.82 F2880.0
G1 X16.22 Y0.99 Z2.82 F2880.0
G1 X15.91 Y3.6 Z2.82 F2880.0
G1 X15.65 Y3.86 Z2.82 F2880.0
G1 X13.04 Y4.17 Z2.82 F2880.0
G1 X12.78 Y4.43 Z2.82 F2880.0
G1 X12.47 Y7.04 Z2.82 F2880.0
G1 X12.21 Y7.3 Z2.82 F2880.0
G1 X9.6 Y7.62 Z2.82 F2880.0
G1 X9.34 Y7.88 Z2.82 F2880.0
G1 X9.03 Y10.48 Z2.82 F2880.0
G1 X8.76 Y10.75 Z2.82 F2880.0
G1 X6.16 Y11.06 Z2.82 F2880.0
G1 X5.89 Y11.32 Z2.82 F2880.0
G1 X5.58 Y13.93 Z2.82 F2880.0
G1 X5.32 Y14.19 Z2.82 F2880.0
G1 X2.71 Y14.5 Z2.82 F2880.0
G1 X2.45 Y14.76 Z2.82 F2880.0
G1 X2.14 Y17.37 Z2.82 F2880.0
G1 X1.88 Y17.63 Z2.82 F2880.0
G1 X-0.73 Y17.94 Z2.82 F2880.0
G1 X-0.99 Y18.21 Z2.82 F2880.0
G1 X2.33 Y19.21 Z2.82 F2880.0
G1 X3.02 Y19.7 Z2.82 F2880.0
G1 X-3.17 Y19.7 Z2.82 F2880.0
M103
G1 X3.71 Y19.7 Z2.82 F3300.0
M101
G1 X7.15 Y19.7 Z2.82 F2880.0
G1 X7.04 Y19.35 Z2.82 F2880.0
G1 X7.3 Y19.09 Z2.82 F2880.0
G1 X7.84 Y19.7 Z2.82 F2880.0
G1 X9.91 Y19.7 Z2.82 F2880.0
G1 X7.62 Y16.48 Z2.82 F2880.0
G1 X7.88 Y16.22 Z2.82 F2880.0
G1 X10.48 Y15.91 Z2.82 F2880.0
G1 X10.75 Y15.65 Z2.82 F2880.0
G1 X11.06 Y13.04 Z2.82 F2880.0
G1 X11.32 Y12.78 Z2.82 F2880.0
G1 X13.93 Y12.47 Z2.82 F2880.0
G1 X14.19 Y12.21 Z2.82 F2880.0
G1 X14.5 Y9.6 Z2.82 F2880.0
G1 X14.76 Y9.34 Z2.82 F2880.0
G1 X17.37 Y9.03 Z2.82 F2880.0
G1 X17.63 Y8.76 Z2.82 F2880.0
G1 X17.94 Y6.16 Z2.82 F2880.0
G1 X18.21 Y5.89 Z2.82 F2880.0
G1 X20.81 Y5.58 Z2.82 F2880.0
G1 X21.08 Y5.32 Z2.82 F2880.0
G1 X21.39 Y2.71 Z2.82 F2880.0
G1 X21.65 Y2.45 Z2.82 F2880.0
G1 X24.84 Y4.77 Z2.82 F2880.0
G1 X24.84 Y-1.43 Z2.82 F2880.0
M103
G1 X24.84 Y5.46 Z2.82 F3300.0
M101
G1 X24.84 Y11.66 Z2.82 F2880.0
G1 X24.35 Y10.97 Z2.82 F2880.0
G1 X23.37 Y7.62 Z2.82 F2880.0
G1 X23.11 Y7.88 Z2.82 F2880.0
G1 X22.8 Y10.48 Z2.82 F2880.0
G1 X22.53 Y10.75 Z2.82 F2880.0
G1 X19.93 Y11.06 Z2.82 F2880.0
G1 X19.66 Y11.32 Z2.82 F2880.0
G1 X19.35 Y13.93 Z2.82 F2880.0
G1 X19.09 Y14.19 Z2.82 F2880.0
G1 X16.48 Y14.5 Z2.82 F2880.0
G1 X16.22 Y14.76 Z2.82 F2880.0
G1 X15.91 Y17.37 Z2.82 F2880.0
G1 X15.65 Y17.63 Z2.82 F2880.0
G1 X13.04 Y17.94 Z2.82 F2880.0
G1 X12.78 Y18.21 Z2.82 F2880.0
G1 X16.11 Y19.21 Z2.82 F2880.0
G1 X16.79 Y19.7 Z2.82 F2880.0
G1 X10.6 Y19.7 Z2.82 F2880.0
M103
G1 X17.48 Y19.7 Z2.82 F3300.0
M101
G1 X20.93 Y19.7 Z2.82 F2880.0
G1 X20.81 Y19.35 Z2.82 F2880.0
G1 X21.08 Y19.09 Z2.82 F2880.0
G1 X21.61 Y19.7 Z2.82 F2880.0
G1 X22.99 Y19.7 Z2.82 F2880.0
G1 X21.39 Y16.48 Z2.82 F2880.0
G1 X21.65 Y16.22 Z2.82 F2880.0
G1 X24.84 Y17.85 Z2.82 F2880.0
G1 X24.84 Y12.35 Z2.82 F2880.0
M103
G1 X24.84 Y18.54 Z2.82 F3300.0
M101
G1 X24.84 Y19.23 Z2.82 F2880.0
G1 X24.37 Y19.7 Z2.82 F2880.0
G1 X23.68 Y19.7 Z2.82 F2880.0
M103
G1 X10.76 Y-21.77 Z2.82 F3300.0
M101
G1 X17.64 Y-21.77 Z2.82 F2880.0
G1 X16.95 Y-21.29 Z2.82 F2880.0
G1 X15.57 Y-21.29 Z2.82 F2880.0
G1 X12.47 Y-20.5 Z2.82 F2880.0
G1 X12.21 Y-20.24 Z2.82 F2880.0
G1 X9.6 Y-19.93 Z2.82 F2880.0
G1 X9.34 Y-19.66 Z2.82 F2880.0
G1 X9.03 Y-17.06 Z2.82 F2880.0
G1 X8.76 Y-16.8 Z2.82 F2880.0
G1 X6.16 Y-16.48 Z2.82 F2880.0
G1 X5.89 Y-16.22 Z2.82 F2880.0
G1 X5.58 Y-13.62 Z2.82 F2880.0
G1 X5.32 Y-13.35 Z2.82 F2880.0
G1 X2.71 Y-13.04 Z2.82 F2880.0
G1 X2.45 Y-12.78 Z2.82 F2880.0
G1 X2.14 Y-10.17 Z2.82 F2880.0
G1 X1.88 Y-9.91 Z2.82 F2880.0
G1 X-0.73 Y-9.6 Z2.82 F2880.0
G1 X-0.99 Y-9.34 Z2.82 F2880.0
G1 X-1.3 Y-6.73 Z2.82 F2880.0
G1 X-1.57 Y-6.47 Z2.82 F2880.0
G1 X-4.17 Y-6.16 Z2.82 F2880.0
G1 X-4.43 Y-5.89 Z2.82 F2880.0
G1 X-4.75 Y-3.29 Z2.82 F2880.0
G1 X-5.01 Y-3.02 Z2.82 F2880.0
G1 X-7.62 Y-2.71 Z2.82 F2880.0
G1 X-7.88 Y-2.45 Z2.82 F2880.0
G1 X-8.19 Y0.15 Z2.82 F2880.0
G1 X-8.45 Y0.42 Z2.82 F2880.0
G1 X-11.06 Y0.73 Z2.82 F2880.0
G1 X-11.32 Y0.99 Z2.82 F2880.0
G1 X-11.63 Y3.6 Z2.82 F2880.0
G1 X-11.89 Y3.86 Z2.82 F2880.0
G1 X-14.5 Y4.17 Z2.82 F2880.0
G1 X-14.76 Y4.43 Z2.82 F2880.0
G1 X-15.07 Y7.04 Z2.82 F2880.0
G1 X-15.34 Y7.3 Z2.82 F2880.0
G1 X-17.94 Y7.62 Z2.82 F2880.0
G1 X-18.21 Y7.88 Z2.82 F2880.0
G1 X-18.52 Y10.48 Z2.82 F2880.0
G1 X-18.78 Y10.75 Z2.82 F2880.0
G1 X-21.39 Y11.06 Z2.82 F2880.0
G1 X-21.65 Y11.32 Z2.82 F2880.0
G1 X-21.96 Y13.93 Z2.82 F2880.0
G1 X-22.22 Y14.19 Z2.82 F2880.0
G1 X-23.83 Y19.7 Z2.82 F2880.0
G1 X-24.52 Y19.7 Z2.82 F2880.0
G1 X-24.84 Y19.33 Z2.82 F2880.0
G1 X-24.84 Y6.93 Z2.82 F2880.0
G1 X-23.37 Y6.16 Z2.82 F2880.0
G1 X-23.11 Y5.89 Z2.82 F2880.0
G1 X-20.5 Y5.58 Z2.82 F2880.0
G1 X-20.24 Y5.32 Z2.82 F2880.0
G1 X-19.93 Y2.71 Z2.82 F2880.0
G1 X-19.66 Y2.45 Z2.82 F2880.0
G1 X-17.06 Y2.14 Z2.82 F2880.0
G1 X-16.8 Y1.88 Z2.82 F2880.0
G1 X-16.48 Y-0.73 Z2.82 F2880.0
G1 X-16.22 Y-0.99 Z2.82 F2880.0
G1 X-13.62 Y-1.3 Z2.82 F2880.0
G1 X-13.35 Y-1.57 Z2.82 F2880.0
G1 X-13.04 Y-4.17 Z2.82 F2880.0
G1 X-12.78 Y-4.43 Z2.82 F2880.0
G1 X-10.17 Y-4.75 Z2.82 F2880.0
G1 X-9.91 Y-5.01 Z2.82 F2880.0
G1 X-9.6 Y-7.62 Z2.82 F2880.0
G1 X-9.34 Y-7.88 Z2.82 F2880.0
G1 X-6.73 Y-8.19 Z2.82 F2880.0
G1 X-6.47 Y-8.45 Z2.82 F2880.0
G1 X-6.16 Y-11.06 Z2.82 F2880.0
G1 X-5.89 Y-11.32 Z2.82 F2880.0
G1 X-3.29 Y-11.63 Z2.82 F2880.0
G1 X-3.02 Y-11.89 Z2.82 F2880.0
G1 X-2.71 Y-14.5 Z2.82 F2880.0
G1 X-2.45 Y-14.76 Z2.82 F2880.0
G1 X0.15 Y-15.07 Z2.82 F2880.0
G1 X0.42 Y-15.34 Z2.82 F2880.0
G1 X0.73 Y-17.94 Z2.82 F2880.0
G1 X0.99 Y-18.21 Z2.82 F2880.0
G1 X3.6 Y-18.52 Z2.82 F2880.0
G1 X3.86 Y-18.78 Z2.82 F2880.0
G1 X3.87 Y-21.77 Z2.82 F2880.0
G1 X10.07 Y-21.77 Z2.82 F2880.0
M103
G1 X-3.02 Y-21.77 Z2.82 F3300.0
M101
G1 X3.18 Y-21.77 Z2.82 F2880.0
G1 X3.18 Y-21.29 Z2.82 F2880.0
G1 X1.8 Y-21.29 Z2.82 F2880.0
G1 X-1.3 Y-20.5 Z2.82 F2880.0
G1 X-1.57 Y-20.24 Z2.82 F2880.0
G1 X-4.17 Y-19.93 Z2.82 F2880.0
G1 X-4.43 Y-19.66 Z2.82 F2880.0
G1 X-4.75 Y-17.06 Z2.82 F2880.0
G1 X-5.01 Y-16.8 Z2.82 F2880.0
G1 X-7.62 Y-16.48 Z2.82 F2880.0
G1 X-7.88 Y-16.22 Z2.82 F2880.0
G1 X-8.19 Y-13.62 Z2.82 F2880.0
G1 X-8.45 Y-13.35 Z2.82 F2880.0
G1 X-11.06 Y-13.04 Z2.82 F2880.0
G1 X-11.32 Y-12.78 Z2.82 F2880.0
G1 X-11.63 Y-10.17 Z2.82 F2880.0
G1 X-11.89 Y-9.91 Z2.82 F2880.0
G1 X-14.5 Y-9.6 Z2.82 F2880.0
G1 X-14.76 Y-9.34 Z2.82 F2880.0
G1 X-15.07 Y-6.73 Z2.82 F2880.0
G1 X-15.34 Y-6.47 Z2.82 F2880.0
G1 X-17.94 Y-6.16 Z2.82 F2880.0
G1 X-18.21 Y-5.89 Z2.82 F2880.0
G1 X-18.52 Y-3.29 Z2.82 F2880.0
G1 X-18.78 Y-3.02 Z2.82 F2880.0
G1 X-21.39 Y-2.71 Z2.82 F2880.0
G1 X-21.65 Y-2.45 Z2.82 F2880.0
G1 X-21.96 Y0.15 Z2.82 F2880.0
G1 X-22.22 Y0.42 Z2.82 F2880.0
G1 X-24.35 Y6.25 Z2.82 F2880.0
G1 X-24.84 Y5.56 Z2.82 F2880.0
G1 X-24.84 Y-6.84 Z2.82 F2880.0
G1 X-23.37 Y-7.62 Z2.82 F2880.0
G1 X-23.11 Y-7.88 Z2.82 F2880.0
G1 X-20.5 Y-8.19 Z2.82 F2880.0
G1 X-20.24 Y-8.45 Z2.82 F2880.0
G1 X-19.93 Y-11.06 Z2.82 F2880.0
G1 X-19.66 Y-11.32 Z2.82 F2880.0
G1 X-17.06 Y-11.63 Z2.82 F2880.0
G1 X-16.8 Y-11.89 Z2.82 F2880.0
G1 X-16.48 Y-14.5 Z2.82 F2880.0
G1 X-16.22 Y-14.76 Z2.82 F2880.0
G1 X-13.62 Y-15.07 Z2.82 F2880.0
G1 X-13.35 Y-15.34 Z2.82 F2880.0
G1 X-13.04 Y-17.94 Z2.82 F2880.0
G1 X-12.78 Y-18.21 Z2.82 F2880.0
G1 X-10.17 Y-18.52 Z2.82 F2880.0
G1 X-9.91 Y-18.78 Z2.82 F2880.0
G1 X-9.9 Y-21.77 Z2.82 F2880.0
G1 X-3.7 Y-21.77 Z2.82 F2880.0
M103
G1 X-16.1 Y-21.77 Z2.82 F3300.0
M101
G1 X-10.59 Y-21.77 Z2.82 F2880.0
G1 X-10.59 Y-21.29 Z2.82 F2880.0
G1 X-11.97 Y-21.29 Z2.82 F2880.0
G1 X-15.07 Y-20.5 Z2.82 F2880.0
G1 X-15.34 Y-20.24 Z2.82 F2880.0
G1 X-17.94 Y-19.93 Z2.82 F2880.0
G1 X-18.21 Y-19.66 Z2.82 F2880.0
G1 X-18.52 Y-17.06 Z2.82 F2880.0
G1 X-18.78 Y-16.8 Z2.82 F2880.0
G1 X-21.39 Y-16.48 Z2.82 F2880.0
G1 X-21.65 Y-16.22 Z2.82 F2880.0
G1 X-21.96 Y-13.62 Z2.82 F2880.0
G1 X-22.22 Y-13.35 Z2.82 F2880.0
G1 X-24.84 Y-13.03 Z2.82 F2880.0
G1 X-24.84 Y-7.53 Z2.82 F2880.0
M103
G1 X-24.84 Y-13.72 Z2.82 F3300.0
M101
G1 X-24.84 Y-20.61 Z2.82 F2880.0
G1 X-22.3 Y-21.29 Z2.82 F2880.0
G1 X-16.79 Y-21.29 Z2.82 F2880.0
G1 X-17.48 Y-21.77 Z2.82 F2880.0
G1 X-24.36 Y-21.77 Z2.82 F2880.0
G1 X-24.84 Y-21.3 Z2.82 F2880.0
M103
(</surroundingLoop>)
(</layer>)
(<layer> 3.128 )
(<surroundingLoop>)
(<boundaryPerimeter>)
(<boundaryPoint> X-25.867 Y-22.802 Z3.128 </boundaryPoint>)
(<boundaryPoint> X25.867 Y-22.802 Z3.128 </boundaryPoint>)
(<boundaryPoint> X25.867 Y20.73 Z3.128 </boundaryPoint>)
(<boundaryPoint> X-25.867 Y20.73 Z3.128 </boundaryPoint>)
(<loop> outer )
G1 X-25.21 Y-21.35 Z3.13 F470.563
M101
G1 X-25.21 Y-22.14 Z3.13 F2880.0
G1 X25.21 Y-22.14 Z3.13 F2880.0
G1 X25.21 Y20.07 Z3.13 F2880.0
G1 X-25.21 Y20.07 Z3.13 F2880.0
G1 X-25.21 Y-21.3 Z3.13 F2880.0
G1 X-25.21 Y-21.35 Z3.13 F2880.0
M103
(</loop>)
(<perimeter> outer )
G1 X-25.65 Y-21.3 Z3.13 F3300.0
M101
G1 X-25.65 Y-22.58 Z3.13 F2880.0
G1 X25.65 Y-22.58 Z3.13 F2880.0
G1 X25.65 Y20.51 Z3.13 F2880.0
G1 X-25.65 Y20.51 Z3.13 F2880.0
G1 X-25.65 Y-21.3 Z3.13 F2880.0
M103
(</perimeter>)
(</boundaryPerimeter>)
G1 X24.36 Y-21.77 Z3.13 F3300.0
M101
G1 X24.84 Y-21.3 Z3.13 F2880.0
G1 X24.84 Y-18.54 Z3.13 F2880.0
G1 X23.36 Y-19.91 Z3.13 F2880.0
G1 X23.67 Y-21.77 Z3.13 F2880.0
G1 X18.16 Y-21.77 Z3.13 F2880.0
G1 X23.12 Y-19.68 Z3.13 F2880.0
G1 X22.78 Y-17.05 Z3.13 F2880.0
G1 X24.84 Y-17.85 Z3.13 F2880.0
G1 X24.84 Y-11.66 Z3.13 F2880.0
G1 X22.55 Y-16.81 Z3.13 F2880.0
G1 X19.91 Y-16.47 Z3.13 F2880.0
G1 X17.62 Y-18.77 Z3.13 F2880.0
G1 X17.48 Y-21.77 Z3.13 F2880.0
G1 X11.28 Y-21.77 Z3.13 F2880.0
G1 X14.75 Y-18.19 Z3.13 F2880.0
G1 X17.38 Y-18.53 Z3.13 F2880.0
G1 X19.68 Y-16.23 Z3.13 F2880.0
G1 X19.34 Y-13.6 Z3.13 F2880.0
G1 X21.64 Y-11.31 Z3.13 F2880.0
G1 X24.84 Y-10.97 Z3.13 F2880.0
G1 X24.84 Y-4.77 Z3.13 F2880.0
G1 X21.06 Y-8.44 Z3.13 F2880.0
G1 X21.4 Y-11.07 Z3.13 F2880.0
G1 X19.1 Y-13.37 Z3.13 F2880.0
G1 X16.47 Y-13.03 Z3.13 F2880.0
G1 X14.18 Y-15.32 Z3.13 F2880.0
G1 X14.51 Y-17.96 Z3.13 F2880.0
G1 X12.22 Y-20.25 Z3.13 F2880.0
G1 X9.59 Y-19.91 Z3.13 F2880.0
G1 X10.59 Y-21.77 Z3.13 F2880.0
G1 X4.39 Y-21.77 Z3.13 F2880.0
G1 X9.35 Y-19.68 Z3.13 F2880.0
G1 X9.01 Y-17.05 Z3.13 F2880.0
G1 X11.31 Y-14.75 Z3.13 F2880.0
G1 X13.94 Y-15.09 Z3.13 F2880.0
G1 X16.23 Y-12.79 Z3.13 F2880.0
G1 X15.9 Y-10.16 Z3.13 F2880.0
G1 X18.19 Y-7.87 Z3.13 F2880.0
G1 X20.82 Y-8.2 Z3.13 F2880.0
G1 X23.12 Y-5.91 Z3.13 F2880.0
G1 X22.78 Y-3.27 Z3.13 F2880.0
G1 X24.84 Y-4.08 Z3.13 F2880.0
G1 X24.84 Y2.12 Z3.13 F2880.0
G1 X22.55 Y-3.04 Z3.13 F2880.0
G1 X19.91 Y-2.7 Z3.13 F2880.0
G1 X17.62 Y-5.0 Z3.13 F2880.0
G1 X17.96 Y-7.63 Z3.13 F2880.0
G1 X15.66 Y-9.92 Z3.13 F2880.0
G1 X13.03 Y-9.59 Z3.13 F2880.0
G1 X10.73 Y-11.88 Z3.13 F2880.0
G1 X11.07 Y-14.51 Z3.13 F2880.0
G1 X8.78 Y-16.81 Z3.13 F2880.0
G1 X6.14 Y-16.47 Z3.13 F2880.0
G1 X3.85 Y-18.77 Z3.13 F2880.0
G1 X3.7 Y-21.77 Z3.13 F2880.0
G1 X-2.49 Y-21.77 Z3.13 F2880.0
G1 X0.98 Y-18.19 Z3.13 F2880.0
G1 X3.61 Y-18.53 Z3.13 F2880.0
G1 X5.91 Y-16.23 Z3.13 F2880.0
G1 X5.57 Y-13.6 Z3.13 F2880.0
G1 X7.87 Y-11.31 Z3.13 F2880.0
G1 X10.5 Y-11.64 Z3.13 F2880.0
G1 X12.79 Y-9.35 Z3.13 F2880.0
G1 X12.46 Y-6.72 Z3.13 F2880.0
G1 X14.75 Y-4.42 Z3.13 F2880.0
G1 X17.38 Y-4.76 Z3.13 F2880.0
G1 X19.68 Y-2.46 Z3.13 F2880.0
G1 X19.34 Y0.17 Z3.13 F2880.0
G1 X21.64 Y2.46 Z3.13 F2880.0
G1 X24.84 Y2.8 Z3.13 F2880.0
G1 X24.84 Y9.0 Z3.13 F2880.0
G1 X21.06 Y5.33 Z3.13 F2880.0
G1 X21.4 Y2.7 Z3.13 F2880.0
G1 X19.1 Y0.41 Z3.13 F2880.0
G1 X16.47 Y0.74 Z3.13 F2880.0
G1 X14.18 Y-1.55 Z3.13 F2880.0
G1 X14.51 Y-4.18 Z3.13 F2880.0
G1 X12.22 Y-6.48 Z3.13 F2880.0
G1 X9.59 Y-6.14 Z3.13 F2880.0
G1 X7.29 Y-8.44 Z3.13 F2880.0
G1 X7.63 Y-11.07 Z3.13 F2880.0
G1 X5.33 Y-13.37 Z3.13 F2880.0
G1 X2.7 Y-13.03 Z3.13 F2880.0
G1 X0.41 Y-15.32 Z3.13 F2880.0
G1 X0.74 Y-17.96 Z3.13 F2880.0
G1 X-1.55 Y-20.25 Z3.13 F2880.0
G1 X-4.18 Y-19.91 Z3.13 F2880.0
G1 X-3.18 Y-21.77 Z3.13 F2880.0
G1 X-9.38 Y-21.77 Z3.13 F2880.0
G1 X-4.42 Y-19.68 Z3.13 F2880.0
G1 X-4.76 Y-17.05 Z3.13 F2880.0
G1 X-2.46 Y-14.75 Z3.13 F2880.0
G1 X0.17 Y-15.09 Z3.13 F2880.0
G1 X2.46 Y-12.79 Z3.13 F2880.0
G1 X2.13 Y-10.16 Z3.13 F2880.0
G1 X4.42 Y-7.87 Z3.13 F2880.0
G1 X7.05 Y-8.2 Z3.13 F2880.0
G1 X9.35 Y-5.91 Z3.13 F2880.0
G1 X9.01 Y-3.27 Z3.13 F2880.0
G1 X11.31 Y-0.98 Z3.13 F2880.0
G1 X13.94 Y-1.32 Z3.13 F2880.0
G1 X16.23 Y0.98 Z3.13 F2880.0
G1 X15.9 Y3.61 Z3.13 F2880.0
G1 X18.19 Y5.91 Z3.13 F2880.0
G1 X20.82 Y5.57 Z3.13 F2880.0
G1 X23.12 Y7.87 Z3.13 F2880.0
G1 X22.78 Y10.5 Z3.13 F2880.0
G1 X24.84 Y9.69 Z3.13 F2880.0
G1 X24.84 Y15.89 Z3.13 F2880.0
G1 X22.55 Y10.73 Z3.13 F2880.0
G1 X19.91 Y11.07 Z3.13 F2880.0
G1 X17.62 Y8.78 Z3.13 F2880.0
G1 X17.96 Y6.14 Z3.13 F2880.0
G1 X15.66 Y3.85 Z3.13 F2880.0
G1 X13.03 Y4.18 Z3.13 F2880.0
G1 X10.73 Y1.89 Z3.13 F2880.0
G1 X11.07 Y-0.74 Z3.13 F2880.0
G1 X8.78 Y-3.04 Z3.13 F2880.0
G1 X6.14 Y-2.7 Z3.13 F2880.0
G1 X3.85 Y-5.0 Z3.13 F2880.0
G1 X4.18 Y-7.63 Z3.13 F2880.0
G1 X1.89 Y-9.92 Z3.13 F2880.0
G1 X-0.74 Y-9.59 Z3.13 F2880.0
G1 X-3.04 Y-11.88 Z3.13 F2880.0
G1 X-2.7 Y-14.51 Z3.13 F2880.0
G1 X-5.0 Y-16.81 Z3.13 F2880.0
G1 X-7.63 Y-16.47 Z3.13 F2880.0
G1 X-9.92 Y-18.77 Z3.13 F2880.0
G1 X-10.07 Y-21.77 Z3.13 F2880.0
G1 X-16.26 Y-21.77 Z3.13 F2880.0
G1 X-12.79 Y-18.19 Z3.13 F2880.0
G1 X-10.16 Y-18.53 Z3.13 F2880.0
G1 X-7.87 Y-16.23 Z3.13 F2880.0
G1 X-8.2 Y-13.6 Z3.13 F2880.0
G1 X-5.91 Y-11.31 Z3.13 F2880.0
G1 X-3.27 Y-11.64 Z3.13 F2880.0
G1 X-0.98 Y-9.35 Z3.13 F2880.0
G1 X-1.32 Y-6.72 Z3.13 F2880.0
G1 X0.98 Y-4.42 Z3.13 F2880.0
G1 X3.61 Y-4.76 Z3.13 F2880.0
G1 X5.91 Y-2.46 Z3.13 F2880.0
G1 X5.57 Y0.17 Z3.13 F2880.0
G1 X7.87 Y2.46 Z3.13 F2880.0
G1 X10.5 Y2.13 Z3.13 F2880.0
G1 X12.79 Y4.42 Z3.13 F2880.0
G1 X12.46 Y7.05 Z3.13 F2880.0
G1 X14.75 Y9.35 Z3.13 F2880.0
G1 X17.38 Y9.01 Z3.13 F2880.0
G1 X19.68 Y11.31 Z3.13 F2880.0
G1 X19.34 Y13.94 Z3.13 F2880.0
G1 X21.64 Y16.23 Z3.13 F2880.0
G1 X24.84 Y16.57 Z3.13 F2880.0
G1 X24.84 Y19.33 Z3.13 F2880.0
G1 X24.52 Y19.7 Z3.13 F2880.0
G1 X20.39 Y19.7 Z3.13 F2880.0
G1 X20.94 Y19.22 Z3.13 F2880.0
G1 X21.4 Y16.47 Z3.13 F2880.0
G1 X19.1 Y14.18 Z3.13 F2880.0
G1 X16.35 Y14.63 Z3.13 F2880.0
G1 X14.06 Y12.34 Z3.13 F2880.0
G1 X14.51 Y9.59 Z3.13 F2880.0
G1 X12.22 Y7.29 Z3.13 F2880.0
G1 X9.47 Y7.75 Z3.13 F2880.0
G1 X7.17 Y5.45 Z3.13 F2880.0
G1 X7.63 Y2.7 Z3.13 F2880.0
G1 X5.33 Y0.41 Z3.13 F2880.0
G1 X2.58 Y0.86 Z3.13 F2880.0
G1 X0.29 Y-1.44 Z3.13 F2880.0
G1 X0.74 Y-4.18 Z3.13 F2880.0
G1 X-1.55 Y-6.48 Z3.13 F2880.0
G1 X-4.3 Y-6.03 Z3.13 F2880.0
G1 X-6.6 Y-8.32 Z3.13 F2880.0
G1 X-6.14 Y-11.07 Z3.13 F2880.0
G1 X-8.44 Y-13.37 Z3.13 F2880.0
G1 X-11.19 Y-12.91 Z3.13 F2880.0
G1 X-13.48 Y-15.21 Z3.13 F2880.0
G1 X-13.03 Y-17.96 Z3.13 F2880.0
G1 X-15.32 Y-20.25 Z3.13 F2880.0
G1 X-17.96 Y-19.91 Z3.13 F2880.0
G1 X-16.95 Y-21.77 Z3.13 F2880.0
G1 X-23.15 Y-21.77 Z3.13 F2880.0
G1 X-18.19 Y-19.68 Z3.13 F2880.0
G1 X-18.53 Y-17.05 Z3.13 F2880.0
G1 X15.9 Y17.38 Z3.13 F2880.0
G1 X19.7 Y19.7 Z3.13 F2880.0
G1 X14.19 Y19.7 Z3.13 F2880.0
G1 X15.66 Y17.62 Z3.13 F2880.0
G1 X13.03 Y17.96 Z3.13 F2880.0
G1 X10.73 Y15.66 Z3.13 F2880.0
G1 X11.07 Y13.03 Z3.13 F2880.0
G1 X8.78 Y10.73 Z3.13 F2880.0
G1 X6.14 Y11.07 Z3.13 F2880.0
G1 X3.85 Y8.78 Z3.13 F2880.0
G1 X4.18 Y6.14 Z3.13 F2880.0
G1 X1.89 Y3.85 Z3.13 F2880.0
G1 X-0.74 Y4.18 Z3.13 F2880.0
G1 X-3.04 Y1.89 Z3.13 F2880.0
G1 X-2.7 Y-0.74 Z3.13 F2880.0
G1 X-5.0 Y-3.04 Z3.13 F2880.0
G1 X-7.63 Y-2.7 Z3.13 F2880.0
G1 X-9.92 Y-5.0 Z3.13 F2880.0
G1 X-9.59 Y-7.63 Z3.13 F2880.0
G1 X-11.88 Y-9.92 Z3.13 F2880.0
G1 X-14.51 Y-9.59 Z3.13 F2880.0
G1 X-16.81 Y-11.88 Z3.13 F2880.0
G1 X-16.47 Y-14.51 Z3.13 F2880.0
G1 X-18.77 Y-16.81 Z3.13 F2880.0
G1 X-21.4 Y-16.47 Z3.13 F2880.0
G1 X-23.81 Y-18.65 Z3.13 F2880.0
G1 X-24.35 Y-21.39 Z3.13 F2880.0
G1 X-23.84 Y-21.77 Z3.13 F2880.0
G1 X-24.53 Y-21.77 Z3.13 F2880.0
G1 X-24.84 Y-20.71 Z3.13 F2880.0
G1 X-24.84 Y-15.89 Z3.13 F2880.0
G1 X-21.64 Y-16.23 Z3.13 F2880.0
G1 X-21.97 Y-13.6 Z3.13 F2880.0
G1 X-19.68 Y-11.31 Z3.13 F2880.0
G1 X-17.05 Y-11.64 Z3.13 F2880.0
G1 X-14.75 Y-9.35 Z3.13 F2880.0
G1 X-15.09 Y-6.72 Z3.13 F2880.0
G1 X-12.79 Y-4.42 Z3.13 F2880.0
G1 X-10.16 Y-4.76 Z3.13 F2880.0
G1 X-7.87 Y-2.46 Z3.13 F2880.0
G1 X-8.2 Y0.17 Z3.13 F2880.0
G1 X-5.91 Y2.46 Z3.13 F2880.0
G1 X-3.27 Y2.13 Z3.13 F2880.0
G1 X-0.98 Y4.42 Z3.13 F2880.0
G1 X-1.32 Y7.05 Z3.13 F2880.0
G1 X0.98 Y9.35 Z3.13 F2880.0
G1 X3.61 Y9.01 Z3.13 F2880.0
G1 X5.91 Y11.31 Z3.13 F2880.0
G1 X5.57 Y13.94 Z3.13 F2880.0
G1 X7.87 Y16.23 Z3.13 F2880.0
G1 X10.5 Y15.9 Z3.13 F2880.0
G1 X12.79 Y18.19 Z3.13 F2880.0
G1 X13.5 Y19.7 Z3.13 F2880.0
G1 X6.62 Y19.7 Z3.13 F2880.0
G1 X7.17 Y19.22 Z3.13 F2880.0
G1 X7.63 Y16.47 Z3.13 F2880.0
G1 X5.33 Y14.18 Z3.13 F2880.0
G1 X2.58 Y14.63 Z3.13 F2880.0
G1 X0.29 Y12.34 Z3.13 F2880.0
G1 X0.74 Y9.59 Z3.13 F2880.0
G1 X-1.55 Y7.29 Z3.13 F2880.0
G1 X-4.3 Y7.75 Z3.13 F2880.0
G1 X-6.6 Y5.45 Z3.13 F2880.0
G1 X-6.14 Y2.7 Z3.13 F2880.0
G1 X-8.44 Y0.41 Z3.13 F2880.0
G1 X-11.19 Y0.86 Z3.13 F2880.0
G1 X-13.48 Y-1.44 Z3.13 F2880.0
G1 X-13.03 Y-4.18 Z3.13 F2880.0
G1 X-15.32 Y-6.48 Z3.13 F2880.0
G1 X-17.96 Y-6.14 Z3.13 F2880.0
G1 X-20.25 Y-8.44 Z3.13 F2880.0
G1 X-19.91 Y-11.07 Z3.13 F2880.0
G1 X-22.21 Y-13.37 Z3.13 F2880.0
G1 X-24.84 Y-15.2 Z3.13 F2880.0
G1 X-24.84 Y-8.31 Z3.13 F2880.0
G1 X-23.12 Y-7.87 Z3.13 F2880.0
G1 X-20.49 Y-8.2 Z3.13 F2880.0
G1 X-18.19 Y-5.91 Z3.13 F2880.0
G1 X-18.53 Y-3.27 Z3.13 F2880.0
G1 X2.13 Y17.38 Z3.13 F2880.0
G1 X5.93 Y19.7 Z3.13 F2880.0
G1 X0.42 Y19.7 Z3.13 F2880.0
G1 X1.89 Y17.62 Z3.13 F2880.0
G1 X-0.74 Y17.96 Z3.13 F2880.0
G1 X-3.04 Y15.66 Z3.13 F2880.0
G1 X-2.7 Y13.03 Z3.13 F2880.0
G1 X-5.0 Y10.73 Z3.13 F2880.0
G1 X-7.63 Y11.07 Z3.13 F2880.0
G1 X-9.92 Y8.78 Z3.13 F2880.0
G1 X-9.59 Y6.14 Z3.13 F2880.0
G1 X-11.88 Y3.85 Z3.13 F2880.0
G1 X-14.51 Y4.18 Z3.13 F2880.0
G1 X-16.81 Y1.89 Z3.13 F2880.0
G1 X-16.47 Y-0.74 Z3.13 F2880.0
G1 X-18.77 Y-3.04 Z3.13 F2880.0
G1 X-21.4 Y-2.7 Z3.13 F2880.0
G1 X-23.69 Y-5.0 Z3.13 F2880.0
G1 X-23.36 Y-7.63 Z3.13 F2880.0
G1 X-24.84 Y-7.62 Z3.13 F2880.0
G1 X-24.84 Y-5.56 Z3.13 F2880.0
G1 X-23.93 Y-4.76 Z3.13 F2880.0
G1 X-24.84 Y-4.87 Z3.13 F2880.0
G1 X-24.84 Y-2.12 Z3.13 F2880.0
G1 X-21.64 Y-2.46 Z3.13 F2880.0
G1 X-21.97 Y0.17 Z3.13 F2880.0
G1 X-19.68 Y2.46 Z3.13 F2880.0
G1 X-17.05 Y2.13 Z3.13 F2880.0
G1 X-14.75 Y4.42 Z3.13 F2880.0
G1 X-15.09 Y7.05 Z3.13 F2880.0
G1 X-12.79 Y9.35 Z3.13 F2880.0
G1 X-10.16 Y9.01 Z3.13 F2880.0
G1 X-7.87 Y11.31 Z3.13 F2880.0
G1 X-8.2 Y13.94 Z3.13 F2880.0
G1 X-5.91 Y16.23 Z3.13 F2880.0
G1 X-3.27 Y15.9 Z3.13 F2880.0
G1 X-0.98 Y18.19 Z3.13 F2880.0
G1 X-0.27 Y19.7 Z3.13 F2880.0
G1 X-7.15 Y19.7 Z3.13 F2880.0
G1 X-6.6 Y19.22 Z3.13 F2880.0
G1 X-6.14 Y16.47 Z3.13 F2880.0
G1 X-8.44 Y14.18 Z3.13 F2880.0
G1 X-11.19 Y14.63 Z3.13 F2880.0
G1 X-13.48 Y12.34 Z3.13 F2880.0
G1 X-13.03 Y9.59 Z3.13 F2880.0
G1 X-15.32 Y7.29 Z3.13 F2880.0
G1 X-17.96 Y7.63 Z3.13 F2880.0
G1 X-20.25 Y5.33 Z3.13 F2880.0
G1 X-19.91 Y2.7 Z3.13 F2880.0
G1 X-22.21 Y0.41 Z3.13 F2880.0
G1 X-24.84 Y-1.43 Z3.13 F2880.0
G1 X-24.84 Y5.46 Z3.13 F2880.0
G1 X-23.12 Y5.91 Z3.13 F2880.0
G1 X-20.49 Y5.57 Z3.13 F2880.0
G1 X-18.19 Y7.87 Z3.13 F2880.0
G1 X-18.53 Y10.5 Z3.13 F2880.0
G1 X-11.64 Y17.38 Z3.13 F2880.0
G1 X-7.84 Y19.7 Z3.13 F2880.0
G1 X-13.35 Y19.7 Z3.13 F2880.0
G1 X-11.88 Y17.62 Z3.13 F2880.0
G1 X-14.51 Y17.96 Z3.13 F2880.0
G1 X-16.81 Y15.66 Z3.13 F2880.0
G1 X-16.47 Y13.03 Z3.13 F2880.0
G1 X-18.77 Y10.73 Z3.13 F2880.0
G1 X-21.4 Y11.07 Z3.13 F2880.0
G1 X-23.69 Y8.78 Z3.13 F2880.0
G1 X-23.36 Y6.14 Z3.13 F2880.0
G1 X-24.84 Y6.15 Z3.13 F2880.0
G1 X-24.84 Y8.21 Z3.13 F2880.0
G1 X-23.93 Y9.01 Z3.13 F2880.0
G1 X-24.84 Y8.9 Z3.13 F2880.0
G1 X-24.84 Y11.66 Z3.13 F2880.0
G1 X-21.64 Y11.31 Z3.13 F2880.0
G1 X-21.97 Y13.94 Z3.13 F2880.0
G1 X-19.68 Y16.23 Z3.13 F2880.0
G1 X-17.05 Y15.9 Z3.13 F2880.0
G1 X-14.75 Y18.19 Z3.13 F2880.0
G1 X-14.04 Y19.7 Z3.13 F2880.0
G1 X-20.93 Y19.7 Z3.13 F2880.0
G1 X-20.37 Y19.22 Z3.13 F2880.0
G1 X-19.91 Y16.47 Z3.13 F2880.0
G1 X-22.21 Y14.18 Z3.13 F2880.0
G1 X-24.84 Y12.35 Z3.13 F2880.0
G1 X-24.84 Y18.54 Z3.13 F2880.0
G1 X-22.3 Y19.21 Z3.13 F2880.0
G1 X-21.61 Y19.7 Z3.13 F2880.0
G1 X-24.37 Y19.7 Z3.13 F2880.0
G1 X-24.84 Y19.23 Z3.13 F2880.0
M103
(</surroundingLoop>)
(</layer>)
(<layer> 3.441 )
(<surroundingLoop>)
(<boundaryPerimeter>)
(<boundaryPoint> X-25.867 Y-22.802 Z3.441 </boundaryPoint>)
(<boundaryPoint> X25.867 Y-22.802 Z3.441 </boundaryPoint>)
(<boundaryPoint> X25.867 Y20.73 Z3.441 </boundaryPoint>)
(<boundaryPoint> X-25.867 Y20.73 Z3.441 </boundaryPoint>)
(<loop> outer )
G1 X-25.21 Y19.51 Z3.44 F538.363
M101
G1 X-25.21 Y19.23 Z3.44 F2880.0
G1 X-25.21 Y-22.14 Z3.44 F2880.0
G1 X25.21 Y-22.14 Z3.44 F2880.0
G1 X25.21 Y20.07 Z3.44 F2880.0
G1 X-25.21 Y20.07 Z3.44 F2880.0
G1 X-25.21 Y19.51 Z3.44 F2880.0
M103
(</loop>)
(<perimeter> outer )
G1 X-25.65 Y19.51 Z3.44 F3300.0
M101
G1 X-25.65 Y19.23 Z3.44 F2880.0
G1 X-25.65 Y-22.58 Z3.44 F2880.0
G1 X25.65 Y-22.58 Z3.44 F2880.0
G1 X25.65 Y20.51 Z3.44 F2880.0
G1 X-25.65 Y20.51 Z3.44 F2880.0
G1 X-25.65 Y19.51 Z3.44 F2880.0
M103
(</perimeter>)
(</boundaryPerimeter>)
G1 X-16.95 Y19.7 Z3.44 F3300.0
M101
G1 X-10.75 Y19.7 Z3.44 F2880.0
G1 X-11.44 Y19.21 Z3.44 F2880.0
G1 X-14.76 Y18.21 Z3.44 F2880.0
G1 X-14.5 Y17.94 Z3.44 F2880.0
G1 X-11.89 Y17.63 Z3.44 F2880.0
G1 X-11.63 Y17.37 Z3.44 F2880.0
G1 X-11.32 Y14.76 Z3.44 F2880.0
G1 X-11.06 Y14.5 Z3.44 F2880.0
G1 X-8.45 Y14.19 Z3.44 F2880.0
G1 X-8.19 Y13.93 Z3.44 F2880.0
G1 X-7.88 Y11.32 Z3.44 F2880.0
G1 X-7.62 Y11.06 Z3.44 F2880.0
G1 X-5.01 Y10.75 Z3.44 F2880.0
G1 X-4.75 Y10.48 Z3.44 F2880.0
G1 X-4.43 Y7.88 Z3.44 F2880.0
G1 X-4.17 Y7.62 Z3.44 F2880.0
G1 X-1.57 Y7.3 Z3.44 F2880.0
G1 X-1.3 Y7.04 Z3.44 F2880.0
G1 X-0.99 Y4.43 Z3.44 F2880.0
G1 X-0.73 Y4.17 Z3.44 F2880.0
G1 X1.88 Y3.86 Z3.44 F2880.0
G1 X2.14 Y3.6 Z3.44 F2880.0
G1 X2.45 Y0.99 Z3.44 F2880.0
G1 X2.71 Y0.73 Z3.44 F2880.0
G1 X5.32 Y0.42 Z3.44 F2880.0
G1 X5.58 Y0.15 Z3.44 F2880.0
G1 X5.89 Y-2.45 Z3.44 F2880.0
G1 X6.16 Y-2.71 Z3.44 F2880.0
G1 X8.76 Y-3.02 Z3.44 F2880.0
G1 X9.03 Y-3.29 Z3.44 F2880.0
G1 X9.34 Y-5.89 Z3.44 F2880.0
G1 X9.6 Y-6.16 Z3.44 F2880.0
G1 X12.21 Y-6.47 Z3.44 F2880.0
G1 X12.47 Y-6.73 Z3.44 F2880.0
G1 X12.78 Y-9.34 Z3.44 F2880.0
G1 X13.04 Y-9.6 Z3.44 F2880.0
G1 X15.65 Y-9.91 Z3.44 F2880.0
G1 X15.91 Y-10.17 Z3.44 F2880.0
G1 X16.22 Y-12.78 Z3.44 F2880.0
G1 X16.48 Y-13.04 Z3.44 F2880.0
G1 X19.09 Y-13.35 Z3.44 F2880.0
G1 X19.35 Y-13.62 Z3.44 F2880.0
G1 X19.66 Y-16.22 Z3.44 F2880.0
G1 X19.93 Y-16.48 Z3.44 F2880.0
G1 X22.53 Y-16.8 Z3.44 F2880.0
G1 X22.8 Y-17.06 Z3.44 F2880.0
G1 X23.11 Y-19.66 Z3.44 F2880.0
G1 X23.37 Y-19.93 Z3.44 F2880.0
G1 X24.35 Y-16.57 Z3.44 F2880.0
G1 X24.35 Y-15.2 Z3.44 F2880.0
G1 X24.84 Y-15.2 Z3.44 F2880.0
G1 X24.84 Y-21.39 Z3.44 F2880.0
G1 X24.53 Y-21.77 Z3.44 F2880.0
G1 X18.33 Y-21.77 Z3.44 F2880.0
G1 X17.63 Y-18.78 Z3.44 F2880.0
G1 X17.37 Y-18.52 Z3.44 F2880.0
G1 X14.76 Y-18.21 Z3.44 F2880.0
G1 X14.5 Y-17.94 Z3.44 F2880.0
G1 X14.19 Y-15.34 Z3.44 F2880.0
G1 X13.93 Y-15.07 Z3.44 F2880.0
G1 X11.32 Y-14.76 Z3.44 F2880.0
G1 X11.06 Y-14.5 Z3.44 F2880.0
G1 X10.75 Y-11.89 Z3.44 F2880.0
G1 X10.48 Y-11.63 Z3.44 F2880.0
G1 X7.88 Y-11.32 Z3.44 F2880.0
G1 X7.62 Y-11.06 Z3.44 F2880.0
G1 X7.3 Y-8.45 Z3.44 F2880.0
G1 X7.04 Y-8.19 Z3.44 F2880.0
G1 X4.43 Y-7.88 Z3.44 F2880.0
G1 X4.17 Y-7.62 Z3.44 F2880.0
G1 X3.86 Y-5.01 Z3.44 F2880.0
G1 X3.6 Y-4.75 Z3.44 F2880.0
G1 X0.99 Y-4.43 Z3.44 F2880.0
G1 X0.73 Y-4.17 Z3.44 F2880.0
G1 X0.42 Y-1.57 Z3.44 F2880.0
G1 X0.15 Y-1.3 Z3.44 F2880.0
G1 X-2.45 Y-0.99 Z3.44 F2880.0
G1 X-2.71 Y-0.73 Z3.44 F2880.0
G1 X-3.02 Y1.88 Z3.44 F2880.0
G1 X-3.29 Y2.14 Z3.44 F2880.0
G1 X-5.89 Y2.45 Z3.44 F2880.0
G1 X-6.16 Y2.71 Z3.44 F2880.0
G1 X-6.47 Y5.32 Z3.44 F2880.0
G1 X-6.73 Y5.58 Z3.44 F2880.0
G1 X-9.34 Y5.89 Z3.44 F2880.0
G1 X-9.6 Y6.16 Z3.44 F2880.0
G1 X-9.91 Y8.76 Z3.44 F2880.0
G1 X-10.17 Y9.03 Z3.44 F2880.0
G1 X-12.78 Y9.34 Z3.44 F2880.0
G1 X-13.04 Y9.6 Z3.44 F2880.0
G1 X-13.35 Y12.21 Z3.44 F2880.0
G1 X-13.62 Y12.47 Z3.44 F2880.0
G1 X-16.22 Y12.78 Z3.44 F2880.0
G1 X-16.48 Y13.04 Z3.44 F2880.0
G1 X-16.8 Y15.65 Z3.44 F2880.0
G1 X-17.06 Y15.91 Z3.44 F2880.0
G1 X-19.66 Y16.22 Z3.44 F2880.0
G1 X-19.93 Y16.48 Z3.44 F2880.0
G1 X-17.64 Y19.7 Z3.44 F2880.0
G1 X-19.7 Y19.7 Z3.44 F2880.0
G1 X-20.24 Y19.09 Z3.44 F2880.0
G1 X-20.5 Y19.35 Z3.44 F2880.0
G1 X-20.39 Y19.7 Z3.44 F2880.0
G1 X-23.14 Y19.7 Z3.44 F2880.0
M103
G1 X-10.06 Y19.7 Z3.44 F3300.0
M101
G1 X-6.62 Y19.7 Z3.44 F2880.0
G1 X-6.73 Y19.35 Z3.44 F2880.0
G1 X-6.47 Y19.09 Z3.44 F2880.0
G1 X-5.93 Y19.7 Z3.44 F2880.0
G1 X-3.86 Y19.7 Z3.44 F2880.0
G1 X-6.16 Y16.48 Z3.44 F2880.0
G1 X-5.89 Y16.22 Z3.44 F2880.0
G1 X-3.29 Y15.91 Z3.44 F2880.0
G1 X-3.02 Y15.65 Z3.44 F2880.0
G1 X-2.71 Y13.04 Z3.44 F2880.0
G1 X-2.45 Y12.78 Z3.44 F2880.0
G1 X0.15 Y12.47 Z3.44 F2880.0
G1 X0.42 Y12.21 Z3.44 F2880.0
G1 X0.73 Y9.6 Z3.44 F2880.0
G1 X0.99 Y9.34 Z3.44 F2880.0
G1 X3.6 Y9.03 Z3.44 F2880.0
G1 X3.86 Y8.76 Z3.44 F2880.0
G1 X4.17 Y6.16 Z3.44 F2880.0
G1 X4.43 Y5.89 Z3.44 F2880.0
G1 X7.04 Y5.58 Z3.44 F2880.0
G1 X7.3 Y5.32 Z3.44 F2880.0
G1 X7.62 Y2.71 Z3.44 F2880.0
G1 X7.88 Y2.45 Z3.44 F2880.0
G1 X10.48 Y2.14 Z3.44 F2880.0
G1 X10.75 Y1.88 Z3.44 F2880.0
G1 X11.06 Y-0.73 Z3.44 F2880.0
G1 X11.32 Y-0.99 Z3.44 F2880.0
G1 X13.93 Y-1.3 Z3.44 F2880.0
G1 X14.19 Y-1.57 Z3.44 F2880.0
G1 X14.5 Y-4.17 Z3.44 F2880.0
G1 X14.76 Y-4.43 Z3.44 F2880.0
G1 X17.37 Y-4.75 Z3.44 F2880.0
G1 X17.63 Y-5.01 Z3.44 F2880.0
G1 X17.94 Y-7.62 Z3.44 F2880.0
G1 X18.21 Y-7.88 Z3.44 F2880.0
G1 X20.81 Y-8.19 Z3.44 F2880.0
G1 X21.08 Y-8.45 Z3.44 F2880.0
G1 X21.39 Y-11.06 Z3.44 F2880.0
G1 X21.65 Y-11.32 Z3.44 F2880.0
G1 X24.84 Y-8.31 Z3.44 F2880.0
G1 X24.84 Y-14.51 Z3.44 F2880.0
M103
G1 X24.84 Y-7.62 Z3.44 F3300.0
M101
G1 X24.84 Y-2.12 Z3.44 F2880.0
G1 X24.35 Y-2.8 Z3.44 F2880.0
G1 X23.37 Y-6.16 Z3.44 F2880.0
G1 X23.11 Y-5.89 Z3.44 F2880.0
G1 X22.8 Y-3.29 Z3.44 F2880.0
G1 X22.53 Y-3.02 Z3.44 F2880.0
G1 X19.93 Y-2.71 Z3.44 F2880.0
G1 X19.66 Y-2.45 Z3.44 F2880.0
G1 X19.35 Y0.15 Z3.44 F2880.0
G1 X19.09 Y0.42 Z3.44 F2880.0
G1 X16.48 Y0.73 Z3.44 F2880.0
G1 X16.22 Y0.99 Z3.44 F2880.0
G1 X15.91 Y3.6 Z3.44 F2880.0
G1 X15.65 Y3.86 Z3.44 F2880.0
G1 X13.04 Y4.17 Z3.44 F2880.0
G1 X12.78 Y4.43 Z3.44 F2880.0
G1 X12.47 Y7.04 Z3.44 F2880.0
G1 X12.21 Y7.3 Z3.44 F2880.0
G1 X9.6 Y7.62 Z3.44 F2880.0
G1 X9.34 Y7.88 Z3.44 F2880.0
G1 X9.03 Y10.48 Z3.44 F2880.0
G1 X8.76 Y10.75 Z3.44 F2880.0
G1 X6.16 Y11.06 Z3.44 F2880.0
G1 X5.89 Y11.32 Z3.44 F2880.0
G1 X5.58 Y13.93 Z3.44 F2880.0
G1 X5.32 Y14.19 Z3.44 F2880.0
G1 X2.71 Y14.5 Z3.44 F2880.0
G1 X2.45 Y14.76 Z3.44 F2880.0
G1 X2.14 Y17.37 Z3.44 F2880.0
G1 X1.88 Y17.63 Z3.44 F2880.0
G1 X-0.73 Y17.94 Z3.44 F2880.0
G1 X-0.99 Y18.21 Z3.44 F2880.0
G1 X2.33 Y19.21 Z3.44 F2880.0
G1 X3.02 Y19.7 Z3.44 F2880.0
G1 X-3.17 Y19.7 Z3.44 F2880.0
M103
G1 X3.71 Y19.7 Z3.44 F3300.0
M101
G1 X7.15 Y19.7 Z3.44 F2880.0
G1 X7.04 Y19.35 Z3.44 F2880.0
G1 X7.3 Y19.09 Z3.44 F2880.0
G1 X7.84 Y19.7 Z3.44 F2880.0
G1 X9.91 Y19.7 Z3.44 F2880.0
G1 X7.62 Y16.48 Z3.44 F2880.0
G1 X7.88 Y16.22 Z3.44 F2880.0
G1 X10.48 Y15.91 Z3.44 F2880.0
G1 X10.75 Y15.65 Z3.44 F2880.0
G1 X11.06 Y13.04 Z3.44 F2880.0
G1 X11.32 Y12.78 Z3.44 F2880.0
G1 X13.93 Y12.47 Z3.44 F2880.0
G1 X14.19 Y12.21 Z3.44 F2880.0
G1 X14.5 Y9.6 Z3.44 F2880.0
G1 X14.76 Y9.34 Z3.44 F2880.0
G1 X17.37 Y9.03 Z3.44 F2880.0
G1 X17.63 Y8.76 Z3.44 F2880.0
G1 X17.94 Y6.16 Z3.44 F2880.0
G1 X18.21 Y5.89 Z3.44 F2880.0
G1 X20.81 Y5.58 Z3.44 F2880.0
G1 X21.08 Y5.32 Z3.44 F2880.0
G1 X21.39 Y2.71 Z3.44 F2880.0
G1 X21.65 Y2.45 Z3.44 F2880.0
G1 X24.84 Y4.77 Z3.44 F2880.0
G1 X24.84 Y-1.43 Z3.44 F2880.0
M103
G1 X24.84 Y5.46 Z3.44 F3300.0
M101
G1 X24.84 Y11.66 Z3.44 F2880.0
G1 X24.35 Y10.97 Z3.44 F2880.0
G1 X23.37 Y7.62 Z3.44 F2880.0
G1 X23.11 Y7.88 Z3.44 F2880.0
G1 X22.8 Y10.48 Z3.44 F2880.0
G1 X22.53 Y10.75 Z3.44 F2880.0
G1 X19.93 Y11.06 Z3.44 F2880.0
G1 X19.66 Y11.32 Z3.44 F2880.0
G1 X19.35 Y13.93 Z3.44 F2880.0
G1 X19.09 Y14.19 Z3.44 F2880.0
G1 X16.48 Y14.5 Z3.44 F2880.0
G1 X16.22 Y14.76 Z3.44 F2880.0
G1 X15.91 Y17.37 Z3.44 F2880.0
G1 X15.65 Y17.63 Z3.44 F2880.0
G1 X13.04 Y17.94 Z3.44 F2880.0
G1 X12.78 Y18.21 Z3.44 F2880.0
G1 X16.11 Y19.21 Z3.44 F2880.0
G1 X16.79 Y19.7 Z3.44 F2880.0
G1 X10.6 Y19.7 Z3.44 F2880.0
M103
G1 X17.48 Y19.7 Z3.44 F3300.0
M101
G1 X20.93 Y19.7 Z3.44 F2880.0
G1 X20.81 Y19.35 Z3.44 F2880.0
G1 X21.08 Y19.09 Z3.44 F2880.0
G1 X21.61 Y19.7 Z3.44 F2880.0
G1 X22.99 Y19.7 Z3.44 F2880.0
G1 X21.39 Y16.48 Z3.44 F2880.0
G1 X21.65 Y16.22 Z3.44 F2880.0
G1 X24.84 Y17.85 Z3.44 F2880.0
G1 X24.84 Y12.35 Z3.44 F2880.0
M103
G1 X24.84 Y18.54 Z3.44 F3300.0
M101
G1 X24.84 Y19.23 Z3.44 F2880.0
G1 X24.37 Y19.7 Z3.44 F2880.0
G1 X23.68 Y19.7 Z3.44 F2880.0
M103
G1 X10.76 Y-21.77 Z3.44 F3300.0
M101
G1 X17.64 Y-21.77 Z3.44 F2880.0
G1 X16.95 Y-21.29 Z3.44 F2880.0
G1 X15.57 Y-21.29 Z3.44 F2880.0
G1 X12.47 Y-20.5 Z3.44 F2880.0
G1 X12.21 Y-20.24 Z3.44 F2880.0
G1 X9.6 Y-19.93 Z3.44 F2880.0
G1 X9.34 Y-19.66 Z3.44 F2880.0
G1 X9.03 Y-17.06 Z3.44 F2880.0
G1 X8.76 Y-16.8 Z3.44 F2880.0
G1 X6.16 Y-16.48 Z3.44 F2880.0
G1 X5.89 Y-16.22 Z3.44 F2880.0
G1 X5.58 Y-13.62 Z3.44 F2880.0
G1 X5.32 Y-13.35 Z3.44 F2880.0
G1 X2.71 Y-13.04 Z3.44 F2880.0
G1 X2.45 Y-12.78 Z3.44 F2880.0
G1 X2.14 Y-10.17 Z3.44 F2880.0
G1 X1.88 Y-9.91 Z3.44 F2880.0
G1 X-0.73 Y-9.6 Z3.44 F2880.0
G1 X-0.99 Y-9.34 Z3.44 F2880.0
G1 X-1.3 Y-6.73 Z3.44 F2880.0
G1 X-1.57 Y-6.47 Z3.44 F2880.0
G1 X-4.17 Y-6.16 Z3.44 F2880.0
G1 X-4.43 Y-5.89 Z3.44 F2880.0
G1 X-4.75 Y-3.29 Z3.44 F2880.0
G1 X-5.01 Y-3.02 Z3.44 F2880.0
G1 X-7.62 Y-2.71 Z3.44 F2880.0
G1 X-7.88 Y-2.45 Z3.44 F2880.0
G1 X-8.19 Y0.15 Z3.44 F2880.0
G1 X-8.45 Y0.42 Z3.44 F2880.0
G1 X-11.06 Y0.73 Z3.44 F2880.0
G1 X-11.32 Y0.99 Z3.44 F2880.0
G1 X-11.63 Y3.6 Z3.44 F2880.0
G1 X-11.89 Y3.86 Z3.44 F2880.0
G1 X-14.5 Y4.17 Z3.44 F2880.0
G1 X-14.76 Y4.43 Z3.44 F2880.0
G1 X-15.07 Y7.04 Z3.44 F2880.0
G1 X-15.34 Y7.3 Z3.44 F2880.0
G1 X-17.94 Y7.62 Z3.44 F2880.0
G1 X-18.21 Y7.88 Z3.44 F2880.0
G1 X-18.52 Y10.48 Z3.44 F2880.0
G1 X-18.78 Y10.75 Z3.44 F2880.0
G1 X-21.39 Y11.06 Z3.44 F2880.0
G1 X-21.65 Y11.32 Z3.44 F2880.0
G1 X-21.96 Y13.93 Z3.44 F2880.0
G1 X-22.22 Y14.19 Z3.44 F2880.0
G1 X-23.83 Y19.7 Z3.44 F2880.0
G1 X-24.52 Y19.7 Z3.44 F2880.0
G1 X-24.84 Y19.33 Z3.44 F2880.0
G1 X-24.84 Y6.93 Z3.44 F2880.0
G1 X-23.37 Y6.16 Z3.44 F2880.0
G1 X-23.11 Y5.89 Z3.44 F2880.0
G1 X-20.5 Y5.58 Z3.44 F2880.0
G1 X-20.24 Y5.32 Z3.44 F2880.0
G1 X-19.93 Y2.71 Z3.44 F2880.0
G1 X-19.66 Y2.45 Z3.44 F2880.0
G1 X-17.06 Y2.14 Z3.44 F2880.0
G1 X-16.8 Y1.88 Z3.44 F2880.0
G1 X-16.48 Y-0.73 Z3.44 F2880.0
G1 X-16.22 Y-0.99 Z3.44 F2880.0
G1 X-13.62 Y-1.3 Z3.44 F2880.0
G1 X-13.35 Y-1.57 Z3.44 F2880.0
G1 X-13.04 Y-4.17 Z3.44 F2880.0
G1 X-12.78 Y-4.43 Z3.44 F2880.0
G1 X-10.17 Y-4.75 Z3.44 F2880.0
G1 X-9.91 Y-5.01 Z3.44 F2880.0
G1 X-9.6 Y-7.62 Z3.44 F2880.0
G1 X-9.34 Y-7.88 Z3.44 F2880.0
G1 X-6.73 Y-8.19 Z3.44 F2880.0
G1 X-6.47 Y-8.45 Z3.44 F2880.0
G1 X-6.16 Y-11.06 Z3.44 F2880.0
G1 X-5.89 Y-11.32 Z3.44 F2880.0
G1 X-3.29 Y-11.63 Z3.44 F2880.0
G1 X-3.02 Y-11.89 Z3.44 F2880.0
G1 X-2.71 Y-14.5 Z3.44 F2880.0
G1 X-2.45 Y-14.76 Z3.44 F2880.0
G1 X0.15 Y-15.07 Z3.44 F2880.0
G1 X0.42 Y-15.34 Z3.44 F2880.0
G1 X0.73 Y-17.94 Z3.44 F2880.0
G1 X0.99 Y-18.21 Z3.44 F2880.0
G1 X3.6 Y-18.52 Z3.44 F2880.0
G1 X3.86 Y-18.78 Z3.44 F2880.0
G1 X3.87 Y-21.77 Z3.44 F2880.0
G1 X10.07 Y-21.77 Z3.44 F2880.0
M103
G1 X-3.02 Y-21.77 Z3.44 F3300.0
M101
G1 X3.18 Y-21.77 Z3.44 F2880.0
G1 X3.18 Y-21.29 Z3.44 F2880.0
G1 X1.8 Y-21.29 Z3.44 F2880.0
G1 X-1.3 Y-20.5 Z3.44 F2880.0
G1 X-1.57 Y-20.24 Z3.44 F2880.0
G1 X-4.17 Y-19.93 Z3.44 F2880.0
G1 X-4.43 Y-19.66 Z3.44 F2880.0
G1 X-4.75 Y-17.06 Z3.44 F2880.0
G1 X-5.01 Y-16.8 Z3.44 F2880.0
G1 X-7.62 Y-16.48 Z3.44 F2880.0
G1 X-7.88 Y-16.22 Z3.44 F2880.0
