(** This GCode was generated by ReplicatorG 0040 **)
(*  using Skeinforge (35) - Legacy  *)
(*  for a Single headed Cupcake  *)
(*  on 2013/06/01 19:30:25 (+0100) *)
(**** beginning of start.gcode ****)
(This file is for a MakerBot Cupcake CNC)
M104 S220 T0 (Temperature to 220 celsius) (temp updated by printOMatic)
G21 (Metric FTW)
G90 (Absolute Positioning)
(G92 X0 Y0 Z0 (You are now at 0,0,0))
(You have failed me for the last time, MakerBot)
G1 Z15 F60 (Move up for test extrusion)
M108 S255 (Extruder speed = max)
M104 S180 T0
M6 T0 (Wait for tool to heat up)
G04 P5000 (Wait 5 seconds)
M101 (Extruder on, forward)
G04 P5000 (Wait 5 seconds)
M103 (Extruder off)
M01 (The heater is warming up and will do a test extrusion.  Click yes after you have cleared the nozzle of the extrusion.)
G1 Z0 F60	(Go back to zero.)
(**** end of start.gcode ****)
(<creation> skeinforge </creation>)
(<version> 10.11.05 </version>)
(<extruderInitialization>)
G90
G21
M103
(<craftTypeName> extrusion </craftTypeName>)
M105
(<bridgeWidthMultiplier> 1.0 </bridgeWidthMultiplier>)
(<decimalPlacesCarried> 3 </decimalPlacesCarried>)
(<layerThickness> 0.313 </layerThickness>)
(<threadSequenceString> loops perimeter infill </threadSequenceString>)
(<operatingFeedRatePerSecond> 48.0 </operatingFeedRatePerSecond>)
(<operatingFlowRate> 255.0 </operatingFlowRate>)
(<orbitalFeedRatePerSecond> 24.0 </orbitalFeedRatePerSecond>)
(<travelFeedRatePerSecond> 55.0 </travelFeedRatePerSecond>)
(<coolingRate> 0.5 </coolingRate>)
(<heatingRate> 1.0 </heatingRate>)
(<baseTemperature> 180.0 </baseTemperature>)
(<interfaceTemperature> 180.0 </interfaceTemperature>)
(<objectFirstLayerInfillTemperature> 180.0 </objectFirstLayerInfillTemperature>)
(<objectFirstLayerPerimeterTemperature> 180.0 </objectFirstLayerPerimeterTemperature>)
(<objectNextLayersTemperature> 180.0 </objectNextLayersTemperature>)
(<supportLayersTemperature> 180.0 </supportLayersTemperature>)
(<supportedLayersTemperature> 180.0 </supportedLayersTemperature>)
(<maximumZTravelFeedRatePerSecond> 5.0 </maximumZTravelFeedRatePerSecond>)
(<perimeterWidth> 0.438 </perimeterWidth>)
(<profileName> PLA </profileName>)
(<procedureDone> carve,bottom </procedureDone>)
(<procedureDone> preface </procedureDone>)
(<procedureDone> inset </procedureDone>)
(<procedureDone> fill </procedureDone>)
(<procedureDone> speed </procedureDone>)
(<procedureDone> temperature </procedureDone>)
(<procedureDone> raft </procedureDone>)
(<procedureDone> jitter </procedureDone>)
(<procedureDone> comb </procedureDone>)
(<procedureDone> outline </procedureDone>)
(<procedureDone> limit </procedureDone>)
(<procedureDone> export </procedureDone>)
(</extruderInitialization>)
(<extrusion>)
;M113 S1.0
M108 S255.0
M104 S180.0
(<layer> 0.501 )
M108 S255.0
G1 X-45.05 Y-54.51 Z0.5 F300.0
M101
G1 X-45.05 Y57.79 Z0.5 F720.0
G1 X48.55 Y57.79 Z0.5 F720.0
G1 X48.55 Y-54.51 Z0.5 F720.0
G1 X-45.05 Y-54.51 Z0.5 F720.0
M103
G1 X-42.05 Y-46.03 Z0.5 F720.0
M101
G1 X-42.05 Y-37.19 Z0.5 F720.0
M103
G1 X-40.3 Y-32.81 Z0.5 F720.0
M101
G1 X-40.3 Y-48.22 Z0.5 F720.0
G1 X-38.54 Y-49.32 Z0.5 F720.0
G1 X-38.54 Y-29.52 Z0.5 F720.0
G1 X-36.79 Y-25.14 Z0.5 F720.0
M103
G1 X-36.79 Y-26.83 Z0.5 F720.0
M101
G1 X-36.79 Y-50.41 Z0.5 F720.0
G1 X-35.04 Y-50.41 Z0.5 F720.0
G1 X-35.04 Y-21.86 Z0.5 F720.0
G1 X-33.29 Y-18.57 Z0.5 F720.0
G1 X-33.29 Y-51.51 Z0.5 F720.0
G1 X-31.54 Y-51.51 Z0.5 F720.0
G1 X-31.54 Y-16.38 Z0.5 F720.0
G1 X-29.78 Y-14.19 Z0.5 F720.0
G1 X-29.78 Y-51.51 Z0.5 F720.0
G1 X-28.03 Y-51.51 Z0.5 F720.0
G1 X-28.03 Y-12.0 Z0.5 F720.0
G1 X-26.28 Y-8.72 Z0.5 F720.0
G1 X-26.28 Y-51.51 Z0.5 F720.0
G1 X-24.53 Y-50.41 Z0.5 F720.0
G1 X-24.53 Y-6.53 Z0.5 F720.0
G1 X-22.78 Y-4.34 Z0.5 F720.0
G1 X-22.78 Y-49.32 Z0.5 F720.0
G1 X-21.02 Y-48.22 Z0.5 F720.0
G1 X-21.02 Y-2.15 Z0.5 F720.0
G1 X-19.27 Y0.04 Z0.5 F720.0
G1 X-19.27 Y-47.13 Z0.5 F720.0
G1 X-17.52 Y-44.94 Z0.5 F720.0
G1 X-17.52 Y2.23 Z0.5 F720.0
G1 X-15.77 Y4.42 Z0.5 F720.0
G1 X-15.77 Y-43.84 Z0.5 F720.0
G1 X-14.02 Y-42.75 Z0.5 F720.0
G1 X-14.02 Y6.61 Z0.5 F720.0
G1 X-12.26 Y8.8 Z0.5 F720.0
G1 X-12.26 Y-40.56 Z0.5 F720.0
G1 X-10.51 Y-39.46 Z0.5 F720.0
G1 X-10.51 Y10.99 Z0.5 F720.0
G1 X-8.76 Y13.18 Z0.5 F720.0
G1 X-8.76 Y-37.27 Z0.5 F720.0
G1 X-7.01 Y-36.18 Z0.5 F720.0
G1 X-7.01 Y16.47 Z0.5 F720.0
G1 X-5.26 Y18.66 Z0.5 F720.0
G1 X-5.26 Y-33.99 Z0.5 F720.0
G1 X-3.5 Y-31.8 Z0.5 F720.0
G1 X-3.5 Y20.85 Z0.5 F720.0
G1 X-1.75 Y23.04 Z0.5 F720.0
G1 X-1.75 Y-29.61 Z0.5 F720.0
G1 X0.0 Y-27.42 Z0.5 F720.0
G1 X0.0 Y25.23 Z0.5 F720.0
G1 X1.75 Y27.42 Z0.5 F720.0
G1 X1.75 Y-25.23 Z0.5 F720.0
G1 X3.5 Y-23.04 Z0.5 F720.0
G1 X3.5 Y29.61 Z0.5 F720.0
G1 X5.26 Y30.7 Z0.5 F720.0
G1 X5.26 Y-20.85 Z0.5 F720.0
G1 X7.01 Y-18.66 Z0.5 F720.0
G1 X7.01 Y32.89 Z0.5 F720.0
G1 X8.76 Y33.99 Z0.5 F720.0
G1 X8.76 Y-16.47 Z0.5 F720.0
G1 X10.51 Y-14.28 Z0.5 F720.0
G1 X10.51 Y36.18 Z0.5 F720.0
G1 X12.26 Y38.37 Z0.5 F720.0
G1 X12.26 Y-12.09 Z0.5 F720.0
G1 X14.02 Y-9.9 Z0.5 F720.0
G1 X14.02 Y39.46 Z0.5 F720.0
G1 X15.77 Y41.65 Z0.5 F720.0
G1 X15.77 Y-7.71 Z0.5 F720.0
G1 X17.52 Y-5.52 Z0.5 F720.0
G1 X17.52 Y42.75 Z0.5 F720.0
G1 X19.27 Y44.94 Z0.5 F720.0
G1 X19.27 Y-2.23 Z0.5 F720.0
G1 X21.02 Y1.05 Z0.5 F720.0
G1 X21.02 Y47.13 Z0.5 F720.0
G1 X22.78 Y48.22 Z0.5 F720.0
G1 X22.78 Y3.24 Z0.5 F720.0
G1 X24.53 Y6.53 Z0.5 F720.0
G1 X24.53 Y50.41 Z0.5 F720.0
G1 X26.28 Y51.51 Z0.5 F720.0
G1 X26.28 Y9.81 Z0.5 F720.0
G1 X28.03 Y13.1 Z0.5 F720.0
G1 X28.03 Y52.6 Z0.5 F720.0
G1 X29.78 Y53.7 Z0.5 F720.0
G1 X29.78 Y15.29 Z0.5 F720.0
G1 X31.54 Y18.57 Z0.5 F720.0
G1 X31.54 Y54.79 Z0.5 F720.0
G1 X33.29 Y54.79 Z0.5 F720.0
G1 X33.29 Y21.86 Z0.5 F720.0
G1 X35.04 Y24.05 Z0.5 F720.0
G1 X35.04 Y54.79 Z0.5 F720.0
G1 X36.79 Y53.7 Z0.5 F720.0
G1 X36.79 Y27.33 Z0.5 F720.0
G1 X38.54 Y30.62 Z0.5 F720.0
G1 X38.54 Y52.6 Z0.5 F720.0
G1 X40.3 Y51.51 Z0.5 F720.0
G1 X40.3 Y32.81 Z0.5 F720.0
G1 X42.05 Y36.09 Z0.5 F720.0
G1 X42.05 Y50.41 Z0.5 F720.0
G1 X43.8 Y49.32 Z0.5 F720.0
G1 X43.8 Y39.38 Z0.5 F720.0
M103
G1 X45.55 Y45.95 Z0.5 F720.0
M101
G1 X45.55 Y47.13 Z0.5 F720.0
M103
(</layer>)
(<layer> 0.923 )
G1 X-19.29 Y0.0 Z0.92 F2880.0
M101
G1 X19.29 Y0.0 Z0.92 F2880.0
G1 X19.29 Y-1.09 Z0.92 F2880.0
G1 X-19.29 Y-1.09 Z0.92 F2880.0
G1 X-21.05 Y-2.19 Z0.92 F2880.0
G1 X19.29 Y-2.19 Z0.92 F2880.0
G1 X17.54 Y-3.29 Z0.92 F2880.0
G1 X-21.05 Y-3.29 Z0.92 F2880.0
G1 X-22.8 Y-4.38 Z0.92 F2880.0
G1 X17.54 Y-4.38 Z0.92 F2880.0
G1 X17.54 Y-5.47 Z0.92 F2880.0
G1 X-22.8 Y-5.47 Z0.92 F2880.0
G1 X-24.55 Y-6.57 Z0.92 F2880.0
G1 X15.79 Y-6.57 Z0.92 F2880.0
G1 X15.79 Y-7.67 Z0.92 F2880.0
G1 X-24.55 Y-7.67 Z0.92 F2880.0
G1 X-26.3 Y-8.76 Z0.92 F2880.0
G1 X14.04 Y-8.76 Z0.92 F2880.0
G1 X14.04 Y-9.86 Z0.92 F2880.0
G1 X-26.3 Y-9.86 Z0.92 F2880.0
G1 X-26.3 Y-10.95 Z0.92 F2880.0
G1 X12.29 Y-10.95 Z0.92 F2880.0
G1 X12.29 Y-12.04 Z0.92 F2880.0
G1 X-28.05 Y-12.04 Z0.92 F2880.0
G1 X-28.05 Y-13.14 Z0.92 F2880.0
G1 X10.53 Y-13.14 Z0.92 F2880.0
G1 X10.53 Y-14.23 Z0.92 F2880.0
G1 X-29.81 Y-14.23 Z0.92 F2880.0
G1 X-29.81 Y-15.33 Z0.92 F2880.0
G1 X8.78 Y-15.33 Z0.92 F2880.0
G1 X8.78 Y-16.43 Z0.92 F2880.0
G1 X-31.56 Y-16.43 Z0.92 F2880.0
G1 X-31.56 Y-17.52 Z0.92 F2880.0
G1 X7.03 Y-17.52 Z0.92 F2880.0
G1 X7.03 Y-18.61 Z0.92 F2880.0
G1 X-33.31 Y-18.61 Z0.92 F2880.0
G1 X-33.31 Y-19.71 Z0.92 F2880.0
G1 X5.28 Y-19.71 Z0.92 F2880.0
G1 X5.28 Y-20.8 Z0.92 F2880.0
G1 X-33.31 Y-20.8 Z0.92 F2880.0
G1 X-35.06 Y-21.9 Z0.92 F2880.0
G1 X3.53 Y-21.9 Z0.92 F2880.0
G1 X3.53 Y-23.0 Z0.92 F2880.0
G1 X-35.06 Y-23.0 Z0.92 F2880.0
G1 X-35.06 Y-24.09 Z0.92 F2880.0
G1 X1.77 Y-24.09 Z0.92 F2880.0
G1 X1.77 Y-25.18 Z0.92 F2880.0
G1 X-36.81 Y-25.18 Z0.92 F2880.0
G1 X-36.81 Y-26.28 Z0.92 F2880.0
G1 X0.02 Y-26.28 Z0.92 F2880.0
G1 X0.02 Y-27.38 Z0.92 F2880.0
G1 X-36.81 Y-27.38 Z0.92 F2880.0
G1 X-36.81 Y-28.47 Z0.92 F2880.0
G1 X-1.73 Y-28.47 Z0.92 F2880.0
G1 X-1.73 Y-29.57 Z0.92 F2880.0
G1 X-38.57 Y-29.57 Z0.92 F2880.0
G1 X-38.57 Y-30.66 Z0.92 F2880.0
G1 X-3.48 Y-30.66 Z0.92 F2880.0
G1 X-3.48 Y-31.75 Z0.92 F2880.0
G1 X-38.57 Y-31.75 Z0.92 F2880.0
G1 X-40.32 Y-32.85 Z0.92 F2880.0
G1 X-5.23 Y-32.85 Z0.92 F2880.0
G1 X-5.23 Y-33.95 Z0.92 F2880.0
G1 X-40.32 Y-33.95 Z0.92 F2880.0
G1 X-40.32 Y-35.04 Z0.92 F2880.0
G1 X-6.99 Y-35.04 Z0.92 F2880.0
G1 X-6.99 Y-36.13 Z0.92 F2880.0
G1 X-40.32 Y-36.13 Z0.92 F2880.0
G1 X-42.07 Y-37.23 Z0.92 F2880.0
G1 X-8.74 Y-37.23 Z0.92 F2880.0
G1 X-10.49 Y-38.33 Z0.92 F2880.0
G1 X-42.07 Y-38.33 Z0.92 F2880.0
G1 X-42.07 Y-39.42 Z0.92 F2880.0
G1 X-10.49 Y-39.42 Z0.92 F2880.0
G1 X-12.24 Y-40.52 Z0.92 F2880.0
G1 X-42.07 Y-40.52 Z0.92 F2880.0
G1 X-42.07 Y-41.61 Z0.92 F2880.0
G1 X-13.99 Y-41.61 Z0.92 F2880.0
G1 X-13.99 Y-42.7 Z0.92 F2880.0
G1 X-42.07 Y-42.7 Z0.92 F2880.0
G1 X-42.07 Y-43.8 Z0.92 F2880.0
G1 X-15.75 Y-43.8 Z0.92 F2880.0
G1 X-17.5 Y-44.9 Z0.92 F2880.0
G1 X-42.07 Y-44.9 Z0.92 F2880.0
G1 X-42.07 Y-45.99 Z0.92 F2880.0
G1 X-19.25 Y-45.99 Z0.92 F2880.0
G1 X-19.25 Y-47.09 Z0.92 F2880.0
G1 X-40.32 Y-47.09 Z0.92 F2880.0
G1 X-40.32 Y-48.18 Z0.92 F2880.0
G1 X-21.0 Y-48.18 Z0.92 F2880.0
M103
G1 X-22.75 Y-49.27 Z0.92 F2880.0
M101
G1 X-38.57 Y-49.27 Z0.92 F2880.0
G1 X-36.81 Y-50.37 Z0.92 F2880.0
G1 X-24.51 Y-50.37 Z0.92 F2880.0
G1 X-26.26 Y-51.47 Z0.92 F2880.0
G1 X-33.31 Y-51.47 Z0.92 F2880.0
M103
G1 X-17.54 Y1.09 Z0.92 F2880.0
M101
G1 X21.05 Y1.09 Z0.92 F2880.0
G1 X21.05 Y2.19 Z0.92 F2880.0
G1 X-17.54 Y2.19 Z0.92 F2880.0
G1 X-15.79 Y3.29 Z0.92 F2880.0
G1 X22.8 Y3.29 Z0.92 F2880.0
G1 X22.8 Y4.38 Z0.92 F2880.0
G1 X-15.79 Y4.38 Z0.92 F2880.0
G1 X-14.04 Y5.47 Z0.92 F2880.0
G1 X22.8 Y5.47 Z0.92 F2880.0
G1 X24.55 Y6.57 Z0.92 F2880.0
G1 X-14.04 Y6.57 Z0.92 F2880.0
G1 X-12.29 Y7.67 Z0.92 F2880.0
G1 X24.55 Y7.67 Z0.92 F2880.0
G1 X24.55 Y8.76 Z0.92 F2880.0
G1 X-12.29 Y8.76 Z0.92 F2880.0
G1 X-10.53 Y9.86 Z0.92 F2880.0
G1 X26.3 Y9.86 Z0.92 F2880.0
G1 X26.3 Y10.95 Z0.92 F2880.0
G1 X-10.53 Y10.95 Z0.92 F2880.0
G1 X-8.78 Y12.04 Z0.92 F2880.0
G1 X26.3 Y12.04 Z0.92 F2880.0
G1 X28.05 Y13.14 Z0.92 F2880.0
G1 X-8.78 Y13.14 Z0.92 F2880.0
G1 X-7.03 Y14.23 Z0.92 F2880.0
G1 X28.05 Y14.23 Z0.92 F2880.0
G1 X29.81 Y15.33 Z0.92 F2880.0
G1 X-7.03 Y15.33 Z0.92 F2880.0
G1 X-7.03 Y16.43 Z0.92 F2880.0
G1 X29.81 Y16.43 Z0.92 F2880.0
G1 X29.81 Y17.52 Z0.92 F2880.0
G1 X-5.28 Y17.52 Z0.92 F2880.0
G1 X-5.28 Y18.61 Z0.92 F2880.0
G1 X31.56 Y18.61 Z0.92 F2880.0
G1 X31.56 Y19.71 Z0.92 F2880.0
G1 X-3.53 Y19.71 Z0.92 F2880.0
G1 X-3.53 Y20.8 Z0.92 F2880.0
G1 X31.56 Y20.8 Z0.92 F2880.0
G1 X33.31 Y21.9 Z0.92 F2880.0
G1 X-1.77 Y21.9 Z0.92 F2880.0
G1 X-1.77 Y23.0 Z0.92 F2880.0
G1 X33.31 Y23.0 Z0.92 F2880.0
G1 X35.06 Y24.09 Z0.92 F2880.0
G1 X-0.02 Y24.09 Z0.92 F2880.0
G1 X-0.02 Y25.18 Z0.92 F2880.0
G1 X35.06 Y25.18 Z0.92 F2880.0
G1 X35.06 Y26.28 Z0.92 F2880.0
G1 X1.73 Y26.28 Z0.92 F2880.0
G1 X1.73 Y27.38 Z0.92 F2880.0
G1 X36.81 Y27.38 Z0.92 F2880.0
G1 X36.81 Y28.47 Z0.92 F2880.0
G1 X3.48 Y28.47 Z0.92 F2880.0
G1 X3.48 Y29.57 Z0.92 F2880.0
G1 X36.81 Y29.57 Z0.92 F2880.0
G1 X38.57 Y30.66 Z0.92 F2880.0
G1 X5.23 Y30.66 Z0.92 F2880.0
G1 X6.99 Y31.75 Z0.92 F2880.0
G1 X38.57 Y31.75 Z0.92 F2880.0
G1 X40.32 Y32.85 Z0.92 F2880.0
G1 X6.99 Y32.85 Z0.92 F2880.0
M103
G1 X8.74 Y33.95 Z0.92 F2880.0
M101
G1 X40.32 Y33.95 Z0.92 F2880.0
G1 X40.32 Y35.04 Z0.92 F2880.0
G1 X10.49 Y35.04 Z0.92 F2880.0
G1 X10.49 Y36.13 Z0.92 F2880.0
G1 X42.07 Y36.13 Z0.92 F2880.0
G1 X42.07 Y37.23 Z0.92 F2880.0
G1 X12.24 Y37.23 Z0.92 F2880.0
G1 X12.24 Y38.33 Z0.92 F2880.0
G1 X42.07 Y38.33 Z0.92 F2880.0
G1 X43.82 Y39.42 Z0.92 F2880.0
G1 X13.99 Y39.42 Z0.92 F2880.0
G1 X15.75 Y40.52 Z0.92 F2880.0
G1 X43.82 Y40.52 Z0.92 F2880.0
G1 X43.82 Y41.61 Z0.92 F2880.0
G1 X15.75 Y41.61 Z0.92 F2880.0
G1 X17.5 Y42.7 Z0.92 F2880.0
G1 X43.82 Y42.7 Z0.92 F2880.0
G1 X43.82 Y43.8 Z0.92 F2880.0
G1 X19.25 Y43.8 Z0.92 F2880.0
G1 X19.25 Y44.9 Z0.92 F2880.0
G1 X43.82 Y44.9 Z0.92 F2880.0
G1 X45.57 Y45.99 Z0.92 F2880.0
G1 X21.0 Y45.99 Z0.92 F2880.0
G1 X21.0 Y47.09 Z0.92 F2880.0
G1 X45.57 Y47.09 Z0.92 F2880.0
G1 X43.82 Y48.18 Z0.92 F2880.0
G1 X22.75 Y48.18 Z0.92 F2880.0
G1 X24.51 Y49.27 Z0.92 F2880.0
G1 X43.82 Y49.27 Z0.92 F2880.0
G1 X42.07 Y50.37 Z0.92 F2880.0
G1 X24.51 Y50.37 Z0.92 F2880.0
G1 X26.26 Y51.47 Z0.92 F2880.0
G1 X40.32 Y51.47 Z0.92 F2880.0
G1 X38.57 Y52.56 Z0.92 F2880.0
G1 X28.01 Y52.56 Z0.92 F2880.0
G1 X29.76 Y53.66 Z0.92 F2880.0
G1 X36.81 Y53.66 Z0.92 F2880.0
G1 X35.06 Y54.75 Z0.92 F2880.0
G1 X31.51 Y54.75 Z0.92 F2880.0
M103
(</layer>)
(<raftLayerEnd> </raftLayerEnd>)
(<layer> 1.253 )
(<surroundingLoop>)
(<boundaryPerimeter>)
(<boundaryPoint> X5.835 Y-4.385 Z1.253 </boundaryPoint>)
(<boundaryPoint> X7.076 Y-2.816 Z1.253 </boundaryPoint>)
(<boundaryPoint> X1.947 Y1.066 Z1.253 </boundaryPoint>)
(<boundaryPoint> X3.154 Y2.66 Z1.253 </boundaryPoint>)
(<boundaryPoint> X8.294 Y-1.229 Z1.253 </boundaryPoint>)
(<boundaryPoint> X9.475 Y0.385 Z1.253 </boundaryPoint>)
(<boundaryPoint> X4.361 Y4.255 Z1.253 </boundaryPoint>)
(<boundaryPoint> X5.568 Y5.85 Z1.253 </boundaryPoint>)
(<boundaryPoint> X10.602 Y2.043 Z1.253 </boundaryPoint>)
(<boundaryPoint> X11.686 Y3.728 Z1.253 </boundaryPoint>)
(<boundaryPoint> X6.775 Y7.445 Z1.253 </boundaryPoint>)
(<boundaryPoint> X7.981 Y9.04 Z1.253 </boundaryPoint>)
(<boundaryPoint> X12.75 Y5.435 Z1.253 </boundaryPoint>)
(<boundaryPoint> X13.804 Y7.142 Z1.253 </boundaryPoint>)
(<boundaryPoint> X9.188 Y10.635 Z1.253 </boundaryPoint>)
(<boundaryPoint> X10.395 Y12.229 Z1.253 </boundaryPoint>)
(<boundaryPoint> X14.878 Y8.84 Z1.253 </boundaryPoint>)
(<boundaryPoint> X15.974 Y10.516 Z1.253 </boundaryPoint>)
(<boundaryPoint> X11.602 Y13.824 Z1.253 </boundaryPoint>)
(<boundaryPoint> X12.809 Y15.419 Z1.253 </boundaryPoint>)
(<boundaryPoint> X17.09 Y12.182 Z1.253 </boundaryPoint>)
(<boundaryPoint> X18.2 Y13.848 Z1.253 </boundaryPoint>)
(<boundaryPoint> X14.016 Y17.014 Z1.253 </boundaryPoint>)
(<boundaryPoint> X15.222 Y18.61 Z1.253 </boundaryPoint>)
(<boundaryPoint> X19.29 Y15.534 Z1.253 </boundaryPoint>)
(<boundaryPoint> X20.337 Y17.248 Z1.253 </boundaryPoint>)
(<boundaryPoint> X16.43 Y20.204 Z1.253 </boundaryPoint>)
(<boundaryPoint> X17.636 Y21.799 Z1.253 </boundaryPoint>)
(<boundaryPoint> X20.995 Y19.257 Z1.253 </boundaryPoint>)
(<boundaryPoint> X21.314 Y19.072 Z1.253 </boundaryPoint>)
(<boundaryPoint> X21.524 Y19.375 Z1.253 </boundaryPoint>)
(<boundaryPoint> X22.273 Y20.798 Z1.253 </boundaryPoint>)
(<boundaryPoint> X18.843 Y23.393 Z1.253 </boundaryPoint>)
(<boundaryPoint> X20.05 Y24.988 Z1.253 </boundaryPoint>)
(<boundaryPoint> X22.847 Y22.872 Z1.253 </boundaryPoint>)
(<boundaryPoint> X23.166 Y22.695 Z1.253 </boundaryPoint>)
(<boundaryPoint> X23.372 Y22.995 Z1.253 </boundaryPoint>)
(<boundaryPoint> X24.088 Y24.441 Z1.253 </boundaryPoint>)
(<boundaryPoint> X21.257 Y26.583 Z1.253 </boundaryPoint>)
(<boundaryPoint> X22.464 Y28.178 Z1.253 </boundaryPoint>)
(<boundaryPoint> X24.676 Y26.503 Z1.253 </boundaryPoint>)
(<boundaryPoint> X24.996 Y26.315 Z1.253 </boundaryPoint>)
(<boundaryPoint> X25.208 Y26.619 Z1.253 </boundaryPoint>)
(<boundaryPoint> X25.969 Y28.034 Z1.253 </boundaryPoint>)
(<boundaryPoint> X23.671 Y29.773 Z1.253 </boundaryPoint>)
(<boundaryPoint> X24.877 Y31.368 Z1.253 </boundaryPoint>)
(<boundaryPoint> X26.931 Y29.861 Z1.253 </boundaryPoint>)
(<boundaryPoint> X27.932 Y31.564 Z1.253 </boundaryPoint>)
(<boundaryPoint> X26.084 Y32.962 Z1.253 </boundaryPoint>)
(<boundaryPoint> X27.291 Y34.557 Z1.253 </boundaryPoint>)
(<boundaryPoint> X28.917 Y33.372 Z1.253 </boundaryPoint>)
(<boundaryPoint> X29.926 Y35.072 Z1.253 </boundaryPoint>)
(<boundaryPoint> X28.498 Y36.152 Z1.253 </boundaryPoint>)
(<boundaryPoint> X29.702 Y37.749 Z1.253 </boundaryPoint>)
(<boundaryPoint> X30.923 Y36.83 Z1.253 </boundaryPoint>)
(<boundaryPoint> X31.925 Y38.574 Z1.253 </boundaryPoint>)
(<boundaryPoint> X30.912 Y39.342 Z1.253 </boundaryPoint>)
(<boundaryPoint> X32.115 Y40.94 Z1.253 </boundaryPoint>)
(<boundaryPoint> X32.936 Y40.322 Z1.253 </boundaryPoint>)
(<boundaryPoint> X33.954 Y42.056 Z1.253 </boundaryPoint>)
(<boundaryPoint> X33.325 Y42.531 Z1.253 </boundaryPoint>)
(<boundaryPoint> X34.532 Y44.126 Z1.253 </boundaryPoint>)
(<boundaryPoint> X33.575 Y44.85 Z1.253 </boundaryPoint>)
(<boundaryPoint> X32.368 Y43.256 Z1.253 </boundaryPoint>)
(<boundaryPoint> X31.74 Y43.731 Z1.253 </boundaryPoint>)
(<boundaryPoint> X30.348 Y42.281 Z1.253 </boundaryPoint>)
(<boundaryPoint> X31.166 Y41.658 Z1.253 </boundaryPoint>)
(<boundaryPoint> X29.955 Y40.066 Z1.253 </boundaryPoint>)
(<boundaryPoint> X28.941 Y40.833 Z1.253 </boundaryPoint>)
(<boundaryPoint> X27.535 Y39.394 Z1.253 </boundaryPoint>)
(<boundaryPoint> X28.751 Y38.469 Z1.253 </boundaryPoint>)
(<boundaryPoint> X27.541 Y36.876 Z1.253 </boundaryPoint>)
(<boundaryPoint> X26.113 Y37.957 Z1.253 </boundaryPoint>)
(<boundaryPoint> X24.751 Y36.524 Z1.253 </boundaryPoint>)
(<boundaryPoint> X26.334 Y35.281 Z1.253 </boundaryPoint>)
(<boundaryPoint> X25.127 Y33.687 Z1.253 </boundaryPoint>)
(<boundaryPoint> X23.28 Y35.085 Z1.253 </boundaryPoint>)
(<boundaryPoint> X21.911 Y33.659 Z1.253 </boundaryPoint>)
(<boundaryPoint> X23.921 Y32.092 Z1.253 </boundaryPoint>)
(<boundaryPoint> X22.714 Y30.497 Z1.253 </boundaryPoint>)
(<boundaryPoint> X20.418 Y32.234 Z1.253 </boundaryPoint>)
(<boundaryPoint> X19.261 Y31.12 Z1.253 </boundaryPoint>)
(<boundaryPoint> X19.025 Y30.834 Z1.253 </boundaryPoint>)
(<boundaryPoint> X19.293 Y30.577 Z1.253 </boundaryPoint>)
(<boundaryPoint> X21.507 Y28.902 Z1.253 </boundaryPoint>)
(<boundaryPoint> X20.3 Y27.307 Z1.253 </boundaryPoint>)
(<boundaryPoint> X17.471 Y29.448 Z1.253 </boundaryPoint>)
(<boundaryPoint> X16.272 Y28.368 Z1.253 </boundaryPoint>)
(<boundaryPoint> X16.039 Y28.088 Z1.253 </boundaryPoint>)
(<boundaryPoint> X16.295 Y27.83 Z1.253 </boundaryPoint>)
(<boundaryPoint> X19.093 Y25.712 Z1.253 </boundaryPoint>)
(<boundaryPoint> X17.886 Y24.117 Z1.253 </boundaryPoint>)
(<boundaryPoint> X14.457 Y26.712 Z1.253 </boundaryPoint>)
(<boundaryPoint> X13.29 Y25.606 Z1.253 </boundaryPoint>)
(<boundaryPoint> X13.055 Y25.322 Z1.253 </boundaryPoint>)
(<boundaryPoint> X13.32 Y25.065 Z1.253 </boundaryPoint>)
(<boundaryPoint> X16.679 Y22.523 Z1.253 </boundaryPoint>)
(<boundaryPoint> X15.473 Y20.928 Z1.253 </boundaryPoint>)
(<boundaryPoint> X11.566 Y23.883 Z1.253 </boundaryPoint>)
(<boundaryPoint> X10.202 Y22.413 Z1.253 </boundaryPoint>)
(<boundaryPoint> X14.267 Y19.332 Z1.253 </boundaryPoint>)
(<boundaryPoint> X13.059 Y17.738 Z1.253 </boundaryPoint>)
(<boundaryPoint> X8.876 Y20.903 Z1.253 </boundaryPoint>)
(<boundaryPoint> X7.573 Y19.383 Z1.253 </boundaryPoint>)
(<boundaryPoint> X11.852 Y16.143 Z1.253 </boundaryPoint>)
(<boundaryPoint> X10.645 Y14.548 Z1.253 </boundaryPoint>)
(<boundaryPoint> X6.274 Y17.857 Z1.253 </boundaryPoint>)
(<boundaryPoint> X4.959 Y16.346 Z1.253 </boundaryPoint>)
(<boundaryPoint> X9.438 Y12.954 Z1.253 </boundaryPoint>)
(<boundaryPoint> X8.232 Y11.359 Z1.253 </boundaryPoint>)
(<boundaryPoint> X3.617 Y14.851 Z1.253 </boundaryPoint>)
(<boundaryPoint> X2.26 Y13.374 Z1.253 </boundaryPoint>)
(<boundaryPoint> X7.026 Y9.764 Z1.253 </boundaryPoint>)
(<boundaryPoint> X5.818 Y8.169 Z1.253 </boundaryPoint>)
(<boundaryPoint> X0.908 Y11.885 Z1.253 </boundaryPoint>)
(<boundaryPoint> X-0.421 Y10.385 Z1.253 </boundaryPoint>)
(<boundaryPoint> X4.611 Y6.574 Z1.253 </boundaryPoint>)
(<boundaryPoint> X3.404 Y4.979 Z1.253 </boundaryPoint>)
(<boundaryPoint> X-1.709 Y8.848 Z1.253 </boundaryPoint>)
(<boundaryPoint> X-2.944 Y7.275 Z1.253 </boundaryPoint>)
(<boundaryPoint> X2.197 Y3.385 Z1.253 </boundaryPoint>)
(<boundaryPoint> X0.99 Y1.79 Z1.253 </boundaryPoint>)
(<boundaryPoint> X-4.138 Y5.67 Z1.253 </boundaryPoint>)
(<boundaryPoint> X-5.312 Y4.051 Z1.253 </boundaryPoint>)
(<boundaryPoint> X-0.216 Y0.195 Z1.253 </boundaryPoint>)
(<boundaryPoint> X-1.423 Y-1.4 Z1.253 </boundaryPoint>)
(<boundaryPoint> X-6.482 Y2.428 Z1.253 </boundaryPoint>)
(<boundaryPoint> X-7.666 Y0.816 Z1.253 </boundaryPoint>)
(<boundaryPoint> X-2.63 Y-2.995 Z1.253 </boundaryPoint>)
(<boundaryPoint> X-3.837 Y-4.59 Z1.253 </boundaryPoint>)
(<boundaryPoint> X-8.87 Y-0.781 Z1.253 </boundaryPoint>)
(<boundaryPoint> X-10.084 Y-2.37 Z1.253 </boundaryPoint>)
(<boundaryPoint> X-5.044 Y-6.185 Z1.253 </boundaryPoint>)
(<boundaryPoint> X-6.251 Y-7.779 Z1.253 </boundaryPoint>)
(<boundaryPoint> X-11.295 Y-3.962 Z1.253 </boundaryPoint>)
(<boundaryPoint> X-12.494 Y-5.563 Z1.253 </boundaryPoint>)
(<boundaryPoint> X-7.457 Y-9.374 Z1.253 </boundaryPoint>)
(<boundaryPoint> X-8.664 Y-10.969 Z1.253 </boundaryPoint>)
(<boundaryPoint> X-13.668 Y-7.184 Z1.253 </boundaryPoint>)
(<boundaryPoint> X-14.807 Y-8.829 Z1.253 </boundaryPoint>)
(<boundaryPoint> X-9.871 Y-12.564 Z1.253 </boundaryPoint>)
(<boundaryPoint> X-11.078 Y-14.159 Z1.253 </boundaryPoint>)
(<boundaryPoint> X-15.921 Y-10.496 Z1.253 </boundaryPoint>)
(<boundaryPoint> X-17.021 Y-12.17 Z1.253 </boundaryPoint>)
(<boundaryPoint> X-12.285 Y-15.754 Z1.253 </boundaryPoint>)
(<boundaryPoint> X-13.492 Y-17.348 Z1.253 </boundaryPoint>)
(<boundaryPoint> X-18.13 Y-13.842 Z1.253 </boundaryPoint>)
(<boundaryPoint> X-19.254 Y-15.496 Z1.253 </boundaryPoint>)
(<boundaryPoint> X-14.699 Y-18.943 Z1.253 </boundaryPoint>)
(<boundaryPoint> X-15.905 Y-20.538 Z1.253 </boundaryPoint>)
(<boundaryPoint> X-20.42 Y-17.122 Z1.253 </boundaryPoint>)
(<boundaryPoint> X-21.612 Y-18.728 Z1.253 </boundaryPoint>)
(<boundaryPoint> X-17.112 Y-22.133 Z1.253 </boundaryPoint>)
(<boundaryPoint> X-18.319 Y-23.728 Z1.253 </boundaryPoint>)
(<boundaryPoint> X-22.804 Y-20.335 Z1.253 </boundaryPoint>)
(<boundaryPoint> X-23.969 Y-21.96 Z1.253 </boundaryPoint>)
(<boundaryPoint> X-19.526 Y-25.323 Z1.253 </boundaryPoint>)
(<boundaryPoint> X-20.732 Y-26.918 Z1.253 </boundaryPoint>)
(<boundaryPoint> X-25.081 Y-23.629 Z1.253 </boundaryPoint>)
(<boundaryPoint> X-27.758 Y-28.292 Z1.253 </boundaryPoint>)
(<boundaryPoint> X-28.659 Y-30.162 Z1.253 </boundaryPoint>)
(<boundaryPoint> X-31.071 Y-36.018 Z1.253 </boundaryPoint>)
(<boundaryPoint> X-32.877 Y-41.201 Z1.253 </boundaryPoint>)
(<boundaryPoint> X-32.897 Y-41.415 Z1.253 </boundaryPoint>)
(<boundaryPoint> X-32.787 Y-41.749 Z1.253 </boundaryPoint>)
(<boundaryPoint> X-32.413 Y-42.282 Z1.253 </boundaryPoint>)
(<boundaryPoint> X-31.98 Y-42.688 Z1.253 </boundaryPoint>)
(<boundaryPoint> X-31.423 Y-43.044 Z1.253 </boundaryPoint>)
(<boundaryPoint> X-30.904 Y-43.244 Z1.253 </boundaryPoint>)
(<boundaryPoint> X-30.604 Y-43.289 Z1.253 </boundaryPoint>)
(<boundaryPoint> X-30.293 Y-43.242 Z1.253 </boundaryPoint>)
(<boundaryPoint> X-26.601 Y-40.715 Z1.253 </boundaryPoint>)
(<boundaryPoint> X-22.289 Y-37.425 Z1.253 </boundaryPoint>)
(<boundaryPoint> X-18.845 Y-34.474 Z1.253 </boundaryPoint>)
(<boundaryPoint> X-15.429 Y-30.932 Z1.253 </boundaryPoint>)
(<boundaryPoint> X-19.777 Y-27.641 Z1.253 </boundaryPoint>)
(<boundaryPoint> X-18.569 Y-26.047 Z1.253 </boundaryPoint>)
(<boundaryPoint> X-14.126 Y-29.409 Z1.253 </boundaryPoint>)
(<boundaryPoint> X-12.879 Y-27.845 Z1.253 </boundaryPoint>)
(<boundaryPoint> X-17.362 Y-24.452 Z1.253 </boundaryPoint>)
(<boundaryPoint> X-16.155 Y-22.857 Z1.253 </boundaryPoint>)
(<boundaryPoint> X-11.656 Y-26.262 Z1.253 </boundaryPoint>)
(<boundaryPoint> X-10.434 Y-24.678 Z1.253 </boundaryPoint>)
(<boundaryPoint> X-14.948 Y-21.262 Z1.253 </boundaryPoint>)
(<boundaryPoint> X-13.742 Y-19.667 Z1.253 </boundaryPoint>)
(<boundaryPoint> X-9.186 Y-23.115 Z1.253 </boundaryPoint>)
(<boundaryPoint> X-7.899 Y-21.582 Z1.253 </boundaryPoint>)
(<boundaryPoint> X-12.535 Y-18.073 Z1.253 </boundaryPoint>)
(<boundaryPoint> X-11.328 Y-16.478 Z1.253 </boundaryPoint>)
(<boundaryPoint> X-6.592 Y-20.061 Z1.253 </boundaryPoint>)
(<boundaryPoint> X-5.281 Y-18.548 Z1.253 </boundaryPoint>)
(<boundaryPoint> X-10.121 Y-14.883 Z1.253 </boundaryPoint>)
(<boundaryPoint> X-8.914 Y-13.288 Z1.253 </boundaryPoint>)
(<boundaryPoint> X-3.979 Y-17.023 Z1.253 </boundaryPoint>)
(<boundaryPoint> X-2.704 Y-15.481 Z1.253 </boundaryPoint>)
(<boundaryPoint> X-7.707 Y-11.693 Z1.253 </boundaryPoint>)
(<boundaryPoint> X-6.501 Y-10.098 Z1.253 </boundaryPoint>)
(<boundaryPoint> X-1.464 Y-13.909 Z1.253 </boundaryPoint>)
(<boundaryPoint> X-0.249 Y-12.321 Z1.253 </boundaryPoint>)
(<boundaryPoint> X-5.294 Y-8.503 Z1.253 </boundaryPoint>)
(<boundaryPoint> X-4.087 Y-6.909 Z1.253 </boundaryPoint>)
(<boundaryPoint> X0.953 Y-10.722 Z1.253 </boundaryPoint>)
(<boundaryPoint> X2.153 Y-9.123 Z1.253 </boundaryPoint>)
(<boundaryPoint> X-2.88 Y-5.314 Z1.253 </boundaryPoint>)
(<boundaryPoint> X-1.673 Y-3.719 Z1.253 </boundaryPoint>)
(<boundaryPoint> X3.362 Y-7.529 Z1.253 </boundaryPoint>)
(<boundaryPoint> X4.593 Y-5.952 Z1.253 </boundaryPoint>)
(<boundaryPoint> X-0.466 Y-2.124 Z1.253 </boundaryPoint>)
(<boundaryPoint> X0.741 Y-0.529 Z1.253 </boundaryPoint>)
(<loop> outer )
G1 X-4.18 Y4.51 Z1.25 F3300.0
M101
G1 X-4.4 Y4.19 Z1.25 F2880.0
G1 X0.41 Y0.54 Z1.25 F2880.0
G1 X5.72 Y-3.47 Z1.25 F2880.0
G1 X6.17 Y-2.93 Z1.25 F2880.0
G1 X-4.0 Y4.76 Z1.25 F2880.0
G1 X-4.18 Y4.51 Z1.25 F2880.0
M103
(</loop>)
(<loop> outer )
G1 X-4.61 Y3.9 Z1.25 F3300.0
G1 X-0.0 Y0.23 Z1.25 F3300.0
G1 X-1.39 Y-1.61 Z1.25 F3300.0
G1 X-6.15 Y1.79 Z1.25 F3300.0
G1 X-6.35 Y1.52 Z1.25 F3300.0
M101
G1 X-6.75 Y0.95 Z1.25 F2880.0
G1 X3.24 Y-6.62 Z1.25 F2880.0
G1 X3.68 Y-6.07 Z1.25 F2880.0
G1 X-1.58 Y-2.09 Z1.25 F2880.0
G1 X-6.35 Y1.52 Z1.25 F2880.0
M103
(</loop>)
(<loop> outer )
G1 X-6.97 Y0.68 Z1.25 F3300.0
G1 X-2.42 Y-2.96 Z1.25 F3300.0
G1 X-3.81 Y-4.8 Z1.25 F3300.0
G1 X-8.54 Y-1.42 Z1.25 F3300.0
G1 X-8.74 Y-1.7 Z1.25 F3300.0
M101
G1 X-9.16 Y-2.25 Z1.25 F2880.0
G1 X0.82 Y-9.8 Z1.25 F2880.0
G1 X1.24 Y-9.25 Z1.25 F2880.0
G1 X-4.0 Y-5.29 Z1.25 F2880.0
G1 X-8.74 Y-1.7 Z1.25 F2880.0
M103
(</loop>)
(<loop> outer )
G1 X-9.37 Y-2.52 Z1.25 F3300.0
G1 X-4.83 Y-6.16 Z1.25 F3300.0
G1 X-6.22 Y-7.99 Z1.25 F3300.0
G1 X-10.95 Y-4.6 Z1.25 F3300.0
G1 X-11.16 Y-4.88 Z1.25 F3300.0
M101
G1 X-11.58 Y-5.43 Z1.25 F2880.0
G1 X-1.59 Y-12.99 Z1.25 F2880.0
G1 X-1.17 Y-12.45 Z1.25 F2880.0
G1 X-6.41 Y-8.48 Z1.25 F2880.0
G1 X-11.16 Y-4.88 Z1.25 F2880.0
M103
(</loop>)
(<loop> outer )
G1 X-11.78 Y-5.72 Z1.25 F3300.0
G1 X-7.24 Y-9.34 Z1.25 F3300.0
G1 X-8.63 Y-11.18 Z1.25 F3300.0
G1 X-13.34 Y-7.82 Z1.25 F3300.0
G1 X-13.52 Y-8.08 Z1.25 F3300.0
M101
G1 X-13.91 Y-8.68 Z1.25 F2880.0
G1 X-4.08 Y-16.12 Z1.25 F2880.0
G1 X-3.6 Y-15.59 Z1.25 F2880.0
G1 X-8.81 Y-11.64 Z1.25 F2880.0
G1 X-13.52 Y-8.08 Z1.25 F2880.0
M103
(</loop>)
(<loop> outer )
G1 X-14.11 Y-8.97 Z1.25 F3300.0
G1 X-9.66 Y-12.53 Z1.25 F3300.0
G1 X-11.05 Y-14.37 Z1.25 F3300.0
G1 X-15.61 Y-11.12 Z1.25 F3300.0
G1 X-15.77 Y-11.38 Z1.25 F3300.0
M101
G1 X-16.14 Y-12.02 Z1.25 F2880.0
G1 X-6.68 Y-19.17 Z1.25 F2880.0
G1 X-6.17 Y-18.64 Z1.25 F2880.0
G1 X-11.22 Y-14.82 Z1.25 F2880.0
G1 X-15.77 Y-11.38 Z1.25 F2880.0
M103
(</loop>)
(<loop> outer )
G1 X-16.35 Y-12.29 Z1.25 F3300.0
G1 X-12.07 Y-15.72 Z1.25 F3300.0
G1 X-13.46 Y-17.56 Z1.25 F3300.0
G1 X-17.82 Y-14.46 Z1.25 F3300.0
G1 X-17.98 Y-14.73 Z1.25 F3300.0
M101
G1 X-18.36 Y-15.35 Z1.25 F2880.0
G1 X-9.29 Y-22.22 Z1.25 F2880.0
G1 X-8.8 Y-21.68 Z1.25 F2880.0
G1 X-13.64 Y-18.02 Z1.25 F2880.0
G1 X-17.98 Y-14.73 Z1.25 F2880.0
M103
(</loop>)
(<loop> outer )
G1 X-18.59 Y-15.62 Z1.25 F3300.0
G1 X-14.48 Y-18.91 Z1.25 F3300.0
G1 X-15.88 Y-20.75 Z1.25 F3300.0
G1 X-20.1 Y-17.75 Z1.25 F3300.0
G1 X-20.29 Y-18.04 Z1.25 F3300.0
M101
G1 X-20.7 Y-18.6 Z1.25 F2880.0
G1 X-11.78 Y-25.34 Z1.25 F2880.0
G1 X-11.35 Y-24.8 Z1.25 F2880.0
G1 X-16.07 Y-21.23 Z1.25 F2880.0
G1 X-20.29 Y-18.04 Z1.25 F2880.0
M103
(</loop>)
(<loop> outer )
G1 X-20.91 Y-18.88 Z1.25 F3300.0
G1 X-16.9 Y-22.1 Z1.25 F3300.0
G1 X-18.29 Y-23.94 Z1.25 F3300.0
G1 X-22.47 Y-20.97 Z1.25 F3300.0
G1 X-22.67 Y-21.24 Z1.25 F3300.0
M101
G1 X-23.06 Y-21.82 Z1.25 F2880.0
G1 X-14.24 Y-28.5 Z1.25 F2880.0
G1 X-13.79 Y-27.96 Z1.25 F2880.0
G1 X-18.47 Y-24.41 Z1.25 F2880.0
G1 X-22.67 Y-21.24 Z1.25 F2880.0
M103
(</loop>)
(<loop> outer )
G1 X-23.26 Y-22.11 Z1.25 F3300.0
G1 X-19.31 Y-25.29 Z1.25 F3300.0
G1 X-20.7 Y-27.13 Z1.25 F3300.0
G1 X-24.77 Y-24.25 Z1.25 F3300.0
G1 X-24.91 Y-24.48 Z1.25 F3300.0
M101
G1 X-27.18 Y-28.6 Z1.25 F2880.0
G1 X-30.46 Y-36.25 Z1.25 F2880.0
G1 X-32.21 Y-41.28 Z1.25 F2880.0
G1 X-32.17 Y-41.48 Z1.25 F2880.0
G1 X-31.91 Y-41.85 Z1.25 F2880.0
G1 X-31.57 Y-42.17 Z1.25 F2880.0
G1 X-31.13 Y-42.45 Z1.25 F2880.0
G1 X-30.6 Y-42.62 Z1.25 F2880.0
G1 X-30.54 Y-42.62 Z1.25 F2880.0
G1 X-26.99 Y-40.18 Z1.25 F2880.0
G1 X-22.7 Y-36.91 Z1.25 F2880.0
G1 X-19.3 Y-33.99 Z1.25 F2880.0
G1 X-16.3 Y-31.0 Z1.25 F2880.0
G1 X-20.85 Y-27.59 Z1.25 F2880.0
G1 X-24.41 Y-24.93 Z1.25 F2880.0
G1 X-24.91 Y-24.48 Z1.25 F2880.0
M103
(</loop>)
(<loop> outer )
G1 X-24.75 Y-24.27 Z1.25 F3300.0
G1 X-20.7 Y-27.13 Z1.25 F3300.0
G1 X-19.31 Y-25.29 Z1.25 F3300.0
G1 X-23.17 Y-22.18 Z1.25 F3300.0
G1 X-22.33 Y-21.07 Z1.25 F3300.0
G1 X-18.29 Y-23.94 Z1.25 F3300.0
G1 X-16.9 Y-22.1 Z1.25 F3300.0
G1 X-20.76 Y-18.99 Z1.25 F3300.0
G1 X-19.92 Y-17.88 Z1.25 F3300.0
G1 X-15.88 Y-20.75 Z1.25 F3300.0
G1 X-14.48 Y-18.91 Z1.25 F3300.0
G1 X-18.34 Y-15.8 Z1.25 F3300.0
G1 X-17.51 Y-14.7 Z1.25 F3300.0
G1 X-13.46 Y-17.56 Z1.25 F3300.0
G1 X-12.07 Y-15.72 Z1.25 F3300.0
G1 X-15.93 Y-12.61 Z1.25 F3300.0
G1 X-15.1 Y-11.51 Z1.25 F3300.0
G1 X-11.05 Y-14.37 Z1.25 F3300.0
G1 X-9.66 Y-12.53 Z1.25 F3300.0
G1 X-13.52 Y-9.42 Z1.25 F3300.0
G1 X-12.68 Y-8.31 Z1.25 F3300.0
G1 X-8.63 Y-11.18 Z1.25 F3300.0
G1 X-7.24 Y-9.34 Z1.25 F3300.0
G1 X-11.11 Y-6.23 Z1.25 F3300.0
G1 X-10.27 Y-5.12 Z1.25 F3300.0
G1 X-6.22 Y-7.99 Z1.25 F3300.0
G1 X-4.83 Y-6.16 Z1.25 F3300.0
G1 X-8.69 Y-3.04 Z1.25 F3300.0
G1 X-7.86 Y-1.93 Z1.25 F3300.0
G1 X-3.81 Y-4.8 Z1.25 F3300.0
G1 X-2.42 Y-2.96 Z1.25 F3300.0
G1 X-6.28 Y0.15 Z1.25 F3300.0
G1 X-5.44 Y1.26 Z1.25 F3300.0
G1 X-1.39 Y-1.61 Z1.25 F3300.0
G1 X-0.0 Y0.23 Z1.25 F3300.0
G1 X-3.87 Y3.34 Z1.25 F3300.0
G1 X-3.03 Y4.45 Z1.25 F3300.0
G1 X1.02 Y1.57 Z1.25 F3300.0
G1 X2.41 Y3.42 Z1.25 F3300.0
G1 X-1.45 Y6.53 Z1.25 F3300.0
G1 X-1.25 Y6.8 Z1.25 F3300.0
M101
G1 X2.83 Y3.71 Z1.25 F2880.0
G1 X8.16 Y-0.32 Z1.25 F2880.0
G1 X8.56 Y0.25 Z1.25 F2880.0
G1 X-1.59 Y7.93 Z1.25 F2880.0
G1 X-2.03 Y7.39 Z1.25 F2880.0
G1 X-1.25 Y6.8 Z1.25 F2880.0
M103
(</loop>)
(<loop> outer )
G1 X-0.61 Y7.64 Z1.25 F3300.0
G1 X3.43 Y4.76 Z1.25 F3300.0
G1 X4.83 Y6.6 Z1.25 F3300.0
G1 X0.96 Y9.72 Z1.25 F3300.0
G1 X1.14 Y9.96 Z1.25 F3300.0
M101
G1 X5.22 Y6.87 Z1.25 F2880.0
G1 X10.44 Y2.92 Z1.25 F2880.0
G1 X10.81 Y3.57 Z1.25 F2880.0
G1 X0.99 Y11.0 Z1.25 F2880.0
G1 X0.46 Y10.47 Z1.25 F2880.0
G1 X1.14 Y9.96 Z1.25 F2880.0
M103
(</loop>)
(<loop> outer )
G1 X1.8 Y10.83 Z1.25 F3300.0
G1 X5.85 Y7.95 Z1.25 F3300.0
G1 X7.24 Y9.79 Z1.25 F3300.0
G1 X3.38 Y12.91 Z1.25 F3300.0
G1 X3.55 Y13.14 Z1.25 F3300.0
M101
G1 X7.63 Y10.05 Z1.25 F2880.0
G1 X12.59 Y6.3 Z1.25 F2880.0
G1 X12.94 Y6.98 Z1.25 F2880.0
G1 X3.69 Y13.97 Z1.25 F2880.0
G1 X3.14 Y13.45 Z1.25 F2880.0
G1 X3.55 Y13.14 Z1.25 F2880.0
M103
(</loop>)
(<loop> outer )
G1 X4.17 Y14.05 Z1.25 F3300.0
G1 X8.26 Y11.14 Z1.25 F3300.0
G1 X9.65 Y12.98 Z1.25 F3300.0
G1 X5.68 Y16.18 Z1.25 F3300.0
G1 X5.85 Y16.44 Z1.25 F3300.0
M101
G1 X10.05 Y13.25 Z1.25 F2880.0
G1 X14.72 Y9.72 Z1.25 F2880.0
G1 X15.09 Y10.36 Z1.25 F2880.0
G1 X6.36 Y16.96 Z1.25 F2880.0
G1 X5.85 Y16.44 Z1.25 F2880.0
M103
(</loop>)
(<loop> outer )
G1 X6.57 Y17.25 Z1.25 F3300.0
G1 X10.68 Y14.33 Z1.25 F3300.0
G1 X12.07 Y16.17 Z1.25 F3300.0
G1 X8.25 Y19.26 Z1.25 F3300.0
G1 X8.46 Y19.48 Z1.25 F3300.0
M101
G1 X12.47 Y16.45 Z1.25 F2880.0
G1 X16.94 Y13.07 Z1.25 F2880.0
G1 X17.31 Y13.7 Z1.25 F2880.0
G1 X8.97 Y20.01 Z1.25 F2880.0
G1 X8.46 Y19.48 Z1.25 F2880.0
M103
(</loop>)
(<loop> outer )
G1 X9.19 Y20.28 Z1.25 F3300.0
G1 X13.09 Y17.52 Z1.25 F3300.0
G1 X14.48 Y19.36 Z1.25 F3300.0
G1 X10.88 Y22.29 Z1.25 F3300.0
G1 X11.07 Y22.49 Z1.25 F3300.0
M101
G1 X14.87 Y19.61 Z1.25 F2880.0
G1 X19.12 Y16.39 Z1.25 F2880.0
G1 X19.47 Y17.08 Z1.25 F2880.0
G1 X11.64 Y23.0 Z1.25 F2880.0
G1 X11.07 Y22.49 Z1.25 F2880.0
M103
(</loop>)
(<loop> outer )
G1 X11.94 Y23.21 Z1.25 F3300.0
G1 X15.5 Y20.71 Z1.25 F3300.0
G1 X16.89 Y22.55 Z1.25 F3300.0
G1 X13.8 Y25.09 Z1.25 F3300.0
G1 X14.11 Y25.29 Z1.25 F3300.0
M101
G1 X17.32 Y22.86 Z1.25 F2880.0
G1 X21.0 Y20.08 Z1.25 F2880.0
G1 X21.33 Y20.41 Z1.25 F2880.0
G1 X21.43 Y20.61 Z1.25 F2880.0
G1 X14.51 Y25.85 Z1.25 F2880.0
G1 X14.34 Y25.7 Z1.25 F2880.0
G1 X14.11 Y25.29 Z1.25 F2880.0
M103
(</loop>)
(<loop> outer )
G1 X14.92 Y25.97 Z1.25 F3300.0
G1 X17.92 Y23.9 Z1.25 F3300.0
G1 X19.31 Y25.74 Z1.25 F3300.0
G1 X16.79 Y27.84 Z1.25 F3300.0
G1 X17.09 Y28.05 Z1.25 F3300.0
M101
G1 X19.74 Y26.05 Z1.25 F2880.0
G1 X22.84 Y23.7 Z1.25 F2880.0
G1 X23.15 Y24.03 Z1.25 F2880.0
G1 X23.26 Y24.25 Z1.25 F2880.0
G1 X17.51 Y28.6 Z1.25 F2880.0
G1 X17.33 Y28.44 Z1.25 F2880.0
G1 X17.09 Y28.05 Z1.25 F2880.0
M103
(</loop>)
(<loop> outer )
G1 X17.91 Y28.73 Z1.25 F3300.0
G1 X20.33 Y27.09 Z1.25 F3300.0
G1 X21.72 Y28.93 Z1.25 F3300.0
G1 X19.77 Y30.6 Z1.25 F3300.0
G1 X20.08 Y30.81 Z1.25 F3300.0
M101
G1 X22.15 Y29.24 Z1.25 F2880.0
G1 X24.69 Y27.32 Z1.25 F2880.0
G1 X25.02 Y27.66 Z1.25 F2880.0
G1 X25.12 Y27.85 Z1.25 F2880.0
G1 X20.47 Y31.37 Z1.25 F2880.0
G1 X20.31 Y31.22 Z1.25 F2880.0
G1 X20.08 Y30.81 Z1.25 F2880.0
M103
(</loop>)
(<loop> outer )
G1 X20.81 Y31.55 Z1.25 F3300.0
G1 X22.74 Y30.28 Z1.25 F3300.0
G1 X24.14 Y32.12 Z1.25 F3300.0
G1 X22.57 Y33.53 Z1.25 F3300.0
G1 X22.78 Y33.72 Z1.25 F3300.0
M101
G1 X24.51 Y32.45 Z1.25 F2880.0
G1 X25.1 Y32.02 Z1.25 F2880.0
G1 X26.75 Y30.72 Z1.25 F2880.0
G1 X27.07 Y31.39 Z1.25 F2880.0
G1 X23.34 Y34.21 Z1.25 F2880.0
G1 X22.78 Y33.72 Z1.25 F2880.0
M103
(</loop>)
(<loop> outer )
G1 X23.78 Y34.32 Z1.25 F3300.0
G1 X25.16 Y33.47 Z1.25 F3300.0
G1 X26.55 Y35.31 Z1.25 F3300.0
G1 X25.88 Y36.03 Z1.25 F3300.0
G1 X26.24 Y36.18 Z1.25 F3300.0
M101
G1 X26.94 Y35.64 Z1.25 F2880.0
G1 X27.51 Y35.21 Z1.25 F2880.0
G1 X28.18 Y34.71 Z1.25 F2880.0
G1 X28.98 Y34.76 Z1.25 F2880.0
G1 X29.07 Y34.9 Z1.25 F2880.0
G1 X26.18 Y37.08 Z1.25 F2880.0
G1 X26.07 Y36.97 Z1.25 F2880.0
G1 X26.24 Y36.18 Z1.25 F2880.0
M103
(</loop>)
(<loop> outer )
G1 X26.94 Y36.95 Z1.25 F3300.0
G1 X27.57 Y36.66 Z1.25 F3300.0
G1 X28.97 Y38.5 Z1.25 F3300.0
G1 X28.63 Y38.95 Z1.25 F3300.0
G1 X28.87 Y39.19 Z1.25 F3300.0
M101
G1 X29.35 Y38.83 Z1.25 F2880.0
G1 X30.37 Y38.06 Z1.25 F2880.0
G1 X30.77 Y38.15 Z1.25 F2880.0
G1 X30.71 Y38.67 Z1.25 F2880.0
G1 X29.36 Y39.69 Z1.25 F2880.0
G1 X28.85 Y39.61 Z1.25 F2880.0
G1 X28.87 Y39.19 Z1.25 F2880.0
M103
(</loop>)
(<loop> outer )
G1 X29.69 Y39.88 Z1.25 F3300.0
G1 X29.98 Y39.85 Z1.25 F3300.0
G1 X30.52 Y40.31 Z1.25 F3300.0
G1 X31.86 Y41.95 Z1.25 F3300.0
M101
G1 X32.21 Y41.69 Z1.25 F2880.0
G1 X32.82 Y41.65 Z1.25 F2880.0
G1 X32.62 Y42.24 Z1.25 F2880.0
G1 X32.28 Y42.5 Z1.25 F2880.0
G1 X31.66 Y42.53 Z1.25 F2880.0
G1 X31.86 Y41.95 Z1.25 F2880.0
M103
(</loop>)
(<perimeter> outer )
G1 X31.47 Y41.7 Z1.25 F3300.0
M101
G1 X30.0 Y39.76 Z1.25 F2880.0
G1 X28.96 Y40.54 Z1.25 F2880.0
G1 X27.82 Y39.41 Z1.25 F2880.0
G1 X29.05 Y38.51 Z1.25 F2880.0
G1 X27.58 Y36.57 Z1.25 F2880.0
G1 X26.13 Y37.67 Z1.25 F2880.0
G1 X25.13 Y36.65 Z1.25 F2880.0
G1 X24.98 Y36.54 Z1.25 F2880.0
G1 X25.15 Y36.45 Z1.25 F2880.0
G1 X26.64 Y35.32 Z1.25 F2880.0
G1 X25.17 Y33.38 Z1.25 F2880.0
G1 X23.3 Y34.8 Z1.25 F2880.0
G1 X22.29 Y33.78 Z1.25 F2880.0
G1 X22.14 Y33.67 Z1.25 F2880.0
G1 X22.3 Y33.59 Z1.25 F2880.0
G1 X24.23 Y32.13 Z1.25 F2880.0
G1 X22.76 Y30.19 Z1.25 F2880.0
G1 X20.43 Y31.95 Z1.25 F2880.0
G1 X19.4 Y30.95 Z1.25 F2880.0
G1 X19.24 Y30.85 Z1.25 F2880.0
G1 X19.41 Y30.76 Z1.25 F2880.0
G1 X21.81 Y28.94 Z1.25 F2880.0
G1 X20.34 Y27.0 Z1.25 F2880.0
G1 X17.48 Y29.16 Z1.25 F2880.0
G1 X16.4 Y28.19 Z1.25 F2880.0
G1 X16.24 Y28.1 Z1.25 F2880.0
G1 X16.41 Y28.02 Z1.25 F2880.0
G1 X19.4 Y25.75 Z1.25 F2880.0
G1 X17.93 Y23.81 Z1.25 F2880.0
G1 X14.47 Y26.43 Z1.25 F2880.0
G1 X13.43 Y25.43 Z1.25 F2880.0
G1 X13.27 Y25.33 Z1.25 F2880.0
G1 X13.44 Y25.25 Z1.25 F2880.0
G1 X16.99 Y22.57 Z1.25 F2880.0
G1 X15.52 Y20.62 Z1.25 F2880.0
G1 X11.59 Y23.59 Z1.25 F2880.0
G1 X10.49 Y22.44 Z1.25 F2880.0
G1 X14.57 Y19.38 Z1.25 F2880.0
G1 X13.1 Y17.43 Z1.25 F2880.0
G1 X8.91 Y20.61 Z1.25 F2880.0
G1 X7.87 Y19.41 Z1.25 F2880.0
G1 X12.16 Y16.18 Z1.25 F2880.0
G1 X10.69 Y14.24 Z1.25 F2880.0
G1 X6.3 Y17.56 Z1.25 F2880.0
G1 X5.25 Y16.38 Z1.25 F2880.0
G1 X9.74 Y13.0 Z1.25 F2880.0
G1 X8.28 Y11.05 Z1.25 F2880.0
G1 X3.64 Y14.56 Z1.25 F2880.0
G1 X2.55 Y13.4 Z1.25 F2880.0
G1 X7.33 Y9.81 Z1.25 F2880.0
G1 X5.86 Y7.86 Z1.25 F2880.0
G1 X0.94 Y11.59 Z1.25 F2880.0
G1 X-0.13 Y10.41 Z1.25 F2880.0
G1 X4.92 Y6.62 Z1.25 F2880.0
G1 X3.45 Y4.67 Z1.25 F2880.0
G1 X-1.67 Y8.54 Z1.25 F2880.0
G1 X-2.64 Y7.31 Z1.25 F2880.0
G1 X2.5 Y3.43 Z1.25 F2880.0
G1 X1.03 Y1.48 Z1.25 F2880.0
G1 X-4.09 Y5.37 Z1.25 F2880.0
G1 X-5.01 Y4.1 Z1.25 F2880.0
G1 X0.09 Y0.24 Z1.25 F2880.0
G1 X-1.38 Y-1.71 Z1.25 F2880.0
G1 X-6.44 Y2.12 Z1.25 F2880.0
G1 X-7.36 Y0.86 Z1.25 F2880.0
G1 X-2.32 Y-2.95 Z1.25 F2880.0
G1 X-3.79 Y-4.9 Z1.25 F2880.0
G1 X-8.83 Y-1.09 Z1.25 F2880.0
G1 X-9.78 Y-2.33 Z1.25 F2880.0
G1 X-4.74 Y-6.14 Z1.25 F2880.0
G1 X-6.21 Y-8.09 Z1.25 F2880.0
G1 X-11.25 Y-4.27 Z1.25 F2880.0
G1 X-12.19 Y-5.52 Z1.25 F2880.0
G1 X-7.15 Y-9.33 Z1.25 F2880.0
G1 X-8.62 Y-11.28 Z1.25 F2880.0
G1 X-13.62 Y-7.48 Z1.25 F2880.0
G1 X-14.51 Y-8.78 Z1.25 F2880.0
G1 X-9.56 Y-12.52 Z1.25 F2880.0
G1 X-11.04 Y-14.47 Z1.25 F2880.0
G1 X-15.87 Y-10.79 Z1.25 F2880.0
G1 X-16.73 Y-12.12 Z1.25 F2880.0
G1 X-11.98 Y-15.71 Z1.25 F2880.0
G1 X-13.45 Y-17.66 Z1.25 F2880.0
G1 X-18.08 Y-14.14 Z1.25 F2880.0
G1 X-18.96 Y-15.45 Z1.25 F2880.0
G1 X-14.39 Y-18.9 Z1.25 F2880.0
G1 X-15.86 Y-20.84 Z1.25 F2880.0
G1 X-20.38 Y-17.43 Z1.25 F2880.0
G1 X-21.31 Y-18.68 Z1.25 F2880.0
G1 X-16.8 Y-22.09 Z1.25 F2880.0
G1 X-18.28 Y-24.04 Z1.25 F2880.0
G1 X-22.76 Y-20.64 Z1.25 F2880.0
G1 X-23.67 Y-21.91 Z1.25 F2880.0
G1 X-19.22 Y-25.28 Z1.25 F2880.0
G1 X-20.69 Y-27.22 Z1.25 F2880.0
G1 X-25.02 Y-23.91 Z1.25 F2880.0
G1 X-27.56 Y-28.39 Z1.25 F2880.0
G1 X-28.46 Y-30.25 Z1.25 F2880.0
G1 X-30.87 Y-36.1 Z1.25 F2880.0
G1 X-32.66 Y-41.25 Z1.25 F2880.0
G1 X-32.67 Y-41.39 Z1.25 F2880.0
G1 X-32.59 Y-41.65 Z1.25 F2880.0
G1 X-32.25 Y-42.14 Z1.25 F2880.0
G1 X-31.84 Y-42.51 Z1.25 F2880.0
G1 X-31.32 Y-42.85 Z1.25 F2880.0
G1 X-30.85 Y-43.03 Z1.25 F2880.0
G1 X-30.6 Y-43.07 Z1.25 F2880.0
G1 X-30.38 Y-43.03 Z1.25 F2880.0
G1 X-26.73 Y-40.54 Z1.25 F2880.0
G1 X-22.43 Y-37.26 Z1.25 F2880.0
G1 X-19.0 Y-34.31 Z1.25 F2880.0
G1 X-15.72 Y-30.95 Z1.25 F2880.0
G1 X-20.08 Y-27.68 Z1.25 F2880.0
G1 X-18.61 Y-25.74 Z1.25 F2880.0
G1 X-14.16 Y-29.11 Z1.25 F2880.0
G1 X-13.18 Y-27.88 Z1.25 F2880.0
G1 X-17.67 Y-24.49 Z1.25 F2880.0
G1 X-16.2 Y-22.55 Z1.25 F2880.0
G1 X-11.7 Y-25.96 Z1.25 F2880.0
G1 X-10.74 Y-24.72 Z1.25 F2880.0
G1 X-15.26 Y-21.3 Z1.25 F2880.0
G1 X-13.79 Y-19.36 Z1.25 F2880.0
G1 X-9.22 Y-22.82 Z1.25 F2880.0
G1 X-8.2 Y-21.61 Z1.25 F2880.0
G1 X-12.84 Y-18.11 Z1.25 F2880.0
G1 X-11.37 Y-16.17 Z1.25 F2880.0
G1 X-6.62 Y-19.76 Z1.25 F2880.0
G1 X-5.58 Y-18.58 Z1.25 F2880.0
G1 X-10.43 Y-14.93 Z1.25 F2880.0
G1 X-8.96 Y-12.98 Z1.25 F2880.0
G1 X-4.01 Y-16.72 Z1.25 F2880.0
G1 X-3.0 Y-15.52 Z1.25 F2880.0
G1 X-8.01 Y-11.74 Z1.25 F2880.0
G1 X-6.54 Y-9.79 Z1.25 F2880.0
G1 X-1.51 Y-13.6 Z1.25 F2880.0
G1 X-0.56 Y-12.36 Z1.25 F2880.0
G1 X-5.6 Y-8.54 Z1.25 F2880.0
G1 X-4.13 Y-6.6 Z1.25 F2880.0
G1 X0.91 Y-10.42 Z1.25 F2880.0
G1 X1.85 Y-9.17 Z1.25 F2880.0
G1 X-3.19 Y-5.36 Z1.25 F2880.0
G1 X-1.72 Y-3.41 Z1.25 F2880.0
G1 X3.32 Y-7.22 Z1.25 F2880.0
G1 X4.29 Y-5.99 Z1.25 F2880.0
G1 X-0.77 Y-2.17 Z1.25 F2880.0
G1 X0.7 Y-0.22 Z1.25 F2880.0
G1 X5.8 Y-4.08 Z1.25 F2880.0
G1 X6.77 Y-2.85 Z1.25 F2880.0
G1 X1.64 Y1.02 Z1.25 F2880.0
G1 X3.11 Y2.97 Z1.25 F2880.0
G1 X8.25 Y-0.93 Z1.25 F2880.0
G1 X9.17 Y0.34 Z1.25 F2880.0
G1 X4.05 Y4.21 Z1.25 F2880.0
G1 X5.53 Y6.16 Z1.25 F2880.0
G1 X10.55 Y2.33 Z1.25 F2880.0
G1 X11.39 Y3.67 Z1.25 F2880.0
G1 X6.47 Y7.4 Z1.25 F2880.0
G1 X7.94 Y9.35 Z1.25 F2880.0
G1 X12.7 Y5.72 Z1.25 F2880.0
G1 X13.52 Y7.09 Z1.25 F2880.0
G1 X8.88 Y10.59 Z1.25 F2880.0
G1 X10.35 Y12.54 Z1.25 F2880.0
G1 X14.83 Y9.13 Z1.25 F2880.0
G1 X15.68 Y10.46 Z1.25 F2880.0
G1 X11.29 Y13.78 Z1.25 F2880.0
G1 X12.77 Y15.73 Z1.25 F2880.0
G1 X17.04 Y12.48 Z1.25 F2880.0
G1 X17.9 Y13.8 Z1.25 F2880.0
G1 X13.71 Y16.97 Z1.25 F2880.0
G1 X15.18 Y18.92 Z1.25 F2880.0
G1 X19.23 Y15.82 Z1.25 F2880.0
G1 X20.05 Y17.19 Z1.25 F2880.0
G1 X16.12 Y20.16 Z1.25 F2880.0
G1 X17.59 Y22.11 Z1.25 F2880.0
G1 X21.14 Y19.42 Z1.25 F2880.0
G1 X21.27 Y19.28 Z1.25 F2880.0
G1 X21.32 Y19.46 Z1.25 F2880.0
G1 X21.99 Y20.73 Z1.25 F2880.0
G1 X18.54 Y23.35 Z1.25 F2880.0
G1 X20.01 Y25.3 Z1.25 F2880.0
G1 X23.0 Y23.03 Z1.25 F2880.0
G1 X23.12 Y22.89 Z1.25 F2880.0
G1 X23.16 Y23.07 Z1.25 F2880.0
G1 X23.81 Y24.38 Z1.25 F2880.0
G1 X20.95 Y26.54 Z1.25 F2880.0
G1 X22.42 Y28.48 Z1.25 F2880.0
G1 X24.82 Y26.67 Z1.25 F2880.0
G1 X24.95 Y26.53 Z1.25 F2880.0
G1 X25.01 Y26.7 Z1.25 F2880.0
G1 X25.69 Y27.97 Z1.25 F2880.0
G1 X23.36 Y29.73 Z1.25 F2880.0
G1 X24.83 Y31.68 Z1.25 F2880.0
G1 X26.76 Y30.22 Z1.25 F2880.0
G1 X26.88 Y30.09 Z1.25 F2880.0
G1 X26.95 Y30.26 Z1.25 F2880.0
G1 X27.65 Y31.5 Z1.25 F2880.0
G1 X25.78 Y32.92 Z1.25 F2880.0
G1 X27.25 Y34.86 Z1.25 F2880.0
G1 X28.74 Y33.73 Z1.25 F2880.0
G1 X28.87 Y33.6 Z1.25 F2880.0
G1 X28.93 Y33.77 Z1.25 F2880.0
G1 X29.64 Y35.01 Z1.25 F2880.0
G1 X28.19 Y36.11 Z1.25 F2880.0
G1 X29.66 Y38.05 Z1.25 F2880.0
G1 X30.87 Y37.11 Z1.25 F2880.0
G1 X31.64 Y38.51 Z1.25 F2880.0
G1 X30.61 Y39.3 Z1.25 F2880.0
G1 X32.08 Y41.24 Z1.25 F2880.0
G1 X32.88 Y40.6 Z1.25 F2880.0
G1 X33.67 Y42.0 Z1.25 F2880.0
G1 X33.02 Y42.49 Z1.25 F2880.0
G1 X34.23 Y44.08 Z1.25 F2880.0
G1 X33.62 Y44.54 Z1.25 F2880.0
G1 X32.41 Y42.95 Z1.25 F2880.0
G1 X31.76 Y43.44 Z1.25 F2880.0
G1 X30.63 Y42.3 Z1.25 F2880.0
G1 X31.47 Y41.7 Z1.25 F2880.0
M103
(</perimeter>)
(</boundaryPerimeter>)
G1 X28.77 Y37.99 Z1.25 F3300.0
G1 X27.57 Y36.66 Z1.25 F3300.0
G1 X27.3 Y36.68 Z1.25 F3300.0
G1 X26.39 Y35.63 Z1.25 F3300.0
G1 X26.55 Y35.31 Z1.25 F3300.0
G1 X25.16 Y33.47 Z1.25 F3300.0
G1 X24.73 Y33.6 Z1.25 F3300.0
G1 X23.83 Y32.55 Z1.25 F3300.0
G1 X24.14 Y32.12 Z1.25 F3300.0
G1 X22.74 Y30.28 Z1.25 F3300.0
G1 X22.17 Y30.52 Z1.25 F3300.0
G1 X21.26 Y29.48 Z1.25 F3300.0
G1 X21.72 Y28.93 Z1.25 F3300.0
G1 X20.33 Y27.09 Z1.25 F3300.0
G1 X19.61 Y27.45 Z1.25 F3300.0
G1 X18.69 Y26.4 Z1.25 F3300.0
G1 X19.31 Y25.74 Z1.25 F3300.0
G1 X17.92 Y23.9 Z1.25 F3300.0
G1 X17.04 Y24.37 Z1.25 F3300.0
G1 X16.13 Y23.32 Z1.25 F3300.0
G1 X16.89 Y22.55 Z1.25 F3300.0
G1 X15.5 Y20.71 Z1.25 F3300.0
G1 X14.48 Y21.3 Z1.25 F3300.0
G1 X13.57 Y20.25 Z1.25 F3300.0
G1 X14.48 Y19.36 Z1.25 F3300.0
G1 X13.09 Y17.52 Z1.25 F3300.0
G1 X11.91 Y18.22 Z1.25 F3300.0
G1 X11.0 Y17.17 Z1.25 F3300.0
G1 X12.07 Y16.17 Z1.25 F3300.0
G1 X10.68 Y14.33 Z1.25 F3300.0
G1 X9.35 Y15.14 Z1.25 F3300.0
G1 X8.44 Y14.1 Z1.25 F3300.0
G1 X9.65 Y12.98 Z1.25 F3300.0
G1 X8.26 Y11.14 Z1.25 F3300.0
G1 X6.79 Y12.07 Z1.25 F3300.0
G1 X5.88 Y11.02 Z1.25 F3300.0
G1 X7.24 Y9.79 Z1.25 F3300.0
G1 X5.85 Y7.95 Z1.25 F3300.0
G1 X4.22 Y8.99 Z1.25 F3300.0
G1 X3.31 Y7.94 Z1.25 F3300.0
G1 X4.83 Y6.6 Z1.25 F3300.0
G1 X3.43 Y4.76 Z1.25 F3300.0
G1 X1.66 Y5.92 Z1.25 F3300.0
G1 X0.75 Y4.87 Z1.25 F3300.0
G1 X2.41 Y3.42 Z1.25 F3300.0
G1 X1.02 Y1.57 Z1.25 F3300.0
G1 X-0.91 Y2.84 Z1.25 F3300.0
G1 X-1.82 Y1.79 Z1.25 F3300.0
G1 X-0.0 Y0.23 Z1.25 F3300.0
G1 X-1.39 Y-1.61 Z1.25 F3300.0
G1 X-3.47 Y-0.24 Z1.25 F3300.0
G1 X-4.38 Y-1.29 Z1.25 F3300.0
G1 X-2.42 Y-2.96 Z1.25 F3300.0
G1 X-3.81 Y-4.8 Z1.25 F3300.0
G1 X-6.03 Y-3.31 Z1.25 F3300.0
G1 X-6.94 Y-4.36 Z1.25 F3300.0
G1 X-4.83 Y-6.16 Z1.25 F3300.0
G1 X-6.22 Y-7.99 Z1.25 F3300.0
G1 X-8.6 Y-6.39 Z1.25 F3300.0
G1 X-9.51 Y-7.44 Z1.25 F3300.0
G1 X-7.24 Y-9.34 Z1.25 F3300.0
G1 X-8.63 Y-11.18 Z1.25 F3300.0
G1 X-11.16 Y-9.47 Z1.25 F3300.0
G1 X-12.07 Y-10.51 Z1.25 F3300.0
G1 X-9.66 Y-12.53 Z1.25 F3300.0
G1 X-11.05 Y-14.37 Z1.25 F3300.0
G1 X-13.72 Y-12.54 Z1.25 F3300.0
G1 X-14.64 Y-13.59 Z1.25 F3300.0
G1 X-12.07 Y-15.72 Z1.25 F3300.0
G1 X-13.46 Y-17.56 Z1.25 F3300.0
G1 X-16.29 Y-15.62 Z1.25 F3300.0
G1 X-17.2 Y-16.67 Z1.25 F3300.0
G1 X-14.48 Y-18.91 Z1.25 F3300.0
G1 X-15.88 Y-20.75 Z1.25 F3300.0
G1 X-18.85 Y-18.69 Z1.25 F3300.0
G1 X-19.76 Y-19.74 Z1.25 F3300.0
G1 X-16.9 Y-22.1 Z1.25 F3300.0
G1 X-18.29 Y-23.94 Z1.25 F3300.0
G1 X-21.41 Y-21.77 Z1.25 F3300.0
G1 X-22.33 Y-22.82 Z1.25 F3300.0
G1 X-19.31 Y-25.29 Z1.25 F3300.0
G1 X-20.7 Y-27.13 Z1.25 F3300.0
G1 X-23.98 Y-24.85 Z1.25 F3300.0
G1 X-25.95 Y-27.19 Z1.25 F3300.0
M101
G1 X-24.28 Y-25.52 Z1.25 F2880.0
G1 X-24.64 Y-25.26 Z1.25 F2880.0
G1 X-25.19 Y-25.81 Z1.25 F2880.0
M103
G1 X-27.22 Y-29.7 Z1.25 F3300.0
M101
G1 X-23.57 Y-26.05 Z1.25 F2880.0
G1 X-23.93 Y-25.79 Z1.25 F2880.0
G1 X-26.71 Y-28.57 Z1.25 F2880.0
M103
G1 X-28.15 Y-31.87 Z1.25 F3300.0
M101
G1 X-22.86 Y-26.58 Z1.25 F2880.0
G1 X-23.22 Y-26.32 Z1.25 F2880.0
G1 X-27.68 Y-30.78 Z1.25 F2880.0
M103
G1 X-29.08 Y-34.03 Z1.25 F3300.0
M101
G1 X-22.15 Y-27.11 Z1.25 F2880.0
G1 X-22.51 Y-26.85 Z1.25 F2880.0
G1 X-28.61 Y-32.95 Z1.25 F2880.0
M103
G1 X-30.01 Y-36.2 Z1.25 F3300.0
M101
G1 X-21.45 Y-27.64 Z1.25 F2880.0
G1 X-21.8 Y-27.38 Z1.25 F2880.0
G1 X-29.54 Y-35.12 Z1.25 F2880.0
M103
G1 X-30.69 Y-38.13 Z1.25 F3300.0
M101
G1 X-20.74 Y-28.17 Z1.25 F2880.0
G1 X-21.09 Y-27.91 Z1.25 F2880.0
G1 X-30.36 Y-37.18 Z1.25 F2880.0
M103
G1 X-31.36 Y-40.03 Z1.25 F3300.0
M101
G1 X-20.03 Y-28.7 Z1.25 F2880.0
G1 X-20.38 Y-28.44 Z1.25 F2880.0
G1 X-31.02 Y-39.08 Z1.25 F2880.0
M103
G1 X-30.22 Y-41.37 Z1.25 F3300.0
M101
G1 X-18.61 Y-29.76 Z1.25 F2880.0
G1 X-18.96 Y-29.5 Z1.25 F2880.0
G1 X-31.32 Y-41.86 Z1.25 F2880.0
G1 X-31.64 Y-41.55 Z1.25 F2880.0
G1 X-19.32 Y-29.23 Z1.25 F2880.0
G1 X-19.67 Y-28.97 Z1.25 F2880.0
G1 X-31.69 Y-40.98 Z1.25 F2880.0
M103
G1 X-25.95 Y-38.34 Z1.25 F3300.0
M101
G1 X-17.9 Y-30.29 Z1.25 F2880.0
G1 X-18.25 Y-30.03 Z1.25 F2880.0
G1 X-29.98 Y-41.75 Z1.25 F2880.0
G1 X-30.94 Y-42.1 Z1.25 F2880.0
M103
G1 X-23.05 Y-36.68 Z1.25 F3300.0
M101
G1 X-17.19 Y-30.82 Z1.25 F2880.0
G1 X-17.54 Y-30.56 Z1.25 F2880.0
G1 X-25.66 Y-38.68 Z1.25 F2880.0
G1 X-28.01 Y-40.41 Z1.25 F2880.0
M103
(</surroundingLoop>)
(</layer>)
(<layer> 1.565 )
(<bridgeRotation> (0.582917257467+0.812531519971j) )
(<surroundingLoop>)
(<boundaryPerimeter>)
(<boundaryPoint> X23.671 Y29.773 Z1.565 </boundaryPoint>)
(<boundaryPoint> X24.877 Y31.368 Z1.565 </boundaryPoint>)
(<boundaryPoint> X27.212 Y29.648 Z1.565 </boundaryPoint>)
(<boundaryPoint> X28.212 Y31.352 Z1.565 </boundaryPoint>)
(<boundaryPoint> X26.084 Y32.962 Z1.565 </boundaryPoint>)
(<boundaryPoint> X27.291 Y34.557 Z1.565 </boundaryPoint>)
(<boundaryPoint> X29.194 Y33.163 Z1.565 </boundaryPoint>)
(<boundaryPoint> X30.201 Y34.863 Z1.565 </boundaryPoint>)
(<boundaryPoint> X28.498 Y36.152 Z1.565 </boundaryPoint>)
(<boundaryPoint> X29.702 Y37.749 Z1.565 </boundaryPoint>)
(<boundaryPoint> X31.199 Y36.62 Z1.565 </boundaryPoint>)
(<boundaryPoint> X32.202 Y38.365 Z1.565 </boundaryPoint>)
(<boundaryPoint> X30.912 Y39.342 Z1.565 </boundaryPoint>)
(<boundaryPoint> X32.116 Y40.94 Z1.565 </boundaryPoint>)
(<boundaryPoint> X33.212 Y40.114 Z1.565 </boundaryPoint>)
(<boundaryPoint> X34.218 Y41.856 Z1.565 </boundaryPoint>)
(<boundaryPoint> X33.325 Y42.531 Z1.565 </boundaryPoint>)
(<boundaryPoint> X34.532 Y44.126 Z1.565 </boundaryPoint>)
(<boundaryPoint> X33.575 Y44.85 Z1.565 </boundaryPoint>)
(<boundaryPoint> X32.368 Y43.256 Z1.565 </boundaryPoint>)
(<boundaryPoint> X31.476 Y43.931 Z1.565 </boundaryPoint>)
(<boundaryPoint> X30.072 Y42.489 Z1.565 </boundaryPoint>)
(<boundaryPoint> X31.165 Y41.658 Z1.565 </boundaryPoint>)
(<boundaryPoint> X29.955 Y40.066 Z1.565 </boundaryPoint>)
(<boundaryPoint> X28.665 Y41.042 Z1.565 </boundaryPoint>)
(<boundaryPoint> X27.258 Y39.603 Z1.565 </boundaryPoint>)
(<boundaryPoint> X28.751 Y38.469 Z1.565 </boundaryPoint>)
(<boundaryPoint> X27.541 Y36.876 Z1.565 </boundaryPoint>)
(<boundaryPoint> X25.838 Y38.165 Z1.565 </boundaryPoint>)
(<boundaryPoint> X24.475 Y36.734 Z1.565 </boundaryPoint>)
(<boundaryPoint> X26.334 Y35.281 Z1.565 </boundaryPoint>)
(<boundaryPoint> X25.127 Y33.687 Z1.565 </boundaryPoint>)
(<boundaryPoint> X23.0 Y35.296 Z1.565 </boundaryPoint>)
(<boundaryPoint> X21.631 Y33.872 Z1.565 </boundaryPoint>)
(<boundaryPoint> X23.921 Y32.092 Z1.565 </boundaryPoint>)
(<boundaryPoint> X22.714 Y30.497 Z1.565 </boundaryPoint>)
(<boundaryPoint> X20.136 Y32.448 Z1.565 </boundaryPoint>)
(<boundaryPoint> X18.988 Y31.326 Z1.565 </boundaryPoint>)
(<boundaryPoint> X18.752 Y31.038 Z1.565 </boundaryPoint>)
(<boundaryPoint> X19.022 Y30.782 Z1.565 </boundaryPoint>)
(<boundaryPoint> X21.507 Y28.902 Z1.565 </boundaryPoint>)
(<boundaryPoint> X20.3 Y27.307 Z1.565 </boundaryPoint>)
(<boundaryPoint> X17.211 Y29.645 Z1.565 </boundaryPoint>)
(<boundaryPoint> X16.03 Y28.55 Z1.565 </boundaryPoint>)
(<boundaryPoint> X15.796 Y28.268 Z1.565 </boundaryPoint>)
(<boundaryPoint> X16.057 Y28.01 Z1.565 </boundaryPoint>)
(<boundaryPoint> X19.093 Y25.712 Z1.565 </boundaryPoint>)
(<boundaryPoint> X17.886 Y24.117 Z1.565 </boundaryPoint>)
(<boundaryPoint> X14.24 Y26.877 Z1.565 </boundaryPoint>)
(<boundaryPoint> X13.084 Y25.762 Z1.565 </boundaryPoint>)
(<boundaryPoint> X12.849 Y25.475 Z1.565 </boundaryPoint>)
(<boundaryPoint> X13.117 Y25.219 Z1.565 </boundaryPoint>)
(<boundaryPoint> X16.679 Y22.523 Z1.565 </boundaryPoint>)
(<boundaryPoint> X15.473 Y20.928 Z1.565 </boundaryPoint>)
(<boundaryPoint> X11.375 Y24.028 Z1.565 </boundaryPoint>)
(<boundaryPoint> X10.014 Y22.554 Z1.565 </boundaryPoint>)
(<boundaryPoint> X14.267 Y19.332 Z1.565 </boundaryPoint>)
(<boundaryPoint> X13.059 Y17.738 Z1.565 </boundaryPoint>)
(<boundaryPoint> X8.692 Y21.043 Z1.565 </boundaryPoint>)
(<boundaryPoint> X7.389 Y19.523 Z1.565 </boundaryPoint>)
(<boundaryPoint> X11.852 Y16.143 Z1.565 </boundaryPoint>)
(<boundaryPoint> X10.645 Y14.548 Z1.565 </boundaryPoint>)
(<boundaryPoint> X6.089 Y17.996 Z1.565 </boundaryPoint>)
(<boundaryPoint> X4.771 Y16.488 Z1.565 </boundaryPoint>)
(<boundaryPoint> X9.438 Y12.954 Z1.565 </boundaryPoint>)
(<boundaryPoint> X8.232 Y11.359 Z1.565 </boundaryPoint>)
(<boundaryPoint> X3.426 Y14.995 Z1.565 </boundaryPoint>)
(<boundaryPoint> X2.062 Y13.524 Z1.565 </boundaryPoint>)
(<boundaryPoint> X7.026 Y9.764 Z1.565 </boundaryPoint>)
(<boundaryPoint> X5.818 Y8.169 Z1.565 </boundaryPoint>)
(<boundaryPoint> X0.704 Y12.039 Z1.565 </boundaryPoint>)
(<boundaryPoint> X-0.634 Y10.545 Z1.565 </boundaryPoint>)
(<boundaryPoint> X4.611 Y6.574 Z1.565 </boundaryPoint>)
(<boundaryPoint> X3.404 Y4.979 Z1.565 </boundaryPoint>)
(<boundaryPoint> X-1.922 Y9.01 Z1.565 </boundaryPoint>)
(<boundaryPoint> X-3.161 Y7.439 Z1.565 </boundaryPoint>)
(<boundaryPoint> X2.197 Y3.385 Z1.565 </boundaryPoint>)
(<boundaryPoint> X0.99 Y1.79 Z1.565 </boundaryPoint>)
(<boundaryPoint> X-4.352 Y5.832 Z1.565 </boundaryPoint>)
(<boundaryPoint> X-5.524 Y4.212 Z1.565 </boundaryPoint>)
(<boundaryPoint> X-0.216 Y0.195 Z1.565 </boundaryPoint>)
(<boundaryPoint> X-1.423 Y-1.4 Z1.565 </boundaryPoint>)
(<boundaryPoint> X-6.692 Y2.587 Z1.565 </boundaryPoint>)
(<boundaryPoint> X-7.876 Y0.974 Z1.565 </boundaryPoint>)
(<boundaryPoint> X-2.63 Y-2.995 Z1.565 </boundaryPoint>)
(<boundaryPoint> X-3.837 Y-4.59 Z1.565 </boundaryPoint>)
(<boundaryPoint> X-9.079 Y-0.623 Z1.565 </boundaryPoint>)
(<boundaryPoint> X-10.295 Y-2.21 Z1.565 </boundaryPoint>)
(<boundaryPoint> X-5.044 Y-6.185 Z1.565 </boundaryPoint>)
(<boundaryPoint> X-6.251 Y-7.779 Z1.565 </boundaryPoint>)
(<boundaryPoint> X-11.507 Y-3.802 Z1.565 </boundaryPoint>)
(<boundaryPoint> X-12.708 Y-5.401 Z1.565 </boundaryPoint>)
(<boundaryPoint> X-7.457 Y-9.374 Z1.565 </boundaryPoint>)
(<boundaryPoint> X-8.664 Y-10.969 Z1.565 </boundaryPoint>)
(<boundaryPoint> X-13.881 Y-7.023 Z1.565 </boundaryPoint>)
(<boundaryPoint> X-15.018 Y-8.67 Z1.565 </boundaryPoint>)
(<boundaryPoint> X-9.871 Y-12.564 Z1.565 </boundaryPoint>)
(<boundaryPoint> X-11.078 Y-14.159 Z1.565 </boundaryPoint>)
(<boundaryPoint> X-16.129 Y-10.339 Z1.565 </boundaryPoint>)
(<boundaryPoint> X-17.224 Y-12.015 Z1.565 </boundaryPoint>)
(<boundaryPoint> X-12.285 Y-15.754 Z1.565 </boundaryPoint>)
(<boundaryPoint> X-13.492 Y-17.348 Z1.565 </boundaryPoint>)
(<boundaryPoint> X-18.331 Y-13.69 Z1.565 </boundaryPoint>)
(<boundaryPoint> X-19.453 Y-15.346 Z1.565 </boundaryPoint>)
(<boundaryPoint> X-14.699 Y-18.943 Z1.565 </boundaryPoint>)
(<boundaryPoint> X-15.905 Y-20.538 Z1.565 </boundaryPoint>)
(<boundaryPoint> X-20.617 Y-16.973 Z1.565 </boundaryPoint>)
(<boundaryPoint> X-21.807 Y-18.58 Z1.565 </boundaryPoint>)
(<boundaryPoint> X-17.112 Y-22.133 Z1.565 </boundaryPoint>)
(<boundaryPoint> X-18.319 Y-23.728 Z1.565 </boundaryPoint>)
(<boundaryPoint> X-22.998 Y-20.188 Z1.565 </boundaryPoint>)
(<boundaryPoint> X-24.165 Y-21.811 Z1.565 </boundaryPoint>)
(<boundaryPoint> X-19.526 Y-25.323 Z1.565 </boundaryPoint>)
(<boundaryPoint> X-20.732 Y-26.917 Z1.565 </boundaryPoint>)
(<boundaryPoint> X-25.285 Y-23.475 Z1.565 </boundaryPoint>)
(<boundaryPoint> X-27.542 Y-27.186 Z1.565 </boundaryPoint>)
(<boundaryPoint> X-29.141 Y-30.277 Z1.565 </boundaryPoint>)
(<boundaryPoint> X-31.275 Y-35.108 Z1.565 </boundaryPoint>)
(<boundaryPoint> X-33.458 Y-40.759 Z1.565 </boundaryPoint>)
(<boundaryPoint> X-33.513 Y-41.005 Z1.565 </boundaryPoint>)
(<boundaryPoint> X-33.499 Y-41.265 Z1.565 </boundaryPoint>)
(<boundaryPoint> X-33.321 Y-41.724 Z1.565 </boundaryPoint>)
(<boundaryPoint> X-33.038 Y-42.134 Z1.565 </boundaryPoint>)
(<boundaryPoint> X-32.681 Y-42.513 Z1.565 </boundaryPoint>)
(<boundaryPoint> X-31.828 Y-43.199 Z1.565 </boundaryPoint>)
(<boundaryPoint> X-31.347 Y-43.486 Z1.565 </boundaryPoint>)
(<boundaryPoint> X-30.869 Y-43.697 Z1.565 </boundaryPoint>)
(<boundaryPoint> X-30.513 Y-43.797 Z1.565 </boundaryPoint>)
(<boundaryPoint> X-30.18 Y-43.838 Z1.565 </boundaryPoint>)
(<boundaryPoint> X-29.898 Y-43.813 Z1.565 </boundaryPoint>)
(<boundaryPoint> X-29.59 Y-43.68 Z1.565 </boundaryPoint>)
(<boundaryPoint> X-21.562 Y-37.376 Z1.565 </boundaryPoint>)
(<boundaryPoint> X-19.125 Y-35.2 Z1.565 </boundaryPoint>)
(<boundaryPoint> X-17.158 Y-33.226 Z1.565 </boundaryPoint>)
(<boundaryPoint> X-15.226 Y-31.087 Z1.565 </boundaryPoint>)
(<boundaryPoint> X-19.777 Y-27.642 Z1.565 </boundaryPoint>)
(<boundaryPoint> X-18.569 Y-26.047 Z1.565 </boundaryPoint>)
(<boundaryPoint> X-13.93 Y-29.558 Z1.565 </boundaryPoint>)
(<boundaryPoint> X-12.684 Y-27.993 Z1.565 </boundaryPoint>)
(<boundaryPoint> X-17.362 Y-24.452 Z1.565 </boundaryPoint>)
(<boundaryPoint> X-16.155 Y-22.857 Z1.565 </boundaryPoint>)
(<boundaryPoint> X-11.461 Y-26.41 Z1.565 </boundaryPoint>)
(<boundaryPoint> X-10.237 Y-24.828 Z1.565 </boundaryPoint>)
(<boundaryPoint> X-14.948 Y-21.262 Z1.565 </boundaryPoint>)
(<boundaryPoint> X-13.742 Y-19.667 Z1.565 </boundaryPoint>)
(<boundaryPoint> X-8.987 Y-23.265 Z1.565 </boundaryPoint>)
(<boundaryPoint> X-7.698 Y-21.734 Z1.565 </boundaryPoint>)
(<boundaryPoint> X-12.535 Y-18.073 Z1.565 </boundaryPoint>)
(<boundaryPoint> X-11.328 Y-16.478 Z1.565 </boundaryPoint>)
(<boundaryPoint> X-6.389 Y-20.216 Z1.565 </boundaryPoint>)
(<boundaryPoint> X-5.073 Y-18.705 Z1.565 </boundaryPoint>)
(<boundaryPoint> X-10.121 Y-14.883 Z1.565 </boundaryPoint>)
(<boundaryPoint> X-8.914 Y-13.288 Z1.565 </boundaryPoint>)
(<boundaryPoint> X-3.768 Y-17.182 Z1.565 </boundaryPoint>)
(<boundaryPoint> X-2.49 Y-15.643 Z1.565 </boundaryPoint>)
(<boundaryPoint> X-7.707 Y-11.693 Z1.565 </boundaryPoint>)
(<boundaryPoint> X-6.501 Y-10.098 Z1.565 </boundaryPoint>)
(<boundaryPoint> X-1.251 Y-14.071 Z1.565 </boundaryPoint>)
(<boundaryPoint> X-0.036 Y-12.482 Z1.565 </boundaryPoint>)
(<boundaryPoint> X-5.294 Y-8.503 Z1.565 </boundaryPoint>)
(<boundaryPoint> X-4.087 Y-6.909 Z1.565 </boundaryPoint>)
(<boundaryPoint> X1.164 Y-10.882 Z1.565 </boundaryPoint>)
(<boundaryPoint> X2.364 Y-9.282 Z1.565 </boundaryPoint>)
(<boundaryPoint> X-2.88 Y-5.314 Z1.565 </boundaryPoint>)
(<boundaryPoint> X-1.673 Y-3.719 Z1.565 </boundaryPoint>)
(<boundaryPoint> X3.571 Y-7.687 Z1.565 </boundaryPoint>)
(<boundaryPoint> X4.803 Y-6.112 Z1.565 </boundaryPoint>)
(<boundaryPoint> X-0.466 Y-2.124 Z1.565 </boundaryPoint>)
(<boundaryPoint> X0.741 Y-0.529 Z1.565 </boundaryPoint>)
(<boundaryPoint> X6.047 Y-4.545 Z1.565 </boundaryPoint>)
(<boundaryPoint> X7.291 Y-2.979 Z1.565 </boundaryPoint>)
(<boundaryPoint> X1.947 Y1.066 Z1.565 </boundaryPoint>)
(<boundaryPoint> X3.154 Y2.66 Z1.565 </boundaryPoint>)
(<boundaryPoint> X8.509 Y-1.392 Z1.565 </boundaryPoint>)
(<boundaryPoint> X9.691 Y0.222 Z1.565 </boundaryPoint>)
(<boundaryPoint> X4.361 Y4.255 Z1.565 </boundaryPoint>)
(<boundaryPoint> X5.568 Y5.85 Z1.565 </boundaryPoint>)
(<boundaryPoint> X10.812 Y1.885 Z1.565 </boundaryPoint>)
(<boundaryPoint> X11.891 Y3.573 Z1.565 </boundaryPoint>)
(<boundaryPoint> X6.775 Y7.445 Z1.565 </boundaryPoint>)
(<boundaryPoint> X7.981 Y9.04 Z1.565 </boundaryPoint>)
(<boundaryPoint> X12.947 Y5.286 Z1.565 </boundaryPoint>)
(<boundaryPoint> X13.996 Y6.997 Z1.565 </boundaryPoint>)
(<boundaryPoint> X9.188 Y10.635 Z1.565 </boundaryPoint>)
(<boundaryPoint> X10.395 Y12.229 Z1.565 </boundaryPoint>)
(<boundaryPoint> X15.064 Y8.699 Z1.565 </boundaryPoint>)
(<boundaryPoint> X16.159 Y10.375 Z1.565 </boundaryPoint>)
(<boundaryPoint> X11.602 Y13.824 Z1.565 </boundaryPoint>)
(<boundaryPoint> X12.809 Y15.419 Z1.565 </boundaryPoint>)
(<boundaryPoint> X17.274 Y12.043 Z1.565 </boundaryPoint>)
(<boundaryPoint> X18.384 Y13.708 Z1.565 </boundaryPoint>)
(<boundaryPoint> X14.016 Y17.014 Z1.565 </boundaryPoint>)
(<boundaryPoint> X15.222 Y18.609 Z1.565 </boundaryPoint>)
(<boundaryPoint> X19.477 Y15.394 Z1.565 </boundaryPoint>)
(<boundaryPoint> X20.529 Y17.102 Z1.565 </boundaryPoint>)
(<boundaryPoint> X16.43 Y20.204 Z1.565 </boundaryPoint>)
(<boundaryPoint> X17.636 Y21.799 Z1.565 </boundaryPoint>)
(<boundaryPoint> X21.197 Y19.104 Z1.565 </boundaryPoint>)
(<boundaryPoint> X21.516 Y18.915 Z1.565 </boundaryPoint>)
(<boundaryPoint> X21.729 Y19.22 Z1.565 </boundaryPoint>)
(<boundaryPoint> X22.493 Y20.631 Z1.565 </boundaryPoint>)
(<boundaryPoint> X18.843 Y23.393 Z1.565 </boundaryPoint>)
(<boundaryPoint> X20.05 Y24.988 Z1.565 </boundaryPoint>)
(<boundaryPoint> X23.088 Y22.689 Z1.565 </boundaryPoint>)
(<boundaryPoint> X23.407 Y22.509 Z1.565 </boundaryPoint>)
(<boundaryPoint> X23.614 Y22.811 Z1.565 </boundaryPoint>)
(<boundaryPoint> X24.343 Y24.248 Z1.565 </boundaryPoint>)
(<boundaryPoint> X21.257 Y26.583 Z1.565 </boundaryPoint>)
(<boundaryPoint> X22.464 Y28.178 Z1.565 </boundaryPoint>)
(<boundaryPoint> X24.952 Y26.295 Z1.565 </boundaryPoint>)
(<boundaryPoint> X25.271 Y26.106 Z1.565 </boundaryPoint>)
(<boundaryPoint> X25.484 Y26.411 Z1.565 </boundaryPoint>)
(<boundaryPoint> X26.247 Y27.823 Z1.565 </boundaryPoint>)
(<perimeter> outer )
G1 X-27.18 Y-41.51 Z1.56 F1361.554
M101
G1 X-27.16 Y-41.49 Z1.56 F2880.0
G1 X-21.7 Y-37.21 Z1.56 F2880.0
G1 X-19.28 Y-35.04 Z1.56 F2880.0
G1 X-17.32 Y-33.07 Z1.56 F2880.0
G1 X-15.52 Y-31.11 Z1.56 F2880.0
G1 X-20.08 Y-27.68 Z1.56 F2880.0
G1 X-18.61 Y-25.74 Z1.56 F2880.0
G1 X-13.97 Y-29.25 Z1.56 F2880.0
G1 X-12.99 Y-28.03 Z1.56 F2880.0
G1 X-17.67 Y-24.49 Z1.56 F2880.0
G1 X-16.2 Y-22.55 Z1.56 F2880.0
G1 X-11.5 Y-26.11 Z1.56 F2880.0
G1 X-10.54 Y-24.87 Z1.56 F2880.0
G1 X-15.26 Y-21.3 Z1.56 F2880.0
G1 X-13.79 Y-19.36 Z1.56 F2880.0
G1 X-9.02 Y-22.97 Z1.56 F2880.0
G1 X-8.0 Y-21.77 Z1.56 F2880.0
G1 X-12.84 Y-18.12 Z1.56 F2880.0
G1 X-11.37 Y-16.17 Z1.56 F2880.0
G1 X-6.42 Y-19.92 Z1.56 F2880.0
G1 X-5.37 Y-18.73 Z1.56 F2880.0
G1 X-10.43 Y-14.93 Z1.56 F2880.0
G1 X-8.96 Y-12.98 Z1.56 F2880.0
G1 X-3.8 Y-16.88 Z1.56 F2880.0
G1 X-2.79 Y-15.68 Z1.56 F2880.0
G1 X-8.01 Y-11.74 Z1.56 F2880.0
G1 X-6.54 Y-9.79 Z1.56 F2880.0
G1 X-1.29 Y-13.77 Z1.56 F2880.0
G1 X-0.34 Y-12.52 Z1.56 F2880.0
G1 X-5.6 Y-8.54 Z1.56 F2880.0
G1 X-4.13 Y-6.6 Z1.56 F2880.0
G1 X1.12 Y-10.58 Z1.56 F2880.0
G1 X2.06 Y-9.32 Z1.56 F2880.0
G1 X-3.19 Y-5.36 Z1.56 F2880.0
G1 X-1.72 Y-3.41 Z1.56 F2880.0
G1 X3.53 Y-7.38 Z1.56 F2880.0
G1 X4.5 Y-6.15 Z1.56 F2880.0
G1 X-0.77 Y-2.17 Z1.56 F2880.0
G1 X0.7 Y-0.22 Z1.56 F2880.0
G1 X6.01 Y-4.24 Z1.56 F2880.0
G1 X6.99 Y-3.02 Z1.56 F2880.0
G1 X1.64 Y1.02 Z1.56 F2880.0
G1 X3.11 Y2.97 Z1.56 F2880.0
G1 X8.46 Y-1.09 Z1.56 F2880.0
G1 X9.39 Y0.18 Z1.56 F2880.0
G1 X4.05 Y4.21 Z1.56 F2880.0
G1 X5.53 Y6.16 Z1.56 F2880.0
G1 X10.76 Y2.18 Z1.56 F2880.0
G1 X11.6 Y3.52 Z1.56 F2880.0
G1 X6.47 Y7.4 Z1.56 F2880.0
G1 X7.94 Y9.35 Z1.56 F2880.0
G1 X12.89 Y5.57 Z1.56 F2880.0
G1 X13.71 Y6.94 Z1.56 F2880.0
G1 X8.88 Y10.59 Z1.56 F2880.0
G1 X10.35 Y12.54 Z1.56 F2880.0
G1 X15.01 Y8.99 Z1.56 F2880.0
G1 X15.87 Y10.32 Z1.56 F2880.0
G1 X11.29 Y13.78 Z1.56 F2880.0
G1 X12.77 Y15.73 Z1.56 F2880.0
G1 X17.22 Y12.34 Z1.56 F2880.0
G1 X18.09 Y13.66 Z1.56 F2880.0
G1 X13.71 Y16.97 Z1.56 F2880.0
G1 X15.18 Y18.92 Z1.56 F2880.0
G1 X19.42 Y15.68 Z1.56 F2880.0
G1 X20.24 Y17.05 Z1.56 F2880.0
G1 X16.12 Y20.16 Z1.56 F2880.0
G1 X17.59 Y22.11 Z1.56 F2880.0
G1 X21.34 Y19.27 Z1.56 F2880.0
G1 X21.47 Y19.13 Z1.56 F2880.0
G1 X21.53 Y19.31 Z1.56 F2880.0
G1 X22.21 Y20.57 Z1.56 F2880.0
G1 X18.54 Y23.35 Z1.56 F2880.0
G1 X20.01 Y25.3 Z1.56 F2880.0
G1 X23.24 Y22.85 Z1.56 F2880.0
G1 X23.36 Y22.71 Z1.56 F2880.0
G1 X23.41 Y22.89 Z1.56 F2880.0
G1 X24.07 Y24.18 Z1.56 F2880.0
G1 X20.95 Y26.54 Z1.56 F2880.0
G1 X22.42 Y28.48 Z1.56 F2880.0
G1 X25.1 Y26.46 Z1.56 F2880.0
G1 X25.22 Y26.32 Z1.56 F2880.0
G1 X25.28 Y26.5 Z1.56 F2880.0
G1 X25.96 Y27.76 Z1.56 F2880.0
G1 X23.36 Y29.73 Z1.56 F2880.0
G1 X24.83 Y31.68 Z1.56 F2880.0
G1 X27.04 Y30.01 Z1.56 F2880.0
G1 X27.16 Y29.87 Z1.56 F2880.0
G1 X27.23 Y30.05 Z1.56 F2880.0
G1 X27.93 Y31.29 Z1.56 F2880.0
G1 X25.78 Y32.92 Z1.56 F2880.0
G1 X27.25 Y34.86 Z1.56 F2880.0
G1 X29.02 Y33.52 Z1.56 F2880.0
G1 X29.15 Y33.39 Z1.56 F2880.0
G1 X29.21 Y33.56 Z1.56 F2880.0
G1 X29.92 Y34.8 Z1.56 F2880.0
G1 X28.19 Y36.11 Z1.56 F2880.0
G1 X29.66 Y38.05 Z1.56 F2880.0
G1 X31.14 Y36.9 Z1.56 F2880.0
G1 X31.92 Y38.3 Z1.56 F2880.0
G1 X30.61 Y39.3 Z1.56 F2880.0
G1 X32.08 Y41.24 Z1.56 F2880.0
G1 X33.16 Y40.39 Z1.56 F2880.0
G1 X33.94 Y41.8 Z1.56 F2880.0
G1 X33.02 Y42.49 Z1.56 F2880.0
G1 X34.23 Y44.08 Z1.56 F2880.0
G1 X33.62 Y44.54 Z1.56 F2880.0
G1 X32.41 Y42.95 Z1.56 F2880.0
G1 X31.5 Y43.64 Z1.56 F2880.0
G1 X30.36 Y42.51 Z1.56 F2880.0
G1 X31.47 Y41.7 Z1.56 F2880.0
G1 X30.0 Y39.76 Z1.56 F2880.0
G1 X28.68 Y40.75 Z1.56 F2880.0
G1 X27.54 Y39.62 Z1.56 F2880.0
G1 X29.05 Y38.51 Z1.56 F2880.0
G1 X27.58 Y36.57 Z1.56 F2880.0
G1 X25.86 Y37.88 Z1.56 F2880.0
G1 X24.86 Y36.86 Z1.56 F2880.0
G1 X24.71 Y36.75 Z1.56 F2880.0
G1 X24.87 Y36.66 Z1.56 F2880.0
G1 X26.64 Y35.32 Z1.56 F2880.0
G1 X25.17 Y33.38 Z1.56 F2880.0
G1 X23.02 Y35.01 Z1.56 F2880.0
G1 X22.01 Y33.99 Z1.56 F2880.0
G1 X21.86 Y33.89 Z1.56 F2880.0
G1 X22.02 Y33.8 Z1.56 F2880.0
G1 X24.23 Y32.13 Z1.56 F2880.0
G1 X22.76 Y30.19 Z1.56 F2880.0
G1 X20.15 Y32.16 Z1.56 F2880.0
G1 X19.13 Y31.16 Z1.56 F2880.0
G1 X18.97 Y31.05 Z1.56 F2880.0
G1 X19.14 Y30.97 Z1.56 F2880.0
G1 X21.81 Y28.94 Z1.56 F2880.0
G1 X20.34 Y27.0 Z1.56 F2880.0
G1 X17.23 Y29.36 Z1.56 F2880.0
G1 X16.16 Y28.37 Z1.56 F2880.0
G1 X16.0 Y28.28 Z1.56 F2880.0
G1 X16.17 Y28.2 Z1.56 F2880.0
G1 X19.4 Y25.75 Z1.56 F2880.0
G1 X17.93 Y23.81 Z1.56 F2880.0
G1 X14.26 Y26.59 Z1.56 F2880.0
G1 X13.22 Y25.59 Z1.56 F2880.0
G1 X13.07 Y25.49 Z1.56 F2880.0
G1 X13.23 Y25.41 Z1.56 F2880.0
G1 X16.99 Y22.57 Z1.56 F2880.0
G1 X15.52 Y20.62 Z1.56 F2880.0
G1 X11.4 Y23.73 Z1.56 F2880.0
G1 X10.3 Y22.58 Z1.56 F2880.0
G1 X14.57 Y19.38 Z1.56 F2880.0
G1 X13.1 Y17.43 Z1.56 F2880.0
G1 X8.72 Y20.75 Z1.56 F2880.0
G1 X7.68 Y19.55 Z1.56 F2880.0
G1 X12.16 Y16.18 Z1.56 F2880.0
G1 X10.69 Y14.24 Z1.56 F2880.0
G1 X6.12 Y17.7 Z1.56 F2880.0
G1 X5.07 Y16.52 Z1.56 F2880.0
G1 X9.74 Y13.0 Z1.56 F2880.0
G1 X8.28 Y11.05 Z1.56 F2880.0
G1 X3.45 Y14.7 Z1.56 F2880.0
G1 X2.35 Y13.55 Z1.56 F2880.0
G1 X7.33 Y9.81 Z1.56 F2880.0
G1 X5.86 Y7.86 Z1.56 F2880.0
G1 X0.73 Y11.74 Z1.56 F2880.0
G1 X-0.34 Y10.57 Z1.56 F2880.0
G1 X4.92 Y6.62 Z1.56 F2880.0
G1 X3.45 Y4.67 Z1.56 F2880.0
G1 X-1.88 Y8.71 Z1.56 F2880.0
G1 X-2.86 Y7.48 Z1.56 F2880.0
G1 X2.5 Y3.43 Z1.56 F2880.0
G1 X1.03 Y1.48 Z1.56 F2880.0
G1 X-4.31 Y5.53 Z1.56 F2880.0
G1 X-5.22 Y4.26 Z1.56 F2880.0
G1 X0.09 Y0.24 Z1.56 F2880.0
G1 X-1.38 Y-1.71 Z1.56 F2880.0
G1 X-6.65 Y2.28 Z1.56 F2880.0
G1 X-7.57 Y1.02 Z1.56 F2880.0
G1 X-2.32 Y-2.95 Z1.56 F2880.0
G1 X-3.79 Y-4.9 Z1.56 F2880.0
G1 X-9.04 Y-0.93 Z1.56 F2880.0
G1 X-9.99 Y-2.17 Z1.56 F2880.0
G1 X-4.74 Y-6.14 Z1.56 F2880.0
G1 X-6.21 Y-8.09 Z1.56 F2880.0
G1 X-11.46 Y-4.11 Z1.56 F2880.0
G1 X-12.4 Y-5.36 Z1.56 F2880.0
G1 X-7.15 Y-9.33 Z1.56 F2880.0
G1 X-8.62 Y-11.28 Z1.56 F2880.0
G1 X-13.83 Y-7.32 Z1.56 F2880.0
G1 X-14.72 Y-8.62 Z1.56 F2880.0
G1 X-9.56 Y-12.52 Z1.56 F2880.0
G1 X-11.04 Y-14.47 Z1.56 F2880.0
G1 X-16.08 Y-10.63 Z1.56 F2880.0
G1 X-16.93 Y-11.96 Z1.56 F2880.0
G1 X-11.98 Y-15.71 Z1.56 F2880.0
G1 X-13.45 Y-17.66 Z1.56 F2880.0
G1 X-18.28 Y-13.99 Z1.56 F2880.0
G1 X-19.16 Y-15.3 Z1.56 F2880.0
G1 X-14.39 Y-18.9 Z1.56 F2880.0
G1 X-15.86 Y-20.84 Z1.56 F2880.0
G1 X-20.57 Y-17.28 Z1.56 F2880.0
G1 X-21.5 Y-18.54 Z1.56 F2880.0
G1 X-16.8 Y-22.09 Z1.56 F2880.0
G1 X-18.28 Y-24.04 Z1.56 F2880.0
G1 X-22.95 Y-20.49 Z1.56 F2880.0
G1 X-23.86 Y-21.77 Z1.56 F2880.0
G1 X-19.22 Y-25.28 Z1.56 F2880.0
G1 X-20.69 Y-27.22 Z1.56 F2880.0
G1 X-25.23 Y-23.76 Z1.56 F2880.0
G1 X-27.35 Y-27.29 Z1.56 F2880.0
G1 X-28.94 Y-30.37 Z1.56 F2880.0
G1 X-31.07 Y-35.19 Z1.56 F2880.0
G1 X-33.25 Y-40.82 Z1.56 F2880.0
G1 X-33.29 Y-41.02 Z1.56 F2880.0
G1 X-33.28 Y-41.22 Z1.56 F2880.0
G1 X-33.13 Y-41.62 Z1.56 F2880.0
G1 X-32.87 Y-42.0 Z1.56 F2880.0
G1 X-32.53 Y-42.35 Z1.56 F2880.0
G1 X-31.7 Y-43.02 Z1.56 F2880.0
G1 X-31.25 Y-43.29 Z1.56 F2880.0
G1 X-30.8 Y-43.49 Z1.56 F2880.0
G1 X-30.47 Y-43.58 Z1.56 F2880.0
G1 X-30.18 Y-43.62 Z1.56 F2880.0
G1 X-29.95 Y-43.6 Z1.56 F2880.0
G1 X-29.7 Y-43.49 Z1.56 F2880.0
G1 X-27.18 Y-41.51 Z1.56 F2880.0
M103
(</perimeter>)
(</boundaryPerimeter>)
G1 X-27.37 Y-41.16 Z1.56 F3300.0
M101
G1 X-18.74 Y-29.13 Z1.56 F2880.0
G1 X-18.39 Y-29.39 Z1.56 F2880.0
G1 X-26.13 Y-40.19 Z1.56 F2880.0
M103
G1 X-24.9 Y-39.22 Z1.56 F3300.0
M101
G1 X-18.04 Y-29.66 Z1.56 F2880.0
G1 X-17.69 Y-29.92 Z1.56 F2880.0
G1 X-23.66 Y-38.25 Z1.56 F2880.0
M103
G1 X-22.43 Y-37.28 Z1.56 F3300.0
M101
G1 X-17.34 Y-30.18 Z1.56 F2880.0
G1 X-16.99 Y-30.45 Z1.56 F2880.0
G1 X-21.03 Y-36.08 Z1.56 F2880.0
M103
G1 X-19.52 Y-34.73 Z1.56 F3300.0
M101
G1 X-16.64 Y-30.71 Z1.56 F2880.0
G1 X-16.29 Y-30.98 Z1.56 F2880.0
G1 X-17.48 Y-32.63 Z1.56 F2880.0
M103
G1 X-16.0 Y-30.89 Z1.56 F3300.0
G1 X-19.99 Y-27.67 Z1.56 F3300.0
G1 X-18.6 Y-25.83 Z1.56 F3300.0
G1 X-14.35 Y-28.86 Z1.56 F3300.0
G1 X-13.63 Y-28.02 Z1.56 F3300.0
M101
G1 X-14.09 Y-28.66 Z1.56 F2880.0
G1 X-14.44 Y-28.4 Z1.56 F2880.0
G1 X-13.98 Y-27.76 Z1.56 F2880.0
G1 X-14.33 Y-27.5 Z1.56 F2880.0
G1 X-14.79 Y-28.14 Z1.56 F2880.0
G1 X-15.14 Y-27.87 Z1.56 F2880.0
G1 X-14.68 Y-27.23 Z1.56 F2880.0
G1 X-15.03 Y-26.97 Z1.56 F2880.0
G1 X-15.49 Y-27.61 Z1.56 F2880.0
G1 X-15.84 Y-27.34 Z1.56 F2880.0
G1 X-15.38 Y-26.7 Z1.56 F2880.0
G1 X-15.73 Y-26.44 Z1.56 F2880.0
G1 X-16.19 Y-27.08 Z1.56 F2880.0
G1 X-16.54 Y-26.81 Z1.56 F2880.0
G1 X-16.08 Y-26.17 Z1.56 F2880.0
G1 X-16.43 Y-25.91 Z1.56 F2880.0
G1 X-16.89 Y-26.55 Z1.56 F2880.0
G1 X-17.24 Y-26.28 Z1.56 F2880.0
G1 X-16.78 Y-25.64 Z1.56 F2880.0
G1 X-17.13 Y-25.38 Z1.56 F2880.0
G1 X-17.59 Y-26.02 Z1.56 F2880.0
G1 X-17.94 Y-25.75 Z1.56 F2880.0
G1 X-17.48 Y-25.11 Z1.56 F2880.0
G1 X-17.83 Y-24.85 Z1.56 F2880.0
G1 X-18.29 Y-25.49 Z1.56 F2880.0
G1 X-18.64 Y-25.23 Z1.56 F2880.0
G1 X-18.18 Y-24.59 Z1.56 F2880.0
G1 X-18.53 Y-24.32 Z1.56 F2880.0
G1 X-18.99 Y-24.96 Z1.56 F2880.0
G1 X-19.34 Y-24.7 Z1.56 F2880.0
G1 X-18.88 Y-24.06 Z1.56 F2880.0
G1 X-19.23 Y-23.79 Z1.56 F2880.0
G1 X-19.68 Y-24.43 Z1.56 F2880.0
G1 X-20.04 Y-24.17 Z1.56 F2880.0
G1 X-19.57 Y-23.53 Z1.56 F2880.0
G1 X-19.92 Y-23.26 Z1.56 F2880.0
G1 X-20.38 Y-23.9 Z1.56 F2880.0
G1 X-20.73 Y-23.64 Z1.56 F2880.0
G1 X-20.27 Y-23.0 Z1.56 F2880.0
G1 X-20.62 Y-22.73 Z1.56 F2880.0
G1 X-21.08 Y-23.37 Z1.56 F2880.0
G1 X-21.43 Y-23.11 Z1.56 F2880.0
G1 X-20.97 Y-22.47 Z1.56 F2880.0
G1 X-21.32 Y-22.2 Z1.56 F2880.0
G1 X-21.78 Y-22.84 Z1.56 F2880.0
G1 X-22.13 Y-22.58 Z1.56 F2880.0
G1 X-21.67 Y-21.94 Z1.56 F2880.0
G1 X-22.02 Y-21.68 Z1.56 F2880.0
G1 X-22.48 Y-22.32 Z1.56 F2880.0
G1 X-22.83 Y-22.05 Z1.56 F2880.0
G1 X-22.37 Y-21.41 Z1.56 F2880.0
G1 X-22.72 Y-21.15 Z1.56 F2880.0
G1 X-23.18 Y-21.79 Z1.56 F2880.0
M103
G1 X-20.5 Y-22.46 Z1.56 F3300.0
G1 X-18.29 Y-23.94 Z1.56 F3300.0
G1 X-17.25 Y-22.83 Z1.56 F3300.0
G1 X-14.91 Y-23.03 Z1.56 F3300.0
M101
G1 X-14.45 Y-22.4 Z1.56 F2880.0
G1 X-14.8 Y-22.14 Z1.56 F2880.0
G1 X-15.26 Y-22.77 Z1.56 F2880.0
G1 X-15.61 Y-22.5 Z1.56 F2880.0
G1 X-15.15 Y-21.87 Z1.56 F2880.0
G1 X-15.5 Y-21.61 Z1.56 F2880.0
G1 X-15.96 Y-22.24 Z1.56 F2880.0
G1 X-16.3 Y-21.98 Z1.56 F2880.0
G1 X-15.85 Y-21.34 Z1.56 F2880.0
G1 X-16.2 Y-21.08 Z1.56 F2880.0
G1 X-16.65 Y-21.71 Z1.56 F2880.0
G1 X-17.0 Y-21.45 Z1.56 F2880.0
G1 X-16.55 Y-20.82 Z1.56 F2880.0
G1 X-16.9 Y-20.55 Z1.56 F2880.0
G1 X-17.35 Y-21.18 Z1.56 F2880.0
G1 X-17.7 Y-20.92 Z1.56 F2880.0
G1 X-17.25 Y-20.29 Z1.56 F2880.0
G1 X-17.6 Y-20.02 Z1.56 F2880.0
G1 X-18.05 Y-20.65 Z1.56 F2880.0
G1 X-18.4 Y-20.39 Z1.56 F2880.0
G1 X-17.95 Y-19.76 Z1.56 F2880.0
G1 X-18.3 Y-19.49 Z1.56 F2880.0
G1 X-18.75 Y-20.12 Z1.56 F2880.0
G1 X-19.1 Y-19.86 Z1.56 F2880.0
G1 X-18.65 Y-19.23 Z1.56 F2880.0
G1 X-19.0 Y-18.96 Z1.56 F2880.0
G1 X-19.45 Y-19.59 Z1.56 F2880.0
G1 X-19.8 Y-19.33 Z1.56 F2880.0
G1 X-19.35 Y-18.7 Z1.56 F2880.0
G1 X-19.7 Y-18.43 Z1.56 F2880.0
G1 X-20.15 Y-19.07 Z1.56 F2880.0
G1 X-20.5 Y-18.8 Z1.56 F2880.0
G1 X-20.04 Y-18.17 Z1.56 F2880.0
G1 X-20.39 Y-17.9 Z1.56 F2880.0
G1 X-20.85 Y-18.54 Z1.56 F2880.0
M103
G1 X-20.23 Y-17.65 Z1.56 F3300.0
G1 X-15.88 Y-20.75 Z1.56 F3300.0
G1 X-14.48 Y-18.91 Z1.56 F3300.0
G1 X-18.69 Y-15.54 Z1.56 F3300.0
G1 X-18.05 Y-14.63 Z1.56 F3300.0
M101
G1 X-18.52 Y-15.29 Z1.56 F2880.0
G1 X-18.17 Y-15.55 Z1.56 F2880.0
G1 X-17.7 Y-14.89 Z1.56 F2880.0
G1 X-17.35 Y-15.16 Z1.56 F2880.0
G1 X-17.82 Y-15.81 Z1.56 F2880.0
G1 X-17.47 Y-16.08 Z1.56 F2880.0
G1 X-17.0 Y-15.42 Z1.56 F2880.0
G1 X-16.65 Y-15.69 Z1.56 F2880.0
G1 X-17.12 Y-16.34 Z1.56 F2880.0
G1 X-16.77 Y-16.61 Z1.56 F2880.0
G1 X-16.3 Y-15.95 Z1.56 F2880.0
G1 X-15.95 Y-16.22 Z1.56 F2880.0
G1 X-16.42 Y-16.87 Z1.56 F2880.0
G1 X-16.07 Y-17.14 Z1.56 F2880.0
G1 X-15.6 Y-16.48 Z1.56 F2880.0
G1 X-15.25 Y-16.75 Z1.56 F2880.0
G1 X-15.72 Y-17.4 Z1.56 F2880.0
G1 X-15.37 Y-17.67 Z1.56 F2880.0
G1 X-14.9 Y-17.01 Z1.56 F2880.0
G1 X-14.55 Y-17.27 Z1.56 F2880.0
G1 X-15.02 Y-17.93 Z1.56 F2880.0
G1 X-14.67 Y-18.2 Z1.56 F2880.0
G1 X-14.2 Y-17.54 Z1.56 F2880.0
G1 X-13.85 Y-17.8 Z1.56 F2880.0
G1 X-14.32 Y-18.46 Z1.56 F2880.0
G1 X-13.97 Y-18.72 Z1.56 F2880.0
G1 X-13.5 Y-18.07 Z1.56 F2880.0
G1 X-13.15 Y-18.33 Z1.56 F2880.0
G1 X-13.62 Y-18.99 Z1.56 F2880.0
G1 X-13.27 Y-19.25 Z1.56 F2880.0
G1 X-12.8 Y-18.6 Z1.56 F2880.0
G1 X-12.45 Y-18.86 Z1.56 F2880.0
G1 X-12.92 Y-19.52 Z1.56 F2880.0
G1 X-12.57 Y-19.78 Z1.56 F2880.0
G1 X-12.1 Y-19.13 Z1.56 F2880.0
G1 X-11.75 Y-19.39 Z1.56 F2880.0
G1 X-12.22 Y-20.05 Z1.56 F2880.0
G1 X-11.88 Y-20.31 Z1.56 F2880.0
G1 X-11.4 Y-19.66 Z1.56 F2880.0
G1 X-11.05 Y-19.92 Z1.56 F2880.0
G1 X-11.53 Y-20.57 Z1.56 F2880.0
G1 X-11.18 Y-20.84 Z1.56 F2880.0
G1 X-10.71 Y-20.18 Z1.56 F2880.0
G1 X-10.36 Y-20.45 Z1.56 F2880.0
G1 X-10.83 Y-21.1 Z1.56 F2880.0
G1 X-10.48 Y-21.37 Z1.56 F2880.0
G1 X-10.01 Y-20.71 Z1.56 F2880.0
G1 X-9.66 Y-20.98 Z1.56 F2880.0
G1 X-10.13 Y-21.63 Z1.56 F2880.0
G1 X-9.78 Y-21.9 Z1.56 F2880.0
G1 X-9.31 Y-21.24 Z1.56 F2880.0
G1 X-8.96 Y-21.51 Z1.56 F2880.0
G1 X-9.43 Y-22.16 Z1.56 F2880.0
G1 X-9.07 Y-22.42 Z1.56 F2880.0
G1 X-8.61 Y-21.77 Z1.56 F2880.0
M103
G1 X-8.4 Y-21.59 Z1.56 F3300.0
G1 X-12.75 Y-18.1 Z1.56 F3300.0
G1 X-11.36 Y-16.26 Z1.56 F3300.0
G1 X-6.68 Y-19.61 Z1.56 F3300.0
G1 X-6.01 Y-18.9 Z1.56 F3300.0
M101
G1 X-5.92 Y-18.78 Z1.56 F2880.0
G1 X-6.27 Y-18.51 Z1.56 F2880.0
G1 X-6.75 Y-19.18 Z1.56 F2880.0
G1 X-6.62 Y-18.25 Z1.56 F2880.0
G1 X-7.1 Y-18.91 Z1.56 F2880.0
G1 X-7.45 Y-18.65 Z1.56 F2880.0
G1 X-6.97 Y-17.98 Z1.56 F2880.0
G1 X-7.32 Y-17.72 Z1.56 F2880.0
G1 X-7.79 Y-18.38 Z1.56 F2880.0
G1 X-8.14 Y-18.12 Z1.56 F2880.0
G1 X-7.67 Y-17.45 Z1.56 F2880.0
G1 X-8.02 Y-17.19 Z1.56 F2880.0
G1 X-8.49 Y-17.85 Z1.56 F2880.0
G1 X-8.84 Y-17.59 Z1.56 F2880.0
G1 X-8.37 Y-16.92 Z1.56 F2880.0
G1 X-8.72 Y-16.66 Z1.56 F2880.0
G1 X-9.19 Y-17.32 Z1.56 F2880.0
G1 X-9.54 Y-17.06 Z1.56 F2880.0
G1 X-9.07 Y-16.39 Z1.56 F2880.0
G1 X-9.41 Y-16.13 Z1.56 F2880.0
G1 X-9.89 Y-16.8 Z1.56 F2880.0
G1 X-9.77 Y-15.87 Z1.56 F2880.0
G1 X-10.24 Y-16.53 Z1.56 F2880.0
G1 X-10.59 Y-16.27 Z1.56 F2880.0
G1 X-10.11 Y-15.6 Z1.56 F2880.0
G1 X-10.46 Y-15.34 Z1.56 F2880.0
G1 X-10.94 Y-16.0 Z1.56 F2880.0
G1 X-11.29 Y-15.74 Z1.56 F2880.0
G1 X-10.81 Y-15.07 Z1.56 F2880.0
G1 X-11.16 Y-14.81 Z1.56 F2880.0
G1 X-11.64 Y-15.47 Z1.56 F2880.0
G1 X-11.99 Y-15.21 Z1.56 F2880.0
G1 X-11.51 Y-14.54 Z1.56 F2880.0
G1 X-11.86 Y-14.28 Z1.56 F2880.0
G1 X-12.34 Y-14.94 Z1.56 F2880.0
G1 X-12.69 Y-14.68 Z1.56 F2880.0
G1 X-12.21 Y-14.02 Z1.56 F2880.0
G1 X-12.56 Y-13.75 Z1.56 F2880.0
G1 X-13.04 Y-14.41 Z1.56 F2880.0
G1 X-13.39 Y-14.15 Z1.56 F2880.0
G1 X-12.91 Y-13.49 Z1.56 F2880.0
G1 X-13.26 Y-13.22 Z1.56 F2880.0
G1 X-13.74 Y-13.88 Z1.56 F2880.0
G1 X-14.09 Y-13.62 Z1.56 F2880.0
G1 X-13.61 Y-12.96 Z1.56 F2880.0
G1 X-13.96 Y-12.69 Z1.56 F2880.0
G1 X-14.44 Y-13.36 Z1.56 F2880.0
G1 X-14.79 Y-13.09 Z1.56 F2880.0
G1 X-14.31 Y-12.43 Z1.56 F2880.0
G1 X-14.66 Y-12.16 Z1.56 F2880.0
G1 X-15.13 Y-12.83 Z1.56 F2880.0
G1 X-15.48 Y-12.56 Z1.56 F2880.0
G1 X-15.01 Y-11.9 Z1.56 F2880.0
G1 X-15.36 Y-11.63 Z1.56 F2880.0
G1 X-15.83 Y-12.3 Z1.56 F2880.0
G1 X-16.18 Y-12.03 Z1.56 F2880.0
G1 X-15.71 Y-11.37 Z1.56 F2880.0
M103
G1 X-14.16 Y-12.21 Z1.56 F3300.0
G1 X-11.05 Y-14.37 Z1.56 F3300.0
G1 X-10.12 Y-13.39 Z1.56 F3300.0
G1 X-9.41 Y-13.44 Z1.56 F3300.0
G1 X-8.94 Y-13.07 Z1.56 F3300.0
G1 X-7.71 Y-13.81 Z1.56 F3300.0
G1 X-3.6 Y-15.54 Z1.56 F3300.0
M101
G1 X-4.06 Y-16.19 Z1.56 F2880.0
G1 X-4.41 Y-15.93 Z1.56 F2880.0
G1 X-3.95 Y-15.28 Z1.56 F2880.0
G1 X-4.3 Y-15.01 Z1.56 F2880.0
G1 X-4.76 Y-15.66 Z1.56 F2880.0
G1 X-5.11 Y-15.4 Z1.56 F2880.0
G1 X-4.65 Y-14.75 Z1.56 F2880.0
G1 X-5.0 Y-14.48 Z1.56 F2880.0
G1 X-5.46 Y-15.13 Z1.56 F2880.0
G1 X-5.81 Y-14.87 Z1.56 F2880.0
G1 X-5.35 Y-14.22 Z1.56 F2880.0
G1 X-5.7 Y-13.96 Z1.56 F2880.0
G1 X-6.16 Y-14.6 Z1.56 F2880.0
G1 X-6.51 Y-14.34 Z1.56 F2880.0
G1 X-6.05 Y-13.7 Z1.56 F2880.0
G1 X-6.4 Y-13.43 Z1.56 F2880.0
G1 X-6.86 Y-14.07 Z1.56 F2880.0
G1 X-7.21 Y-13.81 Z1.56 F2880.0
G1 X-6.75 Y-13.17 Z1.56 F2880.0
G1 X-7.1 Y-12.91 Z1.56 F2880.0
G1 X-7.56 Y-13.54 Z1.56 F2880.0
G1 X-7.91 Y-13.28 Z1.56 F2880.0
G1 X-7.45 Y-12.64 Z1.56 F2880.0
G1 X-7.8 Y-12.38 Z1.56 F2880.0
G1 X-8.26 Y-13.02 Z1.56 F2880.0
G1 X-8.61 Y-12.75 Z1.56 F2880.0
G1 X-8.15 Y-12.12 Z1.56 F2880.0
G1 X-8.5 Y-11.85 Z1.56 F2880.0
G1 X-8.96 Y-12.49 Z1.56 F2880.0
G1 X-9.31 Y-12.22 Z1.56 F2880.0
G1 X-8.85 Y-11.59 Z1.56 F2880.0
G1 X-9.2 Y-11.33 Z1.56 F2880.0
G1 X-9.66 Y-11.96 Z1.56 F2880.0
G1 X-10.01 Y-11.69 Z1.56 F2880.0
G1 X-9.55 Y-11.06 Z1.56 F2880.0
G1 X-9.9 Y-10.8 Z1.56 F2880.0
G1 X-10.36 Y-11.43 Z1.56 F2880.0
G1 X-10.71 Y-11.16 Z1.56 F2880.0
G1 X-10.25 Y-10.53 Z1.56 F2880.0
G1 X-10.6 Y-10.26 Z1.56 F2880.0
G1 X-11.05 Y-10.9 Z1.56 F2880.0
G1 X-11.4 Y-10.63 Z1.56 F2880.0
G1 X-10.95 Y-10.0 Z1.56 F2880.0
G1 X-11.3 Y-9.73 Z1.56 F2880.0
G1 X-11.75 Y-10.37 Z1.56 F2880.0
G1 X-12.1 Y-10.11 Z1.56 F2880.0
G1 X-11.64 Y-9.46 Z1.56 F2880.0
G1 X-11.99 Y-9.2 Z1.56 F2880.0
G1 X-12.45 Y-9.84 Z1.56 F2880.0
G1 X-12.8 Y-9.58 Z1.56 F2880.0
G1 X-12.34 Y-8.93 Z1.56 F2880.0
G1 X-12.69 Y-8.67 Z1.56 F2880.0
G1 X-13.15 Y-9.31 Z1.56 F2880.0
G1 X-13.5 Y-9.05 Z1.56 F2880.0
G1 X-13.04 Y-8.4 Z1.56 F2880.0
G1 X-13.38 Y-8.13 Z1.56 F2880.0
G1 X-13.85 Y-8.78 Z1.56 F2880.0
G1 X-13.91 Y-8.11 Z1.56 F2880.0
G1 X-13.73 Y-7.87 Z1.56 F2880.0
M103
G1 X-13.51 Y-7.68 Z1.56 F3300.0
G1 X-8.63 Y-11.18 Z1.56 F3300.0
G1 X-7.24 Y-9.34 Z1.56 F3300.0
G1 X-11.76 Y-5.74 Z1.56 F3300.0
G1 X-11.52 Y-5.53 Z1.56 F3300.0
M101
G1 X-11.07 Y-4.9 Z1.56 F2880.0
G1 X-10.72 Y-5.17 Z1.56 F2880.0
G1 X-11.17 Y-5.8 Z1.56 F2880.0
G1 X-10.82 Y-6.06 Z1.56 F2880.0
G1 X-10.37 Y-5.43 Z1.56 F2880.0
G1 X-10.02 Y-5.7 Z1.56 F2880.0
G1 X-10.47 Y-6.33 Z1.56 F2880.0
G1 X-10.12 Y-6.59 Z1.56 F2880.0
G1 X-9.67 Y-5.96 Z1.56 F2880.0
G1 X-9.32 Y-6.22 Z1.56 F2880.0
G1 X-9.77 Y-6.85 Z1.56 F2880.0
G1 X-9.42 Y-7.12 Z1.56 F2880.0
G1 X-8.97 Y-6.49 Z1.56 F2880.0
G1 X-8.62 Y-6.75 Z1.56 F2880.0
G1 X-9.07 Y-7.38 Z1.56 F2880.0
G1 X-8.72 Y-7.65 Z1.56 F2880.0
G1 X-8.27 Y-7.02 Z1.56 F2880.0
G1 X-7.92 Y-7.28 Z1.56 F2880.0
G1 X-8.37 Y-7.91 Z1.56 F2880.0
G1 X-8.02 Y-8.18 Z1.56 F2880.0
G1 X-7.57 Y-7.55 Z1.56 F2880.0
G1 X-7.22 Y-7.81 Z1.56 F2880.0
G1 X-7.67 Y-8.44 Z1.56 F2880.0
G1 X-7.32 Y-8.71 Z1.56 F2880.0
G1 X-6.87 Y-8.08 Z1.56 F2880.0
G1 X-6.52 Y-8.34 Z1.56 F2880.0
G1 X-6.97 Y-8.97 Z1.56 F2880.0
G1 X-6.63 Y-9.23 Z1.56 F2880.0
G1 X-6.17 Y-8.61 Z1.56 F2880.0
G1 X-5.82 Y-8.87 Z1.56 F2880.0
G1 X-6.28 Y-9.5 Z1.56 F2880.0
G1 X-5.93 Y-9.76 Z1.56 F2880.0
G1 X-5.47 Y-9.13 Z1.56 F2880.0
G1 X-5.13 Y-9.4 Z1.56 F2880.0
G1 X-5.58 Y-10.03 Z1.56 F2880.0
M103
G1 X-4.78 Y-9.66 Z1.56 F3300.0
M101
G1 X-5.23 Y-10.29 Z1.56 F2880.0
G1 X-4.88 Y-10.56 Z1.56 F2880.0
G1 X-4.43 Y-9.93 Z1.56 F2880.0
G1 X-4.08 Y-10.19 Z1.56 F2880.0
G1 X-4.53 Y-10.82 Z1.56 F2880.0
G1 X-4.18 Y-11.09 Z1.56 F2880.0
G1 X-3.73 Y-10.46 Z1.56 F2880.0
G1 X-3.38 Y-10.72 Z1.56 F2880.0
G1 X-3.83 Y-11.35 Z1.56 F2880.0
G1 X-3.48 Y-11.62 Z1.56 F2880.0
G1 X-3.03 Y-10.98 Z1.56 F2880.0
G1 X-2.68 Y-11.25 Z1.56 F2880.0
G1 X-3.13 Y-11.88 Z1.56 F2880.0
G1 X-2.78 Y-12.14 Z1.56 F2880.0
G1 X-2.33 Y-11.51 Z1.56 F2880.0
G1 X-1.98 Y-11.78 Z1.56 F2880.0
G1 X-2.43 Y-12.41 Z1.56 F2880.0
G1 X-2.08 Y-12.67 Z1.56 F2880.0
G1 X-1.63 Y-12.04 Z1.56 F2880.0
G1 X-1.28 Y-12.31 Z1.56 F2880.0
G1 X-1.73 Y-12.94 Z1.56 F2880.0
G1 X-1.38 Y-13.2 Z1.56 F2880.0
G1 X-0.93 Y-12.57 Z1.56 F2880.0
M103
G1 X-2.31 Y-11.15 Z1.56 F3300.0
G1 X-5.51 Y-8.53 Z1.56 F3300.0
G1 X-4.79 Y-7.33 Z1.56 F3300.0
G1 X-5.03 Y-6.68 Z1.56 F3300.0
G1 X-4.83 Y-6.16 Z1.56 F3300.0
G1 X-5.84 Y-5.2 Z1.56 F3300.0
G1 X-8.73 Y-1.65 Z1.56 F3300.0
M101
G1 X-9.19 Y-2.28 Z1.56 F2880.0
G1 X-8.84 Y-2.55 Z1.56 F2880.0
G1 X-8.39 Y-1.92 Z1.56 F2880.0
G1 X-8.04 Y-2.18 Z1.56 F2880.0
G1 X-8.49 Y-2.81 Z1.56 F2880.0
G1 X-8.14 Y-3.08 Z1.56 F2880.0
G1 X-7.69 Y-2.45 Z1.56 F2880.0
G1 X-7.34 Y-2.71 Z1.56 F2880.0
G1 X-7.79 Y-3.34 Z1.56 F2880.0
G1 X-7.44 Y-3.61 Z1.56 F2880.0
G1 X-6.99 Y-2.98 Z1.56 F2880.0
G1 X-6.64 Y-3.24 Z1.56 F2880.0
G1 X-7.09 Y-3.87 Z1.56 F2880.0
G1 X-6.74 Y-4.13 Z1.56 F2880.0
G1 X-6.29 Y-3.5 Z1.56 F2880.0
G1 X-5.94 Y-3.77 Z1.56 F2880.0
G1 X-6.39 Y-4.4 Z1.56 F2880.0
G1 X-6.04 Y-4.66 Z1.56 F2880.0
G1 X-5.59 Y-4.03 Z1.56 F2880.0
G1 X-5.24 Y-4.3 Z1.56 F2880.0
G1 X-5.69 Y-4.93 Z1.56 F2880.0
G1 X-5.34 Y-5.19 Z1.56 F2880.0
G1 X-4.89 Y-4.56 Z1.56 F2880.0
G1 X-4.54 Y-4.83 Z1.56 F2880.0
G1 X-4.99 Y-5.46 Z1.56 F2880.0
G1 X-4.64 Y-5.72 Z1.56 F2880.0
G1 X-4.19 Y-5.09 Z1.56 F2880.0
G1 X-3.84 Y-5.36 Z1.56 F2880.0
G1 X-4.29 Y-5.99 Z1.56 F2880.0
G1 X-3.94 Y-6.25 Z1.56 F2880.0
G1 X-3.49 Y-5.62 Z1.56 F2880.0
G1 X-3.14 Y-5.88 Z1.56 F2880.0
G1 X-3.6 Y-6.51 Z1.56 F2880.0
G1 X-3.25 Y-6.78 Z1.56 F2880.0
G1 X-2.79 Y-6.15 Z1.56 F2880.0
G1 X-2.44 Y-6.41 Z1.56 F2880.0
G1 X-2.9 Y-7.04 Z1.56 F2880.0
G1 X-2.55 Y-7.31 Z1.56 F2880.0
G1 X-2.09 Y-6.68 Z1.56 F2880.0
G1 X-1.75 Y-6.94 Z1.56 F2880.0
G1 X-2.2 Y-7.57 Z1.56 F2880.0
G1 X-1.85 Y-7.84 Z1.56 F2880.0
G1 X-1.4 Y-7.21 Z1.56 F2880.0
G1 X-1.05 Y-7.47 Z1.56 F2880.0
G1 X-1.5 Y-8.1 Z1.56 F2880.0
G1 X-1.15 Y-8.37 Z1.56 F2880.0
G1 X-0.7 Y-7.74 Z1.56 F2880.0
G1 X-0.35 Y-8.0 Z1.56 F2880.0
G1 X-0.8 Y-8.63 Z1.56 F2880.0
G1 X-0.45 Y-8.9 Z1.56 F2880.0
G1 X0.0 Y-8.27 Z1.56 F2880.0
G1 X0.35 Y-8.53 Z1.56 F2880.0
G1 X-0.1 Y-9.16 Z1.56 F2880.0
G1 X0.25 Y-9.43 Z1.56 F2880.0
G1 X0.7 Y-8.79 Z1.56 F2880.0
G1 X1.05 Y-9.06 Z1.56 F2880.0
G1 X0.6 Y-9.69 Z1.56 F2880.0
G1 X0.95 Y-9.95 Z1.56 F2880.0
G1 X1.4 Y-9.32 Z1.56 F2880.0
M103
G1 X0.02 Y-7.89 Z1.56 F3300.0
G1 X-3.1 Y-5.34 Z1.56 F3300.0
G1 X-2.39 Y-4.16 Z1.56 F3300.0
G1 X-2.63 Y-3.51 Z1.56 F3300.0
G1 X-2.42 Y-2.96 Z1.56 F3300.0
G1 X-3.5 Y-1.96 Z1.56 F3300.0
G1 X-6.4 Y1.61 Z1.56 F3300.0
M101
G1 X-6.85 Y0.97 Z1.56 F2880.0
G1 X-6.5 Y0.71 Z1.56 F2880.0
G1 X-6.05 Y1.34 Z1.56 F2880.0
G1 X-5.7 Y1.08 Z1.56 F2880.0
G1 X-6.16 Y0.44 Z1.56 F2880.0
G1 X-5.81 Y0.18 Z1.56 F2880.0
G1 X-5.35 Y0.81 Z1.56 F2880.0
G1 X-5.0 Y0.55 Z1.56 F2880.0
G1 X-5.46 Y-0.09 Z1.56 F2880.0
G1 X-5.11 Y-0.35 Z1.56 F2880.0
G1 X-4.65 Y0.28 Z1.56 F2880.0
G1 X-4.3 Y0.02 Z1.56 F2880.0
G1 X-4.76 Y-0.62 Z1.56 F2880.0
G1 X-4.41 Y-0.88 Z1.56 F2880.0
G1 X-3.95 Y-0.25 Z1.56 F2880.0
G1 X-3.6 Y-0.51 Z1.56 F2880.0
G1 X-4.06 Y-1.15 Z1.56 F2880.0
G1 X-3.71 Y-1.41 Z1.56 F2880.0
G1 X-3.25 Y-0.78 Z1.56 F2880.0
G1 X-2.91 Y-1.04 Z1.56 F2880.0
G1 X-3.36 Y-1.68 Z1.56 F2880.0
G1 X-3.01 Y-1.94 Z1.56 F2880.0
G1 X-2.56 Y-1.31 Z1.56 F2880.0
G1 X-2.21 Y-1.57 Z1.56 F2880.0
G1 X-2.66 Y-2.2 Z1.56 F2880.0
G1 X-2.31 Y-2.47 Z1.56 F2880.0
G1 X-1.86 Y-1.84 Z1.56 F2880.0
G1 X-1.51 Y-2.1 Z1.56 F2880.0
G1 X-1.96 Y-2.73 Z1.56 F2880.0
G1 X-1.61 Y-3.0 Z1.56 F2880.0
G1 X-1.16 Y-2.37 Z1.56 F2880.0
G1 X-0.81 Y-2.63 Z1.56 F2880.0
G1 X-1.26 Y-3.26 Z1.56 F2880.0
G1 X-0.91 Y-3.53 Z1.56 F2880.0
G1 X-0.46 Y-2.9 Z1.56 F2880.0
G1 X-0.56 Y-3.79 Z1.56 F2880.0
G1 X-0.11 Y-3.16 Z1.56 F2880.0
G1 X0.24 Y-3.42 Z1.56 F2880.0
G1 X-0.21 Y-4.05 Z1.56 F2880.0
G1 X0.14 Y-4.32 Z1.56 F2880.0
G1 X0.59 Y-3.69 Z1.56 F2880.0
G1 X0.94 Y-3.95 Z1.56 F2880.0
G1 X0.49 Y-4.58 Z1.56 F2880.0
G1 X0.84 Y-4.85 Z1.56 F2880.0
G1 X1.29 Y-4.21 Z1.56 F2880.0
G1 X1.64 Y-4.48 Z1.56 F2880.0
G1 X1.19 Y-5.11 Z1.56 F2880.0
G1 X1.53 Y-5.38 Z1.56 F2880.0
G1 X1.99 Y-4.74 Z1.56 F2880.0
G1 X2.34 Y-5.01 Z1.56 F2880.0
G1 X1.89 Y-5.64 Z1.56 F2880.0
G1 X2.23 Y-5.91 Z1.56 F2880.0
G1 X2.69 Y-5.27 Z1.56 F2880.0
G1 X3.04 Y-5.54 Z1.56 F2880.0
G1 X2.58 Y-6.17 Z1.56 F2880.0
G1 X2.93 Y-6.43 Z1.56 F2880.0
G1 X3.39 Y-5.8 Z1.56 F2880.0
G1 X3.74 Y-6.06 Z1.56 F2880.0
G1 X3.28 Y-6.7 Z1.56 F2880.0
M103
G1 X4.01 Y-5.9 Z1.56 F3300.0
G1 X-0.68 Y-2.15 Z1.56 F3300.0
G1 X0.71 Y-0.31 Z1.56 F3300.0
G1 X5.71 Y-3.9 Z1.56 F3300.0
G1 X6.23 Y-3.34 Z1.56 F3300.0
M101
G1 X6.42 Y-3.07 Z1.56 F2880.0
G1 X6.07 Y-2.81 Z1.56 F2880.0
G1 X5.62 Y-3.45 Z1.56 F2880.0
G1 X5.27 Y-3.19 Z1.56 F2880.0
G1 X5.72 Y-2.54 Z1.56 F2880.0
G1 X5.37 Y-2.28 Z1.56 F2880.0
G1 X4.92 Y-2.92 Z1.56 F2880.0
G1 X4.57 Y-2.65 Z1.56 F2880.0
G1 X5.02 Y-2.02 Z1.56 F2880.0
G1 X4.67 Y-1.75 Z1.56 F2880.0
G1 X4.22 Y-2.39 Z1.56 F2880.0
G1 X3.87 Y-2.13 Z1.56 F2880.0
G1 X4.32 Y-1.49 Z1.56 F2880.0
G1 X3.97 Y-1.23 Z1.56 F2880.0
G1 X3.52 Y-1.86 Z1.56 F2880.0
G1 X3.17 Y-1.6 Z1.56 F2880.0
G1 X3.62 Y-0.96 Z1.56 F2880.0
G1 X3.27 Y-0.7 Z1.56 F2880.0
G1 X2.82 Y-1.33 Z1.56 F2880.0
G1 X2.47 Y-1.07 Z1.56 F2880.0
G1 X2.92 Y-0.43 Z1.56 F2880.0
G1 X2.57 Y-0.17 Z1.56 F2880.0
G1 X2.12 Y-0.8 Z1.56 F2880.0
G1 X1.77 Y-0.54 Z1.56 F2880.0
G1 X2.22 Y0.09 Z1.56 F2880.0
G1 X1.87 Y0.36 Z1.56 F2880.0
G1 X1.42 Y-0.28 Z1.56 F2880.0
G1 X1.07 Y-0.01 Z1.56 F2880.0
G1 X1.52 Y0.62 Z1.56 F2880.0
G1 X1.17 Y0.89 Z1.56 F2880.0
G1 X0.72 Y0.25 Z1.56 F2880.0
G1 X0.37 Y0.52 Z1.56 F2880.0
G1 X0.82 Y1.15 Z1.56 F2880.0
G1 X0.47 Y1.41 Z1.56 F2880.0
G1 X0.02 Y0.78 Z1.56 F2880.0
G1 X-0.33 Y1.05 Z1.56 F2880.0
G1 X0.12 Y1.68 Z1.56 F2880.0
G1 X-0.23 Y1.94 Z1.56 F2880.0
G1 X-0.68 Y1.31 Z1.56 F2880.0
G1 X-1.03 Y1.58 Z1.56 F2880.0
G1 X-0.57 Y2.21 Z1.56 F2880.0
G1 X-0.92 Y2.47 Z1.56 F2880.0
G1 X-1.38 Y1.84 Z1.56 F2880.0
G1 X-1.73 Y2.11 Z1.56 F2880.0
G1 X-1.27 Y2.74 Z1.56 F2880.0
G1 X-1.62 Y3.0 Z1.56 F2880.0
G1 X-2.07 Y2.37 Z1.56 F2880.0
G1 X-2.42 Y2.63 Z1.56 F2880.0
G1 X-1.97 Y3.27 Z1.56 F2880.0
G1 X-2.32 Y3.53 Z1.56 F2880.0
G1 X-2.77 Y2.9 Z1.56 F2880.0
G1 X-3.12 Y3.16 Z1.56 F2880.0
G1 X-2.67 Y3.8 Z1.56 F2880.0
G1 X-3.02 Y4.07 Z1.56 F2880.0
G1 X-3.47 Y3.43 Z1.56 F2880.0
G1 X-3.82 Y3.69 Z1.56 F2880.0
G1 X-3.37 Y4.33 Z1.56 F2880.0
G1 X-3.71 Y4.6 Z1.56 F2880.0
G1 X-4.17 Y3.96 Z1.56 F2880.0
G1 X-4.52 Y4.22 Z1.56 F2880.0
G1 X-4.06 Y4.86 Z1.56 F2880.0
M103
G1 X-3.9 Y5.1 Z1.56 F3300.0
G1 X1.02 Y1.57 Z1.56 F3300.0
G1 X2.41 Y3.42 Z1.56 F3300.0
G1 X-2.36 Y7.22 Z1.56 F3300.0
G1 X-2.2 Y7.46 Z1.56 F3300.0
M101
G1 X-1.74 Y8.1 Z1.56 F2880.0
G1 X-1.39 Y7.84 Z1.56 F2880.0
G1 X-1.85 Y7.2 Z1.56 F2880.0
G1 X-1.5 Y6.93 Z1.56 F2880.0
G1 X-1.04 Y7.57 Z1.56 F2880.0
G1 X-0.69 Y7.31 Z1.56 F2880.0
G1 X-1.15 Y6.67 Z1.56 F2880.0
G1 X-0.8 Y6.4 Z1.56 F2880.0
G1 X-0.34 Y7.04 Z1.56 F2880.0
G1 X0.01 Y6.78 Z1.56 F2880.0
G1 X-0.45 Y6.14 Z1.56 F2880.0
G1 X-0.1 Y5.88 Z1.56 F2880.0
G1 X0.36 Y6.51 Z1.56 F2880.0
G1 X0.71 Y6.25 Z1.56 F2880.0
G1 X0.25 Y5.61 Z1.56 F2880.0
G1 X0.6 Y5.35 Z1.56 F2880.0
G1 X1.06 Y5.99 Z1.56 F2880.0
G1 X1.41 Y5.72 Z1.56 F2880.0
G1 X0.95 Y5.08 Z1.56 F2880.0
G1 X1.3 Y4.82 Z1.56 F2880.0
G1 X1.76 Y5.46 Z1.56 F2880.0
G1 X2.11 Y5.19 Z1.56 F2880.0
G1 X1.65 Y4.55 Z1.56 F2880.0
G1 X2.0 Y4.29 Z1.56 F2880.0
G1 X2.46 Y4.93 Z1.56 F2880.0
G1 X2.81 Y4.66 Z1.56 F2880.0
G1 X2.35 Y4.02 Z1.56 F2880.0
G1 X2.7 Y3.76 Z1.56 F2880.0
G1 X3.15 Y4.4 Z1.56 F2880.0
G1 X3.5 Y4.13 Z1.56 F2880.0
G1 X3.05 Y3.5 Z1.56 F2880.0
G1 X3.4 Y3.23 Z1.56 F2880.0
G1 X3.85 Y3.87 Z1.56 F2880.0
G1 X4.2 Y3.6 Z1.56 F2880.0
G1 X3.75 Y2.97 Z1.56 F2880.0
G1 X4.1 Y2.7 Z1.56 F2880.0
G1 X4.55 Y3.34 Z1.56 F2880.0
G1 X4.9 Y3.08 Z1.56 F2880.0
G1 X4.45 Y2.44 Z1.56 F2880.0
G1 X4.79 Y2.17 Z1.56 F2880.0
G1 X5.25 Y2.81 Z1.56 F2880.0
G1 X5.6 Y2.55 Z1.56 F2880.0
G1 X5.14 Y1.91 Z1.56 F2880.0
G1 X5.49 Y1.64 Z1.56 F2880.0
G1 X5.95 Y2.28 Z1.56 F2880.0
G1 X6.3 Y2.02 Z1.56 F2880.0
G1 X5.84 Y1.38 Z1.56 F2880.0
G1 X6.19 Y1.12 Z1.56 F2880.0
G1 X6.65 Y1.75 Z1.56 F2880.0
G1 X7.0 Y1.49 Z1.56 F2880.0
G1 X6.54 Y0.85 Z1.56 F2880.0
G1 X6.89 Y0.59 Z1.56 F2880.0
G1 X7.35 Y1.22 Z1.56 F2880.0
G1 X7.7 Y0.96 Z1.56 F2880.0
G1 X7.24 Y0.32 Z1.56 F2880.0
G1 X7.59 Y0.06 Z1.56 F2880.0
G1 X8.05 Y0.69 Z1.56 F2880.0
G1 X8.4 Y0.43 Z1.56 F2880.0
G1 X7.94 Y-0.21 Z1.56 F2880.0
G1 X8.29 Y-0.47 Z1.56 F2880.0
G1 X8.75 Y0.17 Z1.56 F2880.0
M103
G1 X8.92 Y0.42 Z1.56 F3300.0
G1 X4.15 Y4.22 Z1.56 F3300.0
G1 X5.54 Y6.07 Z1.56 F3300.0
G1 X10.46 Y2.54 Z1.56 F3300.0
G1 X10.6 Y2.75 Z1.56 F3300.0
M101
G1 X11.03 Y3.34 Z1.56 F2880.0
G1 X10.73 Y3.68 Z1.56 F2880.0
G1 X10.25 Y3.01 Z1.56 F2880.0
G1 X9.9 Y3.28 Z1.56 F2880.0
G1 X10.38 Y3.95 Z1.56 F2880.0
G1 X10.03 Y4.21 Z1.56 F2880.0
G1 X9.55 Y3.54 Z1.56 F2880.0
G1 X9.2 Y3.81 Z1.56 F2880.0
G1 X9.68 Y4.47 Z1.56 F2880.0
G1 X9.33 Y4.74 Z1.56 F2880.0
G1 X8.85 Y4.07 Z1.56 F2880.0
G1 X8.5 Y4.33 Z1.56 F2880.0
G1 X8.98 Y5.0 Z1.56 F2880.0
G1 X8.63 Y5.27 Z1.56 F2880.0
G1 X8.15 Y4.6 Z1.56 F2880.0
G1 X7.8 Y4.86 Z1.56 F2880.0
G1 X8.28 Y5.53 Z1.56 F2880.0
G1 X7.93 Y5.8 Z1.56 F2880.0
G1 X7.45 Y5.13 Z1.56 F2880.0
G1 X7.1 Y5.39 Z1.56 F2880.0
G1 X7.58 Y6.06 Z1.56 F2880.0
G1 X7.24 Y6.33 Z1.56 F2880.0
G1 X6.75 Y5.66 Z1.56 F2880.0
G1 X6.41 Y5.92 Z1.56 F2880.0
G1 X6.89 Y6.59 Z1.56 F2880.0
G1 X6.54 Y6.86 Z1.56 F2880.0
G1 X6.05 Y6.18 Z1.56 F2880.0
G1 X5.71 Y6.45 Z1.56 F2880.0
G1 X6.19 Y7.12 Z1.56 F2880.0
G1 X5.84 Y7.38 Z1.56 F2880.0
G1 X5.36 Y6.71 Z1.56 F2880.0
G1 X5.01 Y6.98 Z1.56 F2880.0
G1 X5.49 Y7.65 Z1.56 F2880.0
G1 X5.14 Y7.91 Z1.56 F2880.0
G1 X4.66 Y7.24 Z1.56 F2880.0
G1 X4.31 Y7.51 Z1.56 F2880.0
G1 X4.79 Y8.18 Z1.56 F2880.0
G1 X4.44 Y8.44 Z1.56 F2880.0
G1 X3.96 Y7.77 Z1.56 F2880.0
G1 X3.61 Y8.04 Z1.56 F2880.0
G1 X4.09 Y8.71 Z1.56 F2880.0
G1 X3.74 Y8.97 Z1.56 F2880.0
G1 X3.26 Y8.3 Z1.56 F2880.0
G1 X2.91 Y8.56 Z1.56 F2880.0
G1 X3.39 Y9.24 Z1.56 F2880.0
G1 X3.04 Y9.5 Z1.56 F2880.0
G1 X2.56 Y8.83 Z1.56 F2880.0
G1 X2.21 Y9.09 Z1.56 F2880.0
G1 X2.69 Y9.77 Z1.56 F2880.0
G1 X2.34 Y10.03 Z1.56 F2880.0
G1 X1.86 Y9.36 Z1.56 F2880.0
G1 X1.51 Y9.62 Z1.56 F2880.0
G1 X1.99 Y10.29 Z1.56 F2880.0
G1 X1.64 Y10.56 Z1.56 F2880.0
G1 X1.16 Y9.89 Z1.56 F2880.0
G1 X0.81 Y10.15 Z1.56 F2880.0
G1 X1.29 Y10.82 Z1.56 F2880.0
G1 X0.94 Y11.09 Z1.56 F2880.0
G1 X0.46 Y10.42 Z1.56 F2880.0
M103
G1 X1.24 Y11.25 Z1.56 F3300.0
G1 X5.85 Y7.95 Z1.56 F3300.0
G1 X7.24 Y9.79 Z1.56 F3300.0
G1 X2.95 Y13.23 Z1.56 F3300.0
G1 X3.17 Y13.43 Z1.56 F3300.0
M101
G1 X3.63 Y14.07 Z1.56 F2880.0
G1 X3.98 Y13.81 Z1.56 F2880.0
G1 X3.52 Y13.17 Z1.56 F2880.0
G1 X3.87 Y12.9 Z1.56 F2880.0
G1 X4.33 Y13.55 Z1.56 F2880.0
G1 X4.67 Y13.28 Z1.56 F2880.0
G1 X4.21 Y12.64 Z1.56 F2880.0
G1 X4.56 Y12.38 Z1.56 F2880.0
G1 X5.02 Y13.02 Z1.56 F2880.0
G1 X5.37 Y12.75 Z1.56 F2880.0
G1 X4.91 Y12.11 Z1.56 F2880.0
G1 X5.26 Y11.85 Z1.56 F2880.0
G1 X5.72 Y12.49 Z1.56 F2880.0
G1 X6.07 Y12.22 Z1.56 F2880.0
G1 X5.61 Y11.58 Z1.56 F2880.0
G1 X5.96 Y11.32 Z1.56 F2880.0
G1 X6.42 Y11.96 Z1.56 F2880.0
G1 X6.77 Y11.69 Z1.56 F2880.0
G1 X6.31 Y11.05 Z1.56 F2880.0
G1 X6.66 Y10.79 Z1.56 F2880.0
G1 X7.12 Y11.43 Z1.56 F2880.0
G1 X7.47 Y11.16 Z1.56 F2880.0
G1 X7.01 Y10.52 Z1.56 F2880.0
G1 X7.36 Y10.26 Z1.56 F2880.0
G1 X7.82 Y10.9 Z1.56 F2880.0
G1 X8.17 Y10.64 Z1.56 F2880.0
G1 X7.71 Y9.99 Z1.56 F2880.0
G1 X8.06 Y9.73 Z1.56 F2880.0
G1 X8.52 Y10.37 Z1.56 F2880.0
G1 X8.87 Y10.11 Z1.56 F2880.0
G1 X8.41 Y9.47 Z1.56 F2880.0
G1 X8.76 Y9.2 Z1.56 F2880.0
G1 X9.22 Y9.84 Z1.56 F2880.0
G1 X9.57 Y9.58 Z1.56 F2880.0
G1 X9.11 Y8.94 Z1.56 F2880.0
G1 X9.46 Y8.67 Z1.56 F2880.0
G1 X9.92 Y9.31 Z1.56 F2880.0
G1 X10.27 Y9.05 Z1.56 F2880.0
G1 X9.81 Y8.41 Z1.56 F2880.0
G1 X10.16 Y8.14 Z1.56 F2880.0
G1 X10.62 Y8.79 Z1.56 F2880.0
G1 X10.97 Y8.52 Z1.56 F2880.0
G1 X10.51 Y7.88 Z1.56 F2880.0
G1 X10.86 Y7.61 Z1.56 F2880.0
G1 X11.32 Y8.26 Z1.56 F2880.0
G1 X11.66 Y7.99 Z1.56 F2880.0
G1 X11.21 Y7.35 Z1.56 F2880.0
G1 X11.55 Y7.08 Z1.56 F2880.0
G1 X12.02 Y7.73 Z1.56 F2880.0
G1 X12.37 Y7.46 Z1.56 F2880.0
G1 X11.9 Y6.82 Z1.56 F2880.0
G1 X12.25 Y6.56 Z1.56 F2880.0
G1 X12.71 Y7.2 Z1.56 F2880.0
G1 X13.06 Y6.93 Z1.56 F2880.0
G1 X12.6 Y6.29 Z1.56 F2880.0
M103
G1 X13.24 Y7.19 Z1.56 F3300.0
G1 X8.97 Y10.61 Z1.56 F3300.0
G1 X10.37 Y12.44 Z1.56 F3300.0
G1 X14.77 Y9.3 Z1.56 F3300.0
G1 X14.92 Y9.52 Z1.56 F3300.0
M101
G1 X14.57 Y9.78 Z1.56 F2880.0
G1 X15.05 Y10.45 Z1.56 F2880.0
G1 X14.7 Y10.71 Z1.56 F2880.0
G1 X14.22 Y10.05 Z1.56 F2880.0
G1 X13.87 Y10.31 Z1.56 F2880.0
G1 X14.35 Y10.98 Z1.56 F2880.0
G1 X14.0 Y11.24 Z1.56 F2880.0
G1 X13.52 Y10.58 Z1.56 F2880.0
G1 X13.17 Y10.84 Z1.56 F2880.0
G1 X13.65 Y11.51 Z1.56 F2880.0
G1 X13.3 Y11.77 Z1.56 F2880.0
G1 X12.82 Y11.11 Z1.56 F2880.0
G1 X12.47 Y11.37 Z1.56 F2880.0
G1 X12.95 Y12.04 Z1.56 F2880.0
G1 X12.6 Y12.3 Z1.56 F2880.0
G1 X12.12 Y11.64 Z1.56 F2880.0
G1 X11.77 Y11.9 Z1.56 F2880.0
G1 X12.25 Y12.56 Z1.56 F2880.0
G1 X11.9 Y12.83 Z1.56 F2880.0
G1 X11.42 Y12.16 Z1.56 F2880.0
G1 X11.07 Y12.43 Z1.56 F2880.0
G1 X11.55 Y13.09 Z1.56 F2880.0
G1 X11.2 Y13.36 Z1.56 F2880.0
G1 X10.72 Y12.69 Z1.56 F2880.0
G1 X10.38 Y12.96 Z1.56 F2880.0
G1 X10.85 Y13.62 Z1.56 F2880.0
G1 X10.5 Y13.89 Z1.56 F2880.0
G1 X10.03 Y13.22 Z1.56 F2880.0
G1 X9.68 Y13.49 Z1.56 F2880.0
G1 X10.15 Y14.15 Z1.56 F2880.0
G1 X9.8 Y14.42 Z1.56 F2880.0
G1 X9.33 Y13.75 Z1.56 F2880.0
G1 X8.98 Y14.02 Z1.56 F2880.0
G1 X9.45 Y14.68 Z1.56 F2880.0
G1 X9.1 Y14.95 Z1.56 F2880.0
G1 X8.63 Y14.28 Z1.56 F2880.0
G1 X8.28 Y14.54 Z1.56 F2880.0
G1 X8.75 Y15.21 Z1.56 F2880.0
G1 X8.4 Y15.47 Z1.56 F2880.0
G1 X7.93 Y14.81 Z1.56 F2880.0
G1 X7.58 Y15.07 Z1.56 F2880.0
G1 X8.05 Y15.74 Z1.56 F2880.0
G1 X7.71 Y16.0 Z1.56 F2880.0
G1 X7.23 Y15.34 Z1.56 F2880.0
G1 X6.88 Y15.6 Z1.56 F2880.0
G1 X7.36 Y16.27 Z1.56 F2880.0
G1 X7.01 Y16.53 Z1.56 F2880.0
G1 X6.53 Y15.87 Z1.56 F2880.0
G1 X6.18 Y16.13 Z1.56 F2880.0
G1 X6.66 Y16.8 Z1.56 F2880.0
G1 X6.31 Y17.06 Z1.56 F2880.0
G1 X5.83 Y16.4 Z1.56 F2880.0
M103
G1 X6.61 Y17.22 Z1.56 F3300.0
G1 X10.68 Y14.33 Z1.56 F3300.0
G1 X12.07 Y16.17 Z1.56 F3300.0
G1 X8.32 Y19.2 Z1.56 F3300.0
G1 X8.52 Y19.39 Z1.56 F3300.0
M101
G1 X8.99 Y20.05 Z1.56 F2880.0
G1 X9.34 Y19.78 Z1.56 F2880.0
G1 X8.87 Y19.12 Z1.56 F2880.0
G1 X9.21 Y18.86 Z1.56 F2880.0
G1 X9.69 Y19.52 Z1.56 F2880.0
G1 X10.04 Y19.25 Z1.56 F2880.0
G1 X9.56 Y18.59 Z1.56 F2880.0
G1 X9.91 Y18.33 Z1.56 F2880.0
G1 X10.39 Y18.99 Z1.56 F2880.0
G1 X10.74 Y18.73 Z1.56 F2880.0
G1 X10.26 Y18.07 Z1.56 F2880.0
G1 X10.61 Y17.8 Z1.56 F2880.0
G1 X11.09 Y18.46 Z1.56 F2880.0
G1 X11.44 Y18.2 Z1.56 F2880.0
G1 X10.96 Y17.54 Z1.56 F2880.0
G1 X11.31 Y17.27 Z1.56 F2880.0
G1 X11.79 Y17.93 Z1.56 F2880.0
G1 X12.14 Y17.67 Z1.56 F2880.0
G1 X11.66 Y17.01 Z1.56 F2880.0
G1 X12.01 Y16.74 Z1.56 F2880.0
G1 X12.48 Y17.4 Z1.56 F2880.0
G1 X12.84 Y17.14 Z1.56 F2880.0
G1 X12.36 Y16.48 Z1.56 F2880.0
G1 X12.71 Y16.21 Z1.56 F2880.0
G1 X13.18 Y16.87 Z1.56 F2880.0
G1 X13.53 Y16.61 Z1.56 F2880.0
G1 X13.06 Y15.95 Z1.56 F2880.0
G1 X13.41 Y15.69 Z1.56 F2880.0
G1 X13.88 Y16.34 Z1.56 F2880.0
G1 X14.23 Y16.08 Z1.56 F2880.0
G1 X13.76 Y15.42 Z1.56 F2880.0
G1 X14.11 Y15.16 Z1.56 F2880.0
G1 X14.58 Y15.82 Z1.56 F2880.0
G1 X14.93 Y15.55 Z1.56 F2880.0
G1 X14.46 Y14.89 Z1.56 F2880.0
G1 X14.81 Y14.63 Z1.56 F2880.0
G1 X15.28 Y15.29 Z1.56 F2880.0
G1 X15.63 Y15.02 Z1.56 F2880.0
G1 X15.16 Y14.36 Z1.56 F2880.0
G1 X15.51 Y14.1 Z1.56 F2880.0
G1 X15.98 Y14.76 Z1.56 F2880.0
G1 X16.33 Y14.49 Z1.56 F2880.0
G1 X15.86 Y13.83 Z1.56 F2880.0
G1 X16.21 Y13.57 Z1.56 F2880.0
G1 X16.68 Y14.23 Z1.56 F2880.0
G1 X17.03 Y13.96 Z1.56 F2880.0
G1 X16.56 Y13.3 Z1.56 F2880.0
G1 X16.91 Y13.04 Z1.56 F2880.0
G1 X17.38 Y13.7 Z1.56 F2880.0
M103
G1 X17.55 Y13.95 Z1.56 F3300.0
G1 X13.8 Y16.98 Z1.56 F3300.0
G1 X15.19 Y18.82 Z1.56 F3300.0
G1 X19.09 Y16.07 Z1.56 F3300.0
G1 X19.23 Y16.29 Z1.56 F3300.0
M101
G1 X19.71 Y16.95 Z1.56 F2880.0
G1 X19.36 Y17.22 Z1.56 F2880.0
G1 X18.9 Y16.57 Z1.56 F2880.0
G1 X18.55 Y16.84 Z1.56 F2880.0
G1 X19.01 Y17.48 Z1.56 F2880.0
G1 X18.66 Y17.75 Z1.56 F2880.0
G1 X18.2 Y17.1 Z1.56 F2880.0
G1 X17.85 Y17.37 Z1.56 F2880.0
G1 X18.31 Y18.01 Z1.56 F2880.0
G1 X17.96 Y18.27 Z1.56 F2880.0
G1 X17.5 Y17.63 Z1.56 F2880.0
G1 X17.15 Y17.9 Z1.56 F2880.0
G1 X17.61 Y18.54 Z1.56 F2880.0
G1 X17.27 Y18.8 Z1.56 F2880.0
G1 X16.8 Y18.16 Z1.56 F2880.0
G1 X16.45 Y18.43 Z1.56 F2880.0
G1 X16.91 Y19.07 Z1.56 F2880.0
G1 X16.57 Y19.33 Z1.56 F2880.0
G1 X16.11 Y18.69 Z1.56 F2880.0
G1 X15.76 Y18.95 Z1.56 F2880.0
G1 X16.22 Y19.6 Z1.56 F2880.0
G1 X15.87 Y19.86 Z1.56 F2880.0
G1 X15.41 Y19.22 Z1.56 F2880.0
G1 X15.06 Y19.48 Z1.56 F2880.0
G1 X15.52 Y20.13 Z1.56 F2880.0
G1 X15.17 Y20.39 Z1.56 F2880.0
G1 X14.71 Y19.75 Z1.56 F2880.0
G1 X14.36 Y20.01 Z1.56 F2880.0
G1 X14.82 Y20.65 Z1.56 F2880.0
G1 X14.47 Y20.92 Z1.56 F2880.0
G1 X14.01 Y20.28 Z1.56 F2880.0
G1 X13.66 Y20.54 Z1.56 F2880.0
G1 X14.12 Y21.18 Z1.56 F2880.0
G1 X13.77 Y21.45 Z1.56 F2880.0
G1 X13.31 Y20.81 Z1.56 F2880.0
G1 X12.96 Y21.07 Z1.56 F2880.0
G1 X13.42 Y21.71 Z1.56 F2880.0
G1 X13.07 Y21.98 Z1.56 F2880.0
G1 X12.61 Y21.34 Z1.56 F2880.0
G1 X12.26 Y21.6 Z1.56 F2880.0
G1 X12.72 Y22.24 Z1.56 F2880.0
G1 X12.37 Y22.51 Z1.56 F2880.0
G1 X11.91 Y21.86 Z1.56 F2880.0
G1 X11.56 Y22.13 Z1.56 F2880.0
G1 X12.02 Y22.77 Z1.56 F2880.0
G1 X11.67 Y23.04 Z1.56 F2880.0
G1 X11.21 Y22.39 Z1.56 F2880.0
G1 X10.85 Y22.64 Z1.56 F2880.0
G1 X10.84 Y22.62 Z1.56 F2880.0
M103
G1 X11.74 Y23.36 Z1.56 F3300.0
G1 X15.5 Y20.71 Z1.56 F3300.0
G1 X16.89 Y22.55 Z1.56 F3300.0
G1 X13.63 Y25.22 Z1.56 F3300.0
G1 X13.9 Y25.39 Z1.56 F3300.0
M101
G1 X14.35 Y26.02 Z1.56 F2880.0
G1 X14.7 Y25.76 Z1.56 F2880.0
G1 X14.25 Y25.13 Z1.56 F2880.0
G1 X14.6 Y24.86 Z1.56 F2880.0
G1 X15.05 Y25.49 Z1.56 F2880.0
G1 X15.4 Y25.23 Z1.56 F2880.0
G1 X14.95 Y24.6 Z1.56 F2880.0
G1 X15.3 Y24.34 Z1.56 F2880.0
G1 X15.75 Y24.96 Z1.56 F2880.0
G1 X16.1 Y24.7 Z1.56 F2880.0
G1 X15.65 Y24.07 Z1.56 F2880.0
G1 X16.0 Y23.81 Z1.56 F2880.0
G1 X16.45 Y24.43 Z1.56 F2880.0
G1 X16.8 Y24.17 Z1.56 F2880.0
G1 X16.35 Y23.54 Z1.56 F2880.0
G1 X16.7 Y23.28 Z1.56 F2880.0
G1 X17.15 Y23.91 Z1.56 F2880.0
G1 X17.5 Y23.64 Z1.56 F2880.0
G1 X17.05 Y23.01 Z1.56 F2880.0
G1 X17.4 Y22.75 Z1.56 F2880.0
G1 X17.85 Y23.38 Z1.56 F2880.0
G1 X18.2 Y23.11 Z1.56 F2880.0
G1 X17.75 Y22.48 Z1.56 F2880.0
G1 X18.1 Y22.22 Z1.56 F2880.0
G1 X18.55 Y22.85 Z1.56 F2880.0
G1 X18.9 Y22.58 Z1.56 F2880.0
G1 X18.45 Y21.95 Z1.56 F2880.0
G1 X18.8 Y21.69 Z1.56 F2880.0
G1 X19.25 Y22.32 Z1.56 F2880.0
G1 X19.6 Y22.05 Z1.56 F2880.0
G1 X19.15 Y21.43 Z1.56 F2880.0
G1 X19.5 Y21.16 Z1.56 F2880.0
G1 X19.95 Y21.79 Z1.56 F2880.0
G1 X20.3 Y21.52 Z1.56 F2880.0
G1 X19.84 Y20.9 Z1.56 F2880.0
G1 X20.19 Y20.63 Z1.56 F2880.0
G1 X20.64 Y21.26 Z1.56 F2880.0
G1 X21.0 Y21.0 Z1.56 F2880.0
G1 X20.54 Y20.37 Z1.56 F2880.0
G1 X20.89 Y20.1 Z1.56 F2880.0
G1 X21.34 Y20.73 Z1.56 F2880.0
G1 X21.69 Y20.47 Z1.56 F2880.0
G1 X21.24 Y19.84 Z1.56 F2880.0
M103
G1 X21.62 Y20.9 Z1.56 F3300.0
G1 X18.63 Y23.36 Z1.56 F3300.0
G1 X20.02 Y25.2 Z1.56 F3300.0
G1 X22.81 Y23.28 Z1.56 F3300.0
G1 X22.88 Y23.62 Z1.56 F3300.0
M101
G1 X23.33 Y24.25 Z1.56 F2880.0
G1 X22.98 Y24.51 Z1.56 F2880.0
G1 X22.53 Y23.88 Z1.56 F2880.0
G1 X22.18 Y24.15 Z1.56 F2880.0
G1 X22.63 Y24.78 Z1.56 F2880.0
G1 X22.28 Y25.04 Z1.56 F2880.0
G1 X21.83 Y24.41 Z1.56 F2880.0
G1 X21.48 Y24.68 Z1.56 F2880.0
G1 X21.93 Y25.3 Z1.56 F2880.0
G1 X21.58 Y25.57 Z1.56 F2880.0
G1 X21.13 Y24.94 Z1.56 F2880.0
G1 X20.78 Y25.2 Z1.56 F2880.0
G1 X21.23 Y25.83 Z1.56 F2880.0
G1 X20.88 Y26.1 Z1.56 F2880.0
G1 X20.43 Y25.47 Z1.56 F2880.0
G1 X20.08 Y25.73 Z1.56 F2880.0
G1 X20.53 Y26.36 Z1.56 F2880.0
G1 X20.18 Y26.63 Z1.56 F2880.0
G1 X19.73 Y26.0 Z1.56 F2880.0
G1 X19.38 Y26.26 Z1.56 F2880.0
G1 X19.83 Y26.89 Z1.56 F2880.0
G1 X19.48 Y27.16 Z1.56 F2880.0
G1 X19.03 Y26.53 Z1.56 F2880.0
G1 X18.68 Y26.79 Z1.56 F2880.0
G1 X19.13 Y27.42 Z1.56 F2880.0
G1 X18.78 Y27.69 Z1.56 F2880.0
G1 X18.33 Y27.06 Z1.56 F2880.0
G1 X17.98 Y27.32 Z1.56 F2880.0
G1 X18.43 Y27.95 Z1.56 F2880.0
G1 X18.08 Y28.21 Z1.56 F2880.0
G1 X17.63 Y27.59 Z1.56 F2880.0
G1 X17.28 Y27.85 Z1.56 F2880.0
G1 X17.73 Y28.48 Z1.56 F2880.0
G1 X17.39 Y28.74 Z1.56 F2880.0
G1 X16.93 Y28.11 Z1.56 F2880.0
M103
G1 X17.8 Y28.81 Z1.56 F3300.0
G1 X20.33 Y27.09 Z1.56 F3300.0
G1 X21.72 Y28.93 Z1.56 F3300.0
G1 X19.69 Y30.66 Z1.56 F3300.0
G1 X19.97 Y30.84 Z1.56 F3300.0
M101
G1 X20.42 Y31.47 Z1.56 F2880.0
G1 X20.77 Y31.2 Z1.56 F2880.0
G1 X20.32 Y30.57 Z1.56 F2880.0
G1 X20.66 Y30.31 Z1.56 F2880.0
G1 X21.12 Y30.94 Z1.56 F2880.0
G1 X21.47 Y30.67 Z1.56 F2880.0
G1 X21.01 Y30.04 Z1.56 F2880.0
G1 X21.36 Y29.78 Z1.56 F2880.0
G1 X21.82 Y30.41 Z1.56 F2880.0
G1 X22.16 Y30.14 Z1.56 F2880.0
G1 X21.71 Y29.52 Z1.56 F2880.0
G1 X22.06 Y29.25 Z1.56 F2880.0
G1 X22.51 Y29.88 Z1.56 F2880.0
G1 X22.86 Y29.61 Z1.56 F2880.0
G1 X22.41 Y28.99 Z1.56 F2880.0
G1 X22.76 Y28.72 Z1.56 F2880.0
G1 X23.21 Y29.35 Z1.56 F2880.0
G1 X23.56 Y29.09 Z1.56 F2880.0
G1 X23.11 Y28.46 Z1.56 F2880.0
G1 X23.46 Y28.19 Z1.56 F2880.0
G1 X23.91 Y28.82 Z1.56 F2880.0
G1 X24.26 Y28.56 Z1.56 F2880.0
G1 X23.81 Y27.93 Z1.56 F2880.0
G1 X24.16 Y27.66 Z1.56 F2880.0
G1 X24.61 Y28.29 Z1.56 F2880.0
G1 X24.96 Y28.03 Z1.56 F2880.0
G1 X24.51 Y27.4 Z1.56 F2880.0
G1 X24.86 Y27.13 Z1.56 F2880.0
G1 X25.31 Y27.76 Z1.56 F2880.0
M103
G1 X25.42 Y28.07 Z1.56 F3300.0
G1 X23.46 Y29.74 Z1.56 F3300.0
G1 X24.85 Y31.58 Z1.56 F3300.0
G1 X26.75 Y30.37 Z1.56 F3300.0
G1 X26.84 Y30.65 Z1.56 F3300.0
M101
G1 X27.29 Y31.28 Z1.56 F2880.0
G1 X26.94 Y31.54 Z1.56 F2880.0
G1 X26.5 Y30.92 Z1.56 F2880.0
G1 X26.14 Y31.18 Z1.56 F2880.0
G1 X26.59 Y31.81 Z1.56 F2880.0
G1 X26.24 Y32.07 Z1.56 F2880.0
G1 X25.8 Y31.45 Z1.56 F2880.0
G1 X25.45 Y31.71 Z1.56 F2880.0
G1 X25.89 Y32.34 Z1.56 F2880.0
G1 X25.55 Y32.6 Z1.56 F2880.0
G1 X25.1 Y31.97 Z1.56 F2880.0
G1 X24.75 Y32.24 Z1.56 F2880.0
G1 X25.2 Y32.87 Z1.56 F2880.0
G1 X24.85 Y33.13 Z1.56 F2880.0
G1 X24.4 Y32.51 Z1.56 F2880.0
G1 X24.05 Y32.77 Z1.56 F2880.0
G1 X24.5 Y33.39 Z1.56 F2880.0
G1 X24.15 Y33.66 Z1.56 F2880.0
G1 X23.7 Y33.03 Z1.56 F2880.0
G1 X23.35 Y33.3 Z1.56 F2880.0
G1 X23.8 Y33.92 Z1.56 F2880.0
G1 X23.45 Y34.19 Z1.56 F2880.0
G1 X23.0 Y33.57 Z1.56 F2880.0
G1 X22.64 Y33.82 Z1.56 F2880.0
G1 X23.1 Y34.45 Z1.56 F2880.0
M103
G1 X23.34 Y34.66 Z1.56 F3300.0
G1 X25.16 Y33.47 Z1.56 F3300.0
G1 X26.55 Y35.31 Z1.56 F3300.0
G1 X25.12 Y36.62 Z1.56 F3300.0
G1 X25.31 Y36.78 Z1.56 F3300.0
M101
G1 X25.35 Y36.84 Z1.56 F2880.0
G1 X25.68 Y36.55 Z1.56 F2880.0
G1 X26.13 Y37.17 Z1.56 F2880.0
G1 X26.48 Y36.91 Z1.56 F2880.0
G1 X26.03 Y36.29 Z1.56 F2880.0
G1 X26.38 Y36.02 Z1.56 F2880.0
G1 X26.83 Y36.65 Z1.56 F2880.0
G1 X27.18 Y36.38 Z1.56 F2880.0
G1 X26.73 Y35.76 Z1.56 F2880.0
G1 X27.08 Y35.49 Z1.56 F2880.0
G1 X27.53 Y36.12 Z1.56 F2880.0
G1 X27.88 Y35.85 Z1.56 F2880.0
G1 X27.43 Y35.23 Z1.56 F2880.0
G1 X27.78 Y34.97 Z1.56 F2880.0
G1 X28.23 Y35.59 Z1.56 F2880.0
G1 X28.58 Y35.32 Z1.56 F2880.0
G1 X28.13 Y34.7 Z1.56 F2880.0
G1 X28.48 Y34.44 Z1.56 F2880.0
G1 X28.93 Y35.06 Z1.56 F2880.0
G1 X29.28 Y34.79 Z1.56 F2880.0
G1 X28.83 Y34.17 Z1.56 F2880.0
M103
G1 X29.33 Y35.14 Z1.56 F3300.0
G1 X28.28 Y36.12 Z1.56 F3300.0
G1 X29.67 Y37.96 Z1.56 F3300.0
G1 X30.69 Y37.39 Z1.56 F3300.0
G1 X30.8 Y37.67 Z1.56 F3300.0
M101
G1 X31.26 Y38.31 Z1.56 F2880.0
G1 X30.91 Y38.57 Z1.56 F2880.0
G1 X30.45 Y37.93 Z1.56 F2880.0
G1 X30.1 Y38.2 Z1.56 F2880.0
G1 X30.56 Y38.84 Z1.56 F2880.0
G1 X30.21 Y39.1 Z1.56 F2880.0
G1 X29.75 Y38.46 Z1.56 F2880.0
G1 X29.4 Y38.73 Z1.56 F2880.0
G1 X29.86 Y39.37 Z1.56 F2880.0
G1 X29.51 Y39.63 Z1.56 F2880.0
G1 X29.05 Y38.99 Z1.56 F2880.0
G1 X28.7 Y39.26 Z1.56 F2880.0
G1 X29.16 Y39.9 Z1.56 F2880.0
G1 X28.81 Y40.16 Z1.56 F2880.0
G1 X28.35 Y39.52 Z1.56 F2880.0
M103
G1 X29.11 Y40.32 Z1.56 F3300.0
G1 X29.98 Y39.85 Z1.56 F3300.0
G1 X31.38 Y41.69 Z1.56 F3300.0
G1 X30.82 Y42.3 Z1.56 F3300.0
G1 X31.02 Y42.48 Z1.56 F3300.0
M101
G1 X31.32 Y42.91 Z1.56 F2880.0
G1 X31.84 Y42.88 Z1.56 F2880.0
G1 X31.39 Y42.24 Z1.56 F2880.0
G1 X31.73 Y41.98 Z1.56 F2880.0
G1 X32.19 Y42.62 Z1.56 F2880.0
G1 X32.54 Y42.35 Z1.56 F2880.0
G1 X32.09 Y41.72 Z1.56 F2880.0
G1 X32.44 Y41.45 Z1.56 F2880.0
G1 X32.89 Y42.09 Z1.56 F2880.0
